(VECTRIC POST REVISION)
(AE8C5706166A14C0DE23454C54EBD95B)
%
G21
G40
G94
G97
G64
G90
T1 M6
M8
M3 S12000
G0 X3.666 Y3.273
G0 Z6.000
G1 X3.666 Y3.273 Z0.000 F250.0
G1 X3.601 Y3.306 Z-0.001
G1 X3.539 Y3.346 Z-0.001
G1 X3.479 Y3.393 Z-0.002
G1 X3.423 Y3.446 Z-0.003
G1 X3.372 Y3.505 Z-0.003
G1 X3.327 Y3.568 Z-0.004
G1 X3.288 Y3.636 Z-0.005
G1 X3.256 Y3.707 Z-0.005
G1 X3.231 Y3.780 Z-0.006
G1 X3.214 Y3.853 Z-0.007
G1 X3.203 Y3.927 Z-0.007
G1 X3.200 Y4.000 Z-0.008
G1 X3.200 Y9.200 Z-0.053
G1 X3.200 Y10.100 Z-0.061
G1 X3.200 Y15.350 Z-0.106
G1 X3.203 Y15.422 Z-0.107
G1 X3.213 Y15.496 Z-0.108
G1 X3.231 Y15.570 Z-0.108
G1 X3.256 Y15.644 Z-0.109
G1 X3.289 Y15.717 Z-0.110
G1 X3.330 Y15.788 Z-0.110
G1 X3.379 Y15.854 Z-0.111
G1 X3.434 Y15.916 Z-0.112
G1 X3.496 Y15.971 Z-0.112
G1 X3.562 Y16.020 Z-0.113
G1 X3.633 Y16.061 Z-0.114
G1 X3.706 Y16.094 Z-0.114
G1 X3.780 Y16.119 Z-0.115
G1 X3.854 Y16.137 Z-0.116
G1 X3.928 Y16.147 Z-0.116
G1 X4.000 Y16.150 Z-0.117
G1 X8.400 Y16.150 Z-0.155
G1 X8.634 Y15.916 Z-0.158
G1 X8.400 Y16.150 Z-0.161
G1 X8.400 Y19.550 Z-0.191
G1 X8.634 Y19.784 Z-0.193
G1 X8.400 Y19.550 Z-0.196
G1 X4.000 Y19.550 Z-0.234
G1 X3.928 Y19.553 Z-0.235
G1 X3.854 Y19.563 Z-0.236
G1 X3.780 Y19.581 Z-0.236
G1 X3.706 Y19.606 Z-0.237
G1 X3.633 Y19.639 Z-0.238
G1 X3.562 Y19.680 Z-0.238
G1 X3.496 Y19.729 Z-0.239
G1 X3.434 Y19.784 Z-0.240
G1 X3.379 Y19.846 Z-0.241
G1 X3.330 Y19.912 Z-0.241
G1 X3.289 Y19.983 Z-0.242
G1 X3.256 Y20.056 Z-0.243
G1 X3.231 Y20.130 Z-0.243
G1 X3.213 Y20.204 Z-0.244
G1 X3.203 Y20.278 Z-0.245
G1 X3.200 Y20.350 Z-0.245
G1 X3.200 Y26.500 Z-0.299
G1 X3.203 Y26.572 Z-0.299
G1 X3.213 Y26.646 Z-0.300
G1 X3.231 Y26.720 Z-0.301
G1 X3.256 Y26.794 Z-0.301
G1 X3.289 Y26.867 Z-0.302
G1 X3.330 Y26.938 Z-0.303
G1 X3.379 Y27.004 Z-0.303
G1 X3.434 Y27.066 Z-0.304
G1 X3.496 Y27.121 Z-0.305
G1 X3.562 Y27.170 Z-0.305
G1 X3.633 Y27.211 Z-0.306
G1 X3.706 Y27.244 Z-0.307
G1 X3.780 Y27.269 Z-0.307
G1 X3.854 Y27.287 Z-0.308
G1 X3.928 Y27.297 Z-0.309
G1 X4.000 Y27.300 Z-0.309
G1 X8.400 Y27.300 Z-0.348
G1 X8.634 Y27.066 Z-0.350
G1 X8.400 Y27.300 Z-0.353
G1 X8.400 Y30.700 Z-0.383
G1 X8.634 Y30.934 Z-0.386
G1 X8.400 Y30.700 Z-0.389
G1 X4.000 Y30.700 Z-0.427
G1 X3.928 Y30.703 Z-0.427
G1 X3.854 Y30.713 Z-0.428
G1 X3.780 Y30.731 Z-0.429
G1 X3.706 Y30.756 Z-0.429
G1 X3.633 Y30.789 Z-0.430
G1 X3.562 Y30.830 Z-0.431
G1 X3.496 Y30.879 Z-0.431
G1 X3.434 Y30.934 Z-0.432
G1 X3.379 Y30.996 Z-0.433
G1 X3.330 Y31.062 Z-0.433
G1 X3.289 Y31.133 Z-0.434
G1 X3.256 Y31.206 Z-0.435
G1 X3.231 Y31.280 Z-0.436
G1 X3.213 Y31.354 Z-0.436
G1 X3.203 Y31.428 Z-0.437
G1 X3.200 Y31.500 Z-0.438
G1 X3.200 Y37.650 Z-0.491
G1 X3.203 Y37.722 Z-0.492
G1 X3.213 Y37.796 Z-0.492
G1 X3.231 Y37.870 Z-0.493
G1 X3.256 Y37.944 Z-0.494
G1 X3.289 Y38.017 Z-0.494
G1 X3.330 Y38.088 Z-0.495
G1 X3.379 Y38.154 Z-0.496
G1 X3.434 Y38.216 Z-0.496
G1 X3.496 Y38.271 Z-0.497
G1 X3.562 Y38.320 Z-0.498
G1 X3.633 Y38.361 Z-0.498
G1 X3.706 Y38.394 Z-0.499
G1 X3.780 Y38.419 Z-0.500
G1 X3.854 Y38.437 Z-0.500
G1 X3.928 Y38.447 Z-0.501
G1 X4.000 Y38.450 Z-0.502
G1 X8.400 Y38.450 Z-0.540
G1 X8.550 Y38.300 Z-0.542
G1 X8.634 Y38.216 Z-0.543
G1 X8.400 Y38.450 Z-0.546
G1 X8.400 Y41.850 Z-0.575
G1 X8.634 Y42.084 Z-0.578
G1 X8.400 Y41.850 Z-0.581
G1 X4.000 Y41.850 Z-0.619
G1 X3.928 Y41.853 Z-0.620
G1 X3.854 Y41.863 Z-0.620
G1 X3.780 Y41.881 Z-0.621
G1 X3.706 Y41.906 Z-0.622
G1 X3.633 Y41.939 Z-0.622
G1 X3.562 Y41.980 Z-0.623
G1 X3.496 Y42.029 Z-0.624
G1 X3.434 Y42.084 Z-0.624
G1 X3.379 Y42.146 Z-0.625
G1 X3.330 Y42.212 Z-0.626
G1 X3.289 Y42.283 Z-0.626
G1 X3.256 Y42.356 Z-0.627
G1 X3.231 Y42.430 Z-0.628
G1 X3.213 Y42.504 Z-0.629
G1 X3.203 Y42.578 Z-0.629
G1 X3.200 Y42.650 Z-0.630
G1 X3.200 Y44.825 Z-0.649
G1 X3.200 Y51.825 Z-0.709
G1 X3.200 Y54.000 Z-0.728
G1 X3.203 Y54.069 Z-0.729
G1 X3.212 Y54.137 Z-0.729
G1 X3.227 Y54.204 Z-0.730
G1 X3.247 Y54.270 Z-0.731
G1 X3.273 Y54.334 Z-0.731
G1 X3.306 Y54.399 Z-0.732
G1 X3.346 Y54.461 Z-0.733
G1 X3.393 Y54.521 Z-0.733
G1 X3.446 Y54.577 Z-0.734
G1 X3.505 Y54.628 Z-0.735
G1 X3.568 Y54.673 Z-0.735
G1 X3.636 Y54.712 Z-0.736
G1 X3.707 Y54.744 Z-0.737
G1 X3.780 Y54.769 Z-0.737
G1 X3.853 Y54.786 Z-0.738
G1 X3.927 Y54.797 Z-0.738
G1 X4.000 Y54.800 Z-0.739
G1 X9.200 Y54.800 Z-0.784
G1 X10.100 Y54.800 Z-0.792
G1 X15.350 Y54.800 Z-0.838
G1 X15.422 Y54.797 Z-0.838
G1 X15.496 Y54.787 Z-0.839
G1 X15.570 Y54.769 Z-0.840
G1 X15.644 Y54.744 Z-0.840
G1 X15.717 Y54.711 Z-0.841
G1 X15.788 Y54.670 Z-0.842
G1 X15.854 Y54.621 Z-0.842
G1 X15.916 Y54.566 Z-0.843
G1 X15.971 Y54.504 Z-0.844
G1 X16.020 Y54.438 Z-0.844
G1 X16.061 Y54.367 Z-0.845
G1 X16.094 Y54.294 Z-0.846
G1 X16.119 Y54.220 Z-0.846
G1 X16.137 Y54.146 Z-0.847
G1 X16.147 Y54.072 Z-0.848
G1 X16.150 Y54.000 Z-0.848
G1 X16.150 Y51.892 Z-0.867
G1 X16.150 Y49.600 Z-0.867 F180.0
G1 X15.916 Y49.366 Z-0.867
G1 X16.150 Y49.600 Z-0.867
G1 X19.550 Y49.600 Z-0.867
G1 X19.784 Y49.366 Z-0.867
G1 X19.550 Y49.600 Z-0.867
G1 X19.550 Y54.000 Z-0.867
G1 X19.553 Y54.072 Z-0.867
G1 X19.563 Y54.146 Z-0.867
G1 X19.581 Y54.220 Z-0.867
G1 X19.606 Y54.294 Z-0.867
G1 X19.639 Y54.367 Z-0.867
G1 X19.680 Y54.438 Z-0.867
G1 X19.729 Y54.504 Z-0.867
G1 X19.784 Y54.566 Z-0.867
G1 X19.846 Y54.621 Z-0.867
G1 X19.912 Y54.670 Z-0.867
G1 X19.983 Y54.711 Z-0.867
G1 X20.056 Y54.744 Z-0.867
G1 X20.130 Y54.769 Z-0.867
G1 X20.204 Y54.787 Z-0.867
G1 X20.278 Y54.797 Z-0.867
G1 X20.350 Y54.800 Z-0.867
G1 X26.500 Y54.800 Z-0.867
G1 X26.572 Y54.797 Z-0.867
G1 X26.646 Y54.787 Z-0.867
G1 X26.720 Y54.769 Z-0.867
G1 X26.794 Y54.744 Z-0.867
G1 X26.867 Y54.711 Z-0.867
G1 X26.938 Y54.670 Z-0.867
G1 X27.004 Y54.621 Z-0.867
G1 X27.066 Y54.566 Z-0.867
G1 X27.121 Y54.504 Z-0.867
G1 X27.170 Y54.438 Z-0.867
G1 X27.211 Y54.367 Z-0.867
G1 X27.244 Y54.294 Z-0.867
G1 X27.269 Y54.220 Z-0.867
G1 X27.287 Y54.146 Z-0.867
G1 X27.297 Y54.072 Z-0.867
G1 X27.300 Y54.000 Z-0.867
G1 X27.300 Y49.600 Z-0.867
G1 X27.066 Y49.366 Z-0.867
G1 X27.300 Y49.600 Z-0.867
G1 X30.700 Y49.600 Z-0.867
G1 X30.934 Y49.366 Z-0.867
G1 X30.700 Y49.600 Z-0.867
G1 X30.700 Y54.000 Z-0.867
G1 X30.703 Y54.072 Z-0.867
G1 X30.713 Y54.146 Z-0.867
G1 X30.731 Y54.220 Z-0.867
G1 X30.756 Y54.294 Z-0.867
G1 X30.789 Y54.367 Z-0.867
G1 X30.830 Y54.438 Z-0.867
G1 X30.879 Y54.504 Z-0.867
G1 X30.934 Y54.566 Z-0.867
G1 X30.996 Y54.621 Z-0.867
G1 X31.062 Y54.670 Z-0.867
G1 X31.133 Y54.711 Z-0.867
G1 X31.206 Y54.744 Z-0.867
G1 X31.280 Y54.769 Z-0.867
G1 X31.354 Y54.787 Z-0.867
G1 X31.428 Y54.797 Z-0.867
G1 X31.500 Y54.800 Z-0.867
G1 X37.650 Y54.800 Z-0.867
G1 X37.722 Y54.797 Z-0.867
G1 X37.796 Y54.787 Z-0.867
G1 X37.870 Y54.769 Z-0.867
G1 X37.944 Y54.744 Z-0.867
G1 X38.017 Y54.711 Z-0.867
G1 X38.088 Y54.670 Z-0.867
G1 X38.154 Y54.621 Z-0.867
G1 X38.216 Y54.566 Z-0.867
G1 X38.271 Y54.504 Z-0.867
G1 X38.320 Y54.438 Z-0.867
G1 X38.361 Y54.367 Z-0.867
G1 X38.394 Y54.294 Z-0.867
G1 X38.419 Y54.220 Z-0.867
G1 X38.437 Y54.146 Z-0.867
G1 X38.447 Y54.072 Z-0.867
G1 X38.450 Y54.000 Z-0.867
G1 X38.450 Y49.600 Z-0.867
G1 X38.216 Y49.366 Z-0.867
G1 X38.450 Y49.600 Z-0.867
G1 X41.850 Y49.600 Z-0.867
G1 X42.084 Y49.366 Z-0.867
G1 X41.850 Y49.600 Z-0.867
G1 X41.850 Y54.000 Z-0.867
G1 X41.853 Y54.072 Z-0.867
G1 X41.863 Y54.146 Z-0.867
G1 X41.881 Y54.220 Z-0.867
G1 X41.906 Y54.294 Z-0.867
G1 X41.939 Y54.367 Z-0.867
G1 X41.980 Y54.438 Z-0.867
G1 X42.029 Y54.504 Z-0.867
G1 X42.084 Y54.566 Z-0.867
G1 X42.146 Y54.621 Z-0.867
G1 X42.212 Y54.670 Z-0.867
G1 X42.283 Y54.711 Z-0.867
G1 X42.356 Y54.744 Z-0.867
G1 X42.430 Y54.769 Z-0.867
G1 X42.504 Y54.787 Z-0.867
G1 X42.578 Y54.797 Z-0.867
G1 X42.650 Y54.800 Z-0.867
G1 X44.825 Y54.800 Z-0.867
G1 X48.107 Y54.800 Z-0.867
G1 X51.825 Y54.800 Z-0.867
G1 X54.000 Y54.800 Z-0.867
G1 X54.069 Y54.797 Z-0.867
G1 X54.137 Y54.788 Z-0.867
G1 X54.204 Y54.773 Z-0.867
G1 X54.270 Y54.753 Z-0.867
G1 X54.334 Y54.727 Z-0.867
G1 X54.399 Y54.694 Z-0.867
G1 X54.461 Y54.654 Z-0.867
G1 X54.521 Y54.607 Z-0.867
G1 X54.577 Y54.554 Z-0.867
G1 X54.628 Y54.495 Z-0.867
G1 X54.673 Y54.432 Z-0.867
G1 X54.712 Y54.364 Z-0.867
G1 X54.744 Y54.293 Z-0.867
G1 X54.769 Y54.220 Z-0.867
G1 X54.786 Y54.147 Z-0.867
G1 X54.797 Y54.073 Z-0.867
G1 X54.800 Y54.000 Z-0.867
G1 X54.800 Y48.800 Z-0.867
G1 X54.800 Y47.900 Z-0.867
G1 X54.800 Y42.650 Z-0.867
G1 X54.797 Y42.578 Z-0.867
G1 X54.787 Y42.504 Z-0.867
G1 X54.769 Y42.430 Z-0.867
G1 X54.744 Y42.356 Z-0.867
G1 X54.711 Y42.283 Z-0.867
G1 X54.670 Y42.212 Z-0.867
G1 X54.621 Y42.146 Z-0.867
G1 X54.566 Y42.084 Z-0.867
G1 X54.504 Y42.029 Z-0.867
G1 X54.438 Y41.980 Z-0.867
G1 X54.367 Y41.939 Z-0.867
G1 X54.294 Y41.906 Z-0.867
G1 X54.220 Y41.881 Z-0.867
G1 X54.146 Y41.863 Z-0.867
G1 X54.072 Y41.853 Z-0.867
G1 X54.000 Y41.850 Z-0.867
G1 X49.600 Y41.850 Z-0.867
G1 X49.366 Y42.084 Z-0.867
G1 X49.600 Y41.850 Z-0.867
G1 X49.600 Y38.450 Z-0.867
G1 X49.366 Y38.216 Z-0.867
G1 X49.600 Y38.450 Z-0.867
G1 X54.000 Y38.450 Z-0.867
G1 X54.072 Y38.447 Z-0.867
G1 X54.146 Y38.437 Z-0.867
G1 X54.220 Y38.419 Z-0.867
G1 X54.294 Y38.394 Z-0.867
G1 X54.367 Y38.361 Z-0.867
G1 X54.438 Y38.320 Z-0.867
G1 X54.504 Y38.271 Z-0.867
G1 X54.566 Y38.216 Z-0.867
G1 X54.621 Y38.154 Z-0.867
G1 X54.670 Y38.088 Z-0.867
G1 X54.711 Y38.017 Z-0.867
G1 X54.744 Y37.944 Z-0.867
G1 X54.769 Y37.870 Z-0.867
G1 X54.787 Y37.796 Z-0.867
G1 X54.797 Y37.722 Z-0.867
G1 X54.800 Y37.650 Z-0.867
G1 X54.800 Y34.697 Z-0.867
G1 X54.800 Y31.500 Z-0.867
G1 X54.797 Y31.428 Z-0.867
G1 X54.787 Y31.354 Z-0.867
G1 X54.769 Y31.280 Z-0.867
G1 X54.744 Y31.206 Z-0.867
G1 X54.711 Y31.133 Z-0.867
G1 X54.670 Y31.062 Z-0.867
G1 X54.621 Y30.996 Z-0.867
G1 X54.566 Y30.934 Z-0.867
G1 X54.504 Y30.879 Z-0.867
G1 X54.438 Y30.830 Z-0.867
G1 X54.367 Y30.789 Z-0.867
G1 X54.294 Y30.756 Z-0.867
G1 X54.220 Y30.731 Z-0.867
G1 X54.146 Y30.713 Z-0.867
G1 X54.072 Y30.703 Z-0.867
G1 X54.000 Y30.700 Z-0.867
G1 X49.600 Y30.700 Z-0.867
G1 X49.366 Y30.934 Z-0.867
G1 X49.600 Y30.700 Z-0.867
G1 X49.600 Y27.300 Z-0.867
G1 X49.366 Y27.066 Z-0.867
G1 X49.600 Y27.300 Z-0.867
G1 X54.000 Y27.300 Z-0.867
G1 X54.072 Y27.297 Z-0.867
G1 X54.146 Y27.287 Z-0.867
G1 X54.220 Y27.269 Z-0.867
G1 X54.294 Y27.244 Z-0.867
G1 X54.367 Y27.211 Z-0.867
G1 X54.438 Y27.170 Z-0.867
G1 X54.504 Y27.121 Z-0.867
G1 X54.566 Y27.066 Z-0.867
G1 X54.621 Y27.004 Z-0.867
G1 X54.670 Y26.938 Z-0.867
G1 X54.711 Y26.867 Z-0.867
G1 X54.744 Y26.794 Z-0.867
G1 X54.769 Y26.720 Z-0.867
G1 X54.787 Y26.646 Z-0.867
G1 X54.797 Y26.572 Z-0.867
G1 X54.800 Y26.500 Z-0.867
G1 X54.800 Y20.350 Z-0.867
G1 X54.797 Y20.278 Z-0.867
G1 X54.787 Y20.204 Z-0.867
G1 X54.769 Y20.130 Z-0.867
G1 X54.744 Y20.056 Z-0.867
G1 X54.711 Y19.983 Z-0.867
G1 X54.670 Y19.912 Z-0.867
G1 X54.621 Y19.846 Z-0.867
G1 X54.566 Y19.784 Z-0.867
G1 X54.504 Y19.729 Z-0.867
G1 X54.438 Y19.680 Z-0.867
G1 X54.367 Y19.639 Z-0.867
G1 X54.294 Y19.606 Z-0.867
G1 X54.220 Y19.581 Z-0.867
G1 X54.146 Y19.563 Z-0.867
G1 X54.072 Y19.553 Z-0.867
G1 X54.000 Y19.550 Z-0.867
G1 X49.600 Y19.550 Z-0.867
G1 X49.366 Y19.784 Z-0.867
G1 X49.600 Y19.550 Z-0.867
G1 X49.600 Y16.150 Z-0.867
G1 X49.366 Y15.916 Z-0.867
G1 X49.600 Y16.150 Z-0.867
G1 X54.000 Y16.150 Z-0.867
G1 X54.072 Y16.147 Z-0.867
G1 X54.146 Y16.137 Z-0.867
G1 X54.220 Y16.119 Z-0.867
G1 X54.294 Y16.094 Z-0.867
G1 X54.367 Y16.061 Z-0.867
G1 X54.438 Y16.020 Z-0.867
G1 X54.504 Y15.971 Z-0.867
G1 X54.566 Y15.916 Z-0.867
G1 X54.621 Y15.854 Z-0.867
G1 X54.670 Y15.788 Z-0.867
G1 X54.711 Y15.717 Z-0.867
G1 X54.744 Y15.644 Z-0.867
G1 X54.769 Y15.570 Z-0.867
G1 X54.787 Y15.496 Z-0.867
G1 X54.797 Y15.422 Z-0.867
G1 X54.800 Y15.350 Z-0.867
G1 X54.800 Y13.175 Z-0.867
G1 X54.800 Y6.175 Z-0.867
G1 X54.800 Y4.000 Z-0.867
G1 X54.797 Y3.931 Z-0.867
G1 X54.788 Y3.863 Z-0.867
G1 X54.773 Y3.796 Z-0.867
G1 X54.753 Y3.730 Z-0.867
G1 X54.727 Y3.666 Z-0.867
G1 X54.694 Y3.601 Z-0.867
G1 X54.654 Y3.539 Z-0.867
G1 X54.607 Y3.479 Z-0.867
G1 X54.554 Y3.423 Z-0.867
G1 X54.495 Y3.372 Z-0.867
G1 X54.432 Y3.327 Z-0.867
G1 X54.364 Y3.288 Z-0.867
G1 X54.293 Y3.256 Z-0.867
G1 X54.220 Y3.231 Z-0.867
G1 X54.147 Y3.214 Z-0.867
G1 X54.073 Y3.203 Z-0.867
G1 X54.000 Y3.200 Z-0.867
G1 X48.800 Y3.200 Z-0.867
G1 X47.900 Y3.200 Z-0.867
G1 X42.650 Y3.200 Z-0.867
G1 X42.578 Y3.203 Z-0.867
G1 X42.504 Y3.213 Z-0.867
G1 X42.430 Y3.231 Z-0.867
G1 X42.356 Y3.256 Z-0.867
G1 X42.283 Y3.289 Z-0.867
G1 X42.212 Y3.330 Z-0.867
G1 X42.146 Y3.379 Z-0.867
G1 X42.084 Y3.434 Z-0.867
G1 X42.029 Y3.496 Z-0.867
G1 X41.980 Y3.562 Z-0.867
G1 X41.939 Y3.633 Z-0.867
G1 X41.906 Y3.706 Z-0.867
G1 X41.881 Y3.780 Z-0.867
G1 X41.863 Y3.854 Z-0.867
G1 X41.853 Y3.928 Z-0.867
G1 X41.850 Y4.000 Z-0.867
G1 X41.850 Y8.400 Z-0.867
G1 X42.084 Y8.634 Z-0.867
G1 X41.850 Y8.400 Z-0.867
G1 X38.450 Y8.400 Z-0.867
G1 X38.216 Y8.634 Z-0.867
G1 X38.450 Y8.400 Z-0.867
G1 X38.450 Y4.000 Z-0.867
G1 X38.447 Y3.928 Z-0.867
G1 X38.437 Y3.854 Z-0.867
G1 X38.419 Y3.780 Z-0.867
G1 X38.394 Y3.706 Z-0.867
G1 X38.361 Y3.633 Z-0.867
G1 X38.320 Y3.562 Z-0.867
G1 X38.271 Y3.496 Z-0.867
G1 X38.216 Y3.434 Z-0.867
G1 X38.154 Y3.379 Z-0.867
G1 X38.088 Y3.330 Z-0.867
G1 X38.017 Y3.289 Z-0.867
G1 X37.944 Y3.256 Z-0.867
G1 X37.870 Y3.231 Z-0.867
G1 X37.796 Y3.213 Z-0.867
G1 X37.722 Y3.203 Z-0.867
G1 X37.650 Y3.200 Z-0.867
G1 X31.500 Y3.200 Z-0.867
G1 X31.428 Y3.203 Z-0.867
G1 X31.354 Y3.213 Z-0.867
G1 X31.280 Y3.231 Z-0.867
G1 X31.206 Y3.256 Z-0.867
G1 X31.133 Y3.289 Z-0.867
G1 X31.062 Y3.330 Z-0.867
G1 X30.996 Y3.379 Z-0.867
G1 X30.934 Y3.434 Z-0.867
G1 X30.879 Y3.496 Z-0.867
G1 X30.830 Y3.562 Z-0.867
G1 X30.789 Y3.633 Z-0.867
G1 X30.756 Y3.706 Z-0.867
G1 X30.731 Y3.780 Z-0.867
G1 X30.713 Y3.854 Z-0.867
G1 X30.703 Y3.928 Z-0.867
G1 X30.700 Y4.000 Z-0.867
G1 X30.700 Y8.400 Z-0.867
G1 X30.934 Y8.634 Z-0.867
G1 X30.700 Y8.400 Z-0.867
G1 X27.300 Y8.400 Z-0.867
G1 X27.066 Y8.634 Z-0.867
G1 X27.300 Y8.400 Z-0.867
G1 X27.300 Y6.352 Z-0.867
G1 X27.300 Y4.000 Z-0.867
G1 X27.297 Y3.928 Z-0.867
G1 X27.287 Y3.854 Z-0.867
G1 X27.269 Y3.780 Z-0.867
G1 X27.244 Y3.706 Z-0.867
G1 X27.211 Y3.633 Z-0.867
G1 X27.170 Y3.562 Z-0.867
G1 X27.121 Y3.496 Z-0.867
G1 X27.066 Y3.434 Z-0.867
G1 X27.004 Y3.379 Z-0.867
G1 X26.938 Y3.330 Z-0.867
G1 X26.867 Y3.289 Z-0.867
G1 X26.794 Y3.256 Z-0.867
G1 X26.720 Y3.231 Z-0.867
G1 X26.646 Y3.213 Z-0.867
G1 X26.572 Y3.203 Z-0.867
G1 X26.500 Y3.200 Z-0.867
G1 X20.350 Y3.200 Z-0.867
G1 X20.278 Y3.203 Z-0.867
G1 X20.204 Y3.213 Z-0.867
G1 X20.130 Y3.231 Z-0.867
G1 X20.056 Y3.256 Z-0.867
G1 X19.983 Y3.289 Z-0.867
G1 X19.912 Y3.330 Z-0.867
G1 X19.846 Y3.379 Z-0.867
G1 X19.784 Y3.434 Z-0.867
G1 X19.729 Y3.496 Z-0.867
G1 X19.680 Y3.562 Z-0.867
G1 X19.639 Y3.633 Z-0.867
G1 X19.606 Y3.706 Z-0.867
G1 X19.581 Y3.780 Z-0.867
G1 X19.563 Y3.854 Z-0.867
G1 X19.553 Y3.928 Z-0.867
G1 X19.550 Y4.000 Z-0.867
G1 X19.550 Y8.400 Z-0.867
G1 X19.784 Y8.634 Z-0.867
G1 X19.550 Y8.400 Z-0.867
G1 X16.150 Y8.400 Z-0.867
G1 X15.916 Y8.634 Z-0.867
G1 X16.150 Y8.400 Z-0.867
G1 X16.150 Y4.000 Z-0.867
G1 X16.147 Y3.928 Z-0.867
G1 X16.137 Y3.854 Z-0.867
G1 X16.119 Y3.780 Z-0.867
G1 X16.094 Y3.706 Z-0.867
G1 X16.061 Y3.633 Z-0.867
G1 X16.020 Y3.562 Z-0.867
G1 X15.971 Y3.496 Z-0.867
G1 X15.916 Y3.434 Z-0.867
G1 X15.854 Y3.379 Z-0.867
G1 X15.788 Y3.330 Z-0.867
G1 X15.717 Y3.289 Z-0.867
G1 X15.644 Y3.256 Z-0.867
G1 X15.570 Y3.231 Z-0.867
G1 X15.496 Y3.213 Z-0.867
G1 X15.422 Y3.203 Z-0.867
G1 X15.350 Y3.200 Z-0.867
G1 X13.175 Y3.200 Z-0.867
G1 X6.175 Y3.200 Z-0.867
G1 X4.000 Y3.200 Z-0.867
G1 X3.931 Y3.203 Z-0.867
G1 X3.863 Y3.212 Z-0.867
G1 X3.796 Y3.227 Z-0.867
G1 X3.730 Y3.247 Z-0.867
G1 X3.666 Y3.273 Z-0.867
G1 X3.601 Y3.306 Z-0.867
G1 X3.539 Y3.346 Z-0.867
G1 X3.479 Y3.393 Z-0.867
G1 X3.423 Y3.446 Z-0.867
G1 X3.372 Y3.505 Z-0.867
G1 X3.327 Y3.568 Z-0.867
G1 X3.288 Y3.636 Z-0.867
G1 X3.256 Y3.707 Z-0.867
G1 X3.231 Y3.780 Z-0.867
G1 X3.214 Y3.853 Z-0.867
G1 X3.203 Y3.927 Z-0.867
G1 X3.200 Y4.000 Z-0.867
G1 X3.200 Y9.200 Z-0.867
G1 X3.200 Y10.100 Z-0.867
G1 X3.200 Y15.350 Z-0.867
G1 X3.203 Y15.422 Z-0.867
G1 X3.213 Y15.496 Z-0.867
G1 X3.231 Y15.570 Z-0.867
G1 X3.256 Y15.644 Z-0.867
G1 X3.289 Y15.717 Z-0.867
G1 X3.330 Y15.788 Z-0.867
G1 X3.379 Y15.854 Z-0.867
G1 X3.434 Y15.916 Z-0.867
G1 X3.496 Y15.971 Z-0.867
G1 X3.562 Y16.020 Z-0.867
G1 X3.633 Y16.061 Z-0.867
G1 X3.706 Y16.094 Z-0.867
G1 X3.780 Y16.119 Z-0.867
G1 X3.854 Y16.137 Z-0.867
G1 X3.928 Y16.147 Z-0.867
G1 X4.000 Y16.150 Z-0.867
G1 X8.400 Y16.150 Z-0.867
G1 X8.634 Y15.916 Z-0.867
G1 X8.400 Y16.150 Z-0.867
G1 X8.400 Y19.550 Z-0.867
G1 X8.634 Y19.784 Z-0.867
G1 X8.400 Y19.550 Z-0.867
G1 X4.000 Y19.550 Z-0.867
G1 X3.928 Y19.553 Z-0.867
G1 X3.854 Y19.563 Z-0.867
G1 X3.780 Y19.581 Z-0.867
G1 X3.706 Y19.606 Z-0.867
G1 X3.633 Y19.639 Z-0.867
G1 X3.562 Y19.680 Z-0.867
G1 X3.496 Y19.729 Z-0.867
G1 X3.434 Y19.784 Z-0.867
G1 X3.379 Y19.846 Z-0.867
G1 X3.330 Y19.912 Z-0.867
G1 X3.289 Y19.983 Z-0.867
G1 X3.256 Y20.056 Z-0.867
G1 X3.231 Y20.130 Z-0.867
G1 X3.213 Y20.204 Z-0.867
G1 X3.203 Y20.278 Z-0.867
G1 X3.200 Y20.350 Z-0.867
G1 X3.200 Y26.500 Z-0.867
G1 X3.203 Y26.572 Z-0.867
G1 X3.213 Y26.646 Z-0.867
G1 X3.231 Y26.720 Z-0.867
G1 X3.256 Y26.794 Z-0.867
G1 X3.289 Y26.867 Z-0.867
G1 X3.330 Y26.938 Z-0.867
G1 X3.379 Y27.004 Z-0.867
G1 X3.434 Y27.066 Z-0.867
G1 X3.496 Y27.121 Z-0.867
G1 X3.562 Y27.170 Z-0.867
G1 X3.633 Y27.211 Z-0.867
G1 X3.706 Y27.244 Z-0.867
G1 X3.780 Y27.269 Z-0.867
G1 X3.854 Y27.287 Z-0.867
G1 X3.928 Y27.297 Z-0.867
G1 X4.000 Y27.300 Z-0.867
G1 X8.400 Y27.300 Z-0.867
G1 X8.634 Y27.066 Z-0.867
G1 X8.400 Y27.300 Z-0.867
G1 X8.400 Y30.700 Z-0.867
G1 X8.634 Y30.934 Z-0.867
G1 X8.400 Y30.700 Z-0.867
G1 X4.000 Y30.700 Z-0.867
G1 X3.928 Y30.703 Z-0.867
G1 X3.854 Y30.713 Z-0.867
G1 X3.780 Y30.731 Z-0.867
G1 X3.706 Y30.756 Z-0.867
G1 X3.633 Y30.789 Z-0.867
G1 X3.562 Y30.830 Z-0.867
G1 X3.496 Y30.879 Z-0.867
G1 X3.434 Y30.934 Z-0.867
G1 X3.379 Y30.996 Z-0.867
G1 X3.330 Y31.062 Z-0.867
G1 X3.289 Y31.133 Z-0.867
G1 X3.256 Y31.206 Z-0.867
G1 X3.231 Y31.280 Z-0.867
G1 X3.213 Y31.354 Z-0.867
G1 X3.203 Y31.428 Z-0.867
G1 X3.200 Y31.500 Z-0.867
G1 X3.200 Y37.650 Z-0.867
G1 X3.203 Y37.722 Z-0.867
G1 X3.213 Y37.796 Z-0.867
G1 X3.231 Y37.870 Z-0.867
G1 X3.256 Y37.944 Z-0.867
G1 X3.289 Y38.017 Z-0.867
G1 X3.330 Y38.088 Z-0.867
G1 X3.379 Y38.154 Z-0.867
G1 X3.434 Y38.216 Z-0.867
G1 X3.496 Y38.271 Z-0.867
G1 X3.562 Y38.320 Z-0.867
G1 X3.633 Y38.361 Z-0.867
G1 X3.706 Y38.394 Z-0.867
G1 X3.780 Y38.419 Z-0.867
G1 X3.854 Y38.437 Z-0.867
G1 X3.928 Y38.447 Z-0.867
G1 X4.000 Y38.450 Z-0.867
G1 X8.400 Y38.450 Z-0.867
G1 X8.550 Y38.300 Z-0.867
G1 X8.634 Y38.216 Z-0.867
G1 X8.400 Y38.450 Z-0.867
G1 X8.400 Y41.850 Z-0.867
G1 X8.634 Y42.084 Z-0.867
G1 X8.400 Y41.850 Z-0.867
G1 X4.000 Y41.850 Z-0.867
G1 X3.928 Y41.853 Z-0.867
G1 X3.854 Y41.863 Z-0.867
G1 X3.780 Y41.881 Z-0.867
G1 X3.706 Y41.906 Z-0.867
G1 X3.633 Y41.939 Z-0.867
G1 X3.562 Y41.980 Z-0.867
G1 X3.496 Y42.029 Z-0.867
G1 X3.434 Y42.084 Z-0.867
G1 X3.379 Y42.146 Z-0.867
G1 X3.330 Y42.212 Z-0.867
G1 X3.289 Y42.283 Z-0.867
G1 X3.256 Y42.356 Z-0.867
G1 X3.231 Y42.430 Z-0.867
G1 X3.213 Y42.504 Z-0.867
G1 X3.203 Y42.578 Z-0.867
G1 X3.200 Y42.650 Z-0.867
G1 X3.200 Y44.825 Z-0.867
G1 X3.200 Y51.825 Z-0.867
G1 X3.200 Y54.000 Z-0.867
G1 X3.203 Y54.069 Z-0.867
G1 X3.212 Y54.137 Z-0.867
G1 X3.227 Y54.204 Z-0.867
G1 X3.247 Y54.270 Z-0.867
G1 X3.273 Y54.334 Z-0.867
G1 X3.306 Y54.399 Z-0.867
G1 X3.346 Y54.461 Z-0.867
G1 X3.393 Y54.521 Z-0.867
G1 X3.446 Y54.577 Z-0.867
G1 X3.505 Y54.628 Z-0.867
G1 X3.568 Y54.673 Z-0.867
G1 X3.636 Y54.712 Z-0.867
G1 X3.707 Y54.744 Z-0.867
G1 X3.780 Y54.769 Z-0.867
G1 X3.853 Y54.786 Z-0.867
G1 X3.927 Y54.797 Z-0.867
G1 X4.000 Y54.800 Z-0.867
G1 X9.200 Y54.800 Z-0.867
G1 X10.100 Y54.800 Z-0.867
G1 X15.350 Y54.800 Z-0.867
G1 X15.422 Y54.797 Z-0.867
G1 X15.496 Y54.787 Z-0.867
G1 X15.570 Y54.769 Z-0.867
G1 X15.644 Y54.744 Z-0.867
G1 X15.717 Y54.711 Z-0.867
G1 X15.788 Y54.670 Z-0.867
G1 X15.854 Y54.621 Z-0.867
G1 X15.916 Y54.566 Z-0.867
G1 X15.971 Y54.504 Z-0.867
G1 X16.020 Y54.438 Z-0.867
G1 X16.061 Y54.367 Z-0.867
G1 X16.094 Y54.294 Z-0.867
G1 X16.119 Y54.220 Z-0.867
G1 X16.137 Y54.146 Z-0.867
G1 X16.147 Y54.072 Z-0.867
G1 X16.150 Y54.000 Z-0.867
G1 X16.150 Y51.892 Z-0.867
G1 X16.150 Y49.600 Z-0.887 F250.0
G1 X15.916 Y49.366 Z-0.889
G1 X16.150 Y49.600 Z-0.892
G1 X19.550 Y49.600 Z-0.922
G1 X19.784 Y49.366 Z-0.925
G1 X19.550 Y49.600 Z-0.927
G1 X19.550 Y54.000 Z-0.966
G1 X19.553 Y54.072 Z-0.966
G1 X19.563 Y54.146 Z-0.967
G1 X19.581 Y54.220 Z-0.968
G1 X19.606 Y54.294 Z-0.968
G1 X19.639 Y54.367 Z-0.969
G1 X19.680 Y54.438 Z-0.970
G1 X19.729 Y54.504 Z-0.970
G1 X19.784 Y54.566 Z-0.971
G1 X19.846 Y54.621 Z-0.972
G1 X19.912 Y54.670 Z-0.972
G1 X19.983 Y54.711 Z-0.973
G1 X20.056 Y54.744 Z-0.974
G1 X20.130 Y54.769 Z-0.974
G1 X20.204 Y54.787 Z-0.975
G1 X20.278 Y54.797 Z-0.976
G1 X20.350 Y54.800 Z-0.977
G1 X26.500 Y54.800 Z-1.030
G1 X26.572 Y54.797 Z-1.030
G1 X26.646 Y54.787 Z-1.031
G1 X26.720 Y54.769 Z-1.032
G1 X26.794 Y54.744 Z-1.033
G1 X26.867 Y54.711 Z-1.033
G1 X26.938 Y54.670 Z-1.034
G1 X27.004 Y54.621 Z-1.035
G1 X27.066 Y54.566 Z-1.035
G1 X27.121 Y54.504 Z-1.036
G1 X27.170 Y54.438 Z-1.037
G1 X27.211 Y54.367 Z-1.037
G1 X27.244 Y54.294 Z-1.038
G1 X27.269 Y54.220 Z-1.039
G1 X27.287 Y54.146 Z-1.039
G1 X27.297 Y54.072 Z-1.040
G1 X27.300 Y54.000 Z-1.041
G1 X27.300 Y49.600 Z-1.079
G1 X27.066 Y49.366 Z-1.082
G1 X27.300 Y49.600 Z-1.085
G1 X30.700 Y49.600 Z-1.114
G1 X30.934 Y49.366 Z-1.117
G1 X30.700 Y49.600 Z-1.120
G1 X30.700 Y54.000 Z-1.158
G1 X30.703 Y54.072 Z-1.159
G1 X30.713 Y54.146 Z-1.159
G1 X30.731 Y54.220 Z-1.160
G1 X30.756 Y54.294 Z-1.161
G1 X30.789 Y54.367 Z-1.161
G1 X30.830 Y54.438 Z-1.162
G1 X30.879 Y54.504 Z-1.163
G1 X30.934 Y54.566 Z-1.163
G1 X30.996 Y54.621 Z-1.164
G1 X31.062 Y54.670 Z-1.165
G1 X31.133 Y54.711 Z-1.165
G1 X31.206 Y54.744 Z-1.166
G1 X31.280 Y54.769 Z-1.167
G1 X31.354 Y54.787 Z-1.167
G1 X31.428 Y54.797 Z-1.168
G1 X31.500 Y54.800 Z-1.169
G1 X37.650 Y54.800 Z-1.222
G1 X37.722 Y54.797 Z-1.223
G1 X37.796 Y54.787 Z-1.223
G1 X37.870 Y54.769 Z-1.224
G1 X37.944 Y54.744 Z-1.225
G1 X38.017 Y54.711 Z-1.226
G1 X38.088 Y54.670 Z-1.226
G1 X38.154 Y54.621 Z-1.227
G1 X38.216 Y54.566 Z-1.228
G1 X38.271 Y54.504 Z-1.228
G1 X38.320 Y54.438 Z-1.229
G1 X38.361 Y54.367 Z-1.230
G1 X38.394 Y54.294 Z-1.230
G1 X38.419 Y54.220 Z-1.231
G1 X38.437 Y54.146 Z-1.232
G1 X38.447 Y54.072 Z-1.232
G1 X38.450 Y54.000 Z-1.233
G1 X38.450 Y49.600 Z-1.271
G1 X38.216 Y49.366 Z-1.274
G1 X38.450 Y49.600 Z-1.277
G1 X41.850 Y49.600 Z-1.306
G1 X42.084 Y49.366 Z-1.309
G1 X41.850 Y49.600 Z-1.312
G1 X41.850 Y54.000 Z-1.350
G1 X41.853 Y54.072 Z-1.351
G1 X41.863 Y54.146 Z-1.352
G1 X41.881 Y54.220 Z-1.352
G1 X41.906 Y54.294 Z-1.353
G1 X41.939 Y54.367 Z-1.354
G1 X41.980 Y54.438 Z-1.354
G1 X42.029 Y54.504 Z-1.355
G1 X42.084 Y54.566 Z-1.356
G1 X42.146 Y54.621 Z-1.356
G1 X42.212 Y54.670 Z-1.357
G1 X42.283 Y54.711 Z-1.358
G1 X42.356 Y54.744 Z-1.358
G1 X42.430 Y54.769 Z-1.359
G1 X42.504 Y54.787 Z-1.360
G1 X42.578 Y54.797 Z-1.360
G1 X42.650 Y54.800 Z-1.361
G1 X44.825 Y54.800 Z-1.380
G1 X48.107 Y54.800 Z-1.408
G1 X51.825 Y54.800 Z-1.441
G1 X54.000 Y54.800 Z-1.459
G1 X54.069 Y54.797 Z-1.460
G1 X54.137 Y54.788 Z-1.461
G1 X54.204 Y54.773 Z-1.461
G1 X54.270 Y54.753 Z-1.462
G1 X54.334 Y54.727 Z-1.462
G1 X54.399 Y54.694 Z-1.463
G1 X54.461 Y54.654 Z-1.464
G1 X54.521 Y54.607 Z-1.464
G1 X54.577 Y54.554 Z-1.465
G1 X54.628 Y54.495 Z-1.466
G1 X54.673 Y54.432 Z-1.466
G1 X54.712 Y54.364 Z-1.467
G1 X54.744 Y54.293 Z-1.468
G1 X54.769 Y54.220 Z-1.468
G1 X54.786 Y54.147 Z-1.469
G1 X54.797 Y54.073 Z-1.470
G1 X54.800 Y54.000 Z-1.470
G1 X54.800 Y48.800 Z-1.515
G1 X54.800 Y47.900 Z-1.523
G1 X54.800 Y42.650 Z-1.569
G1 X54.797 Y42.578 Z-1.569
G1 X54.787 Y42.504 Z-1.570
G1 X54.769 Y42.430 Z-1.571
G1 X54.744 Y42.356 Z-1.571
G1 X54.711 Y42.283 Z-1.572
G1 X54.670 Y42.212 Z-1.573
G1 X54.621 Y42.146 Z-1.574
G1 X54.566 Y42.084 Z-1.574
G1 X54.504 Y42.029 Z-1.575
G1 X54.438 Y41.980 Z-1.576
G1 X54.367 Y41.939 Z-1.576
G1 X54.294 Y41.906 Z-1.577
G1 X54.220 Y41.881 Z-1.578
G1 X54.146 Y41.863 Z-1.578
G1 X54.072 Y41.853 Z-1.579
G1 X54.000 Y41.850 Z-1.580
G1 X49.600 Y41.850 Z-1.618
G1 X49.366 Y42.084 Z-1.621
G1 X49.600 Y41.850 Z-1.624
G1 X49.600 Y38.450 Z-1.653
G1 X49.366 Y38.216 Z-1.656
G1 X49.600 Y38.450 Z-1.659
G1 X54.000 Y38.450 Z-1.697
G1 X54.072 Y38.447 Z-1.698
G1 X54.146 Y38.437 Z-1.698
G1 X54.220 Y38.419 Z-1.699
G1 X54.294 Y38.394 Z-1.700
G1 X54.367 Y38.361 Z-1.700
G1 X54.438 Y38.320 Z-1.701
G1 X54.504 Y38.271 Z-1.702
G1 X54.566 Y38.216 Z-1.702
G1 X54.621 Y38.154 Z-1.703
G1 X54.670 Y38.088 Z-1.704
G1 X54.711 Y38.017 Z-1.704
G1 X54.744 Y37.944 Z-1.705
G1 X54.769 Y37.870 Z-1.706
G1 X54.787 Y37.796 Z-1.706
G1 X54.797 Y37.722 Z-1.707
G1 X54.800 Y37.650 Z-1.708
G1 X54.800 Y34.697 Z-1.733
G1 X54.800 Y31.500 Z-1.733 F180.0
G1 X54.797 Y31.428 Z-1.733
G1 X54.787 Y31.354 Z-1.733
G1 X54.769 Y31.280 Z-1.733
G1 X54.744 Y31.206 Z-1.733
G1 X54.711 Y31.133 Z-1.733
G1 X54.670 Y31.062 Z-1.733
G1 X54.621 Y30.996 Z-1.733
G1 X54.566 Y30.934 Z-1.733
G1 X54.504 Y30.879 Z-1.733
G1 X54.438 Y30.830 Z-1.733
G1 X54.367 Y30.789 Z-1.733
G1 X54.294 Y30.756 Z-1.733
G1 X54.220 Y30.731 Z-1.733
G1 X54.146 Y30.713 Z-1.733
G1 X54.072 Y30.703 Z-1.733
G1 X54.000 Y30.700 Z-1.733
G1 X49.600 Y30.700 Z-1.733
G1 X49.366 Y30.934 Z-1.733
G1 X49.600 Y30.700 Z-1.733
G1 X49.600 Y27.300 Z-1.733
G1 X49.366 Y27.066 Z-1.733
G1 X49.600 Y27.300 Z-1.733
G1 X54.000 Y27.300 Z-1.733
G1 X54.072 Y27.297 Z-1.733
G1 X54.146 Y27.287 Z-1.733
G1 X54.220 Y27.269 Z-1.733
G1 X54.294 Y27.244 Z-1.733
G1 X54.367 Y27.211 Z-1.733
G1 X54.438 Y27.170 Z-1.733
G1 X54.504 Y27.121 Z-1.733
G1 X54.566 Y27.066 Z-1.733
G1 X54.621 Y27.004 Z-1.733
G1 X54.670 Y26.938 Z-1.733
G1 X54.711 Y26.867 Z-1.733
G1 X54.744 Y26.794 Z-1.733
G1 X54.769 Y26.720 Z-1.733
G1 X54.787 Y26.646 Z-1.733
G1 X54.797 Y26.572 Z-1.733
G1 X54.800 Y26.500 Z-1.733
G1 X54.800 Y20.350 Z-1.733
G1 X54.797 Y20.278 Z-1.733
G1 X54.787 Y20.204 Z-1.733
G1 X54.769 Y20.130 Z-1.733
G1 X54.744 Y20.056 Z-1.733
G1 X54.711 Y19.983 Z-1.733
G1 X54.670 Y19.912 Z-1.733
G1 X54.621 Y19.846 Z-1.733
G1 X54.566 Y19.784 Z-1.733
G1 X54.504 Y19.729 Z-1.733
G1 X54.438 Y19.680 Z-1.733
G1 X54.367 Y19.639 Z-1.733
G1 X54.294 Y19.606 Z-1.733
G1 X54.220 Y19.581 Z-1.733
G1 X54.146 Y19.563 Z-1.733
G1 X54.072 Y19.553 Z-1.733
G1 X54.000 Y19.550 Z-1.733
G1 X49.600 Y19.550 Z-1.733
G1 X49.366 Y19.784 Z-1.733
G1 X49.600 Y19.550 Z-1.733
G1 X49.600 Y16.150 Z-1.733
G1 X49.366 Y15.916 Z-1.733
G1 X49.600 Y16.150 Z-1.733
G1 X54.000 Y16.150 Z-1.733
G1 X54.072 Y16.147 Z-1.733
G1 X54.146 Y16.137 Z-1.733
G1 X54.220 Y16.119 Z-1.733
G1 X54.294 Y16.094 Z-1.733
G1 X54.367 Y16.061 Z-1.733
G1 X54.438 Y16.020 Z-1.733
G1 X54.504 Y15.971 Z-1.733
G1 X54.566 Y15.916 Z-1.733
G1 X54.621 Y15.854 Z-1.733
G1 X54.670 Y15.788 Z-1.733
G1 X54.711 Y15.717 Z-1.733
G1 X54.744 Y15.644 Z-1.733
G1 X54.769 Y15.570 Z-1.733
G1 X54.787 Y15.496 Z-1.733
G1 X54.797 Y15.422 Z-1.733
G1 X54.800 Y15.350 Z-1.733
G1 X54.800 Y13.175 Z-1.733
G1 X54.800 Y6.175 Z-1.733
G1 X54.800 Y4.000 Z-1.733
G1 X54.797 Y3.931 Z-1.733
G1 X54.788 Y3.863 Z-1.733
G1 X54.773 Y3.796 Z-1.733
G1 X54.753 Y3.730 Z-1.733
G1 X54.727 Y3.666 Z-1.733
G1 X54.694 Y3.601 Z-1.733
G1 X54.654 Y3.539 Z-1.733
G1 X54.607 Y3.479 Z-1.733
G1 X54.554 Y3.423 Z-1.733
G1 X54.495 Y3.372 Z-1.733
G1 X54.432 Y3.327 Z-1.733
G1 X54.364 Y3.288 Z-1.733
G1 X54.293 Y3.256 Z-1.733
G1 X54.220 Y3.231 Z-1.733
G1 X54.147 Y3.214 Z-1.733
G1 X54.073 Y3.203 Z-1.733
G1 X54.000 Y3.200 Z-1.733
G1 X48.800 Y3.200 Z-1.733
G1 X47.900 Y3.200 Z-1.733
G1 X42.650 Y3.200 Z-1.733
G1 X42.578 Y3.203 Z-1.733
G1 X42.504 Y3.213 Z-1.733
G1 X42.430 Y3.231 Z-1.733
G1 X42.356 Y3.256 Z-1.733
G1 X42.283 Y3.289 Z-1.733
G1 X42.212 Y3.330 Z-1.733
G1 X42.146 Y3.379 Z-1.733
G1 X42.084 Y3.434 Z-1.733
G1 X42.029 Y3.496 Z-1.733
G1 X41.980 Y3.562 Z-1.733
G1 X41.939 Y3.633 Z-1.733
G1 X41.906 Y3.706 Z-1.733
G1 X41.881 Y3.780 Z-1.733
G1 X41.863 Y3.854 Z-1.733
G1 X41.853 Y3.928 Z-1.733
G1 X41.850 Y4.000 Z-1.733
G1 X41.850 Y8.400 Z-1.733
G1 X42.084 Y8.634 Z-1.733
G1 X41.850 Y8.400 Z-1.733
G1 X38.450 Y8.400 Z-1.733
G1 X38.216 Y8.634 Z-1.733
G1 X38.450 Y8.400 Z-1.733
G1 X38.450 Y4.000 Z-1.733
G1 X38.447 Y3.928 Z-1.733
G1 X38.437 Y3.854 Z-1.733
G1 X38.419 Y3.780 Z-1.733
G1 X38.394 Y3.706 Z-1.733
G1 X38.361 Y3.633 Z-1.733
G1 X38.320 Y3.562 Z-1.733
G1 X38.271 Y3.496 Z-1.733
G1 X38.216 Y3.434 Z-1.733
G1 X38.154 Y3.379 Z-1.733
G1 X38.088 Y3.330 Z-1.733
G1 X38.017 Y3.289 Z-1.733
G1 X37.944 Y3.256 Z-1.733
G1 X37.870 Y3.231 Z-1.733
G1 X37.796 Y3.213 Z-1.733
G1 X37.722 Y3.203 Z-1.733
G1 X37.650 Y3.200 Z-1.733
G1 X31.500 Y3.200 Z-1.733
G1 X31.428 Y3.203 Z-1.733
G1 X31.354 Y3.213 Z-1.733
G1 X31.280 Y3.231 Z-1.733
G1 X31.206 Y3.256 Z-1.733
G1 X31.133 Y3.289 Z-1.733
G1 X31.062 Y3.330 Z-1.733
G1 X30.996 Y3.379 Z-1.733
G1 X30.934 Y3.434 Z-1.733
G1 X30.879 Y3.496 Z-1.733
G1 X30.830 Y3.562 Z-1.733
G1 X30.789 Y3.633 Z-1.733
G1 X30.756 Y3.706 Z-1.733
G1 X30.731 Y3.780 Z-1.733
G1 X30.713 Y3.854 Z-1.733
G1 X30.703 Y3.928 Z-1.733
G1 X30.700 Y4.000 Z-1.733
G1 X30.700 Y8.400 Z-1.733
G1 X30.934 Y8.634 Z-1.733
G1 X30.700 Y8.400 Z-1.733
G1 X27.300 Y8.400 Z-1.733
G1 X27.066 Y8.634 Z-1.733
G1 X27.300 Y8.400 Z-1.733
G1 X27.300 Y6.352 Z-1.733
G1 X27.300 Y4.000 Z-1.733
G1 X27.297 Y3.928 Z-1.733
G1 X27.287 Y3.854 Z-1.733
G1 X27.269 Y3.780 Z-1.733
G1 X27.244 Y3.706 Z-1.733
G1 X27.211 Y3.633 Z-1.733
G1 X27.170 Y3.562 Z-1.733
G1 X27.121 Y3.496 Z-1.733
G1 X27.066 Y3.434 Z-1.733
G1 X27.004 Y3.379 Z-1.733
G1 X26.938 Y3.330 Z-1.733
G1 X26.867 Y3.289 Z-1.733
G1 X26.794 Y3.256 Z-1.733
G1 X26.720 Y3.231 Z-1.733
G1 X26.646 Y3.213 Z-1.733
G1 X26.572 Y3.203 Z-1.733
G1 X26.500 Y3.200 Z-1.733
G1 X20.350 Y3.200 Z-1.733
G1 X20.278 Y3.203 Z-1.733
G1 X20.204 Y3.213 Z-1.733
G1 X20.130 Y3.231 Z-1.733
G1 X20.056 Y3.256 Z-1.733
G1 X19.983 Y3.289 Z-1.733
G1 X19.912 Y3.330 Z-1.733
G1 X19.846 Y3.379 Z-1.733
G1 X19.784 Y3.434 Z-1.733
G1 X19.729 Y3.496 Z-1.733
G1 X19.680 Y3.562 Z-1.733
G1 X19.639 Y3.633 Z-1.733
G1 X19.606 Y3.706 Z-1.733
G1 X19.581 Y3.780 Z-1.733
G1 X19.563 Y3.854 Z-1.733
G1 X19.553 Y3.928 Z-1.733
G1 X19.550 Y4.000 Z-1.733
G1 X19.550 Y8.400 Z-1.733
G1 X19.784 Y8.634 Z-1.733
G1 X19.550 Y8.400 Z-1.733
G1 X16.150 Y8.400 Z-1.733
G1 X15.916 Y8.634 Z-1.733
G1 X16.150 Y8.400 Z-1.733
G1 X16.150 Y4.000 Z-1.733
G1 X16.147 Y3.928 Z-1.733
G1 X16.137 Y3.854 Z-1.733
G1 X16.119 Y3.780 Z-1.733
G1 X16.094 Y3.706 Z-1.733
G1 X16.061 Y3.633 Z-1.733
G1 X16.020 Y3.562 Z-1.733
G1 X15.971 Y3.496 Z-1.733
G1 X15.916 Y3.434 Z-1.733
G1 X15.854 Y3.379 Z-1.733
G1 X15.788 Y3.330 Z-1.733
G1 X15.717 Y3.289 Z-1.733
G1 X15.644 Y3.256 Z-1.733
G1 X15.570 Y3.231 Z-1.733
G1 X15.496 Y3.213 Z-1.733
G1 X15.422 Y3.203 Z-1.733
G1 X15.350 Y3.200 Z-1.733
G1 X13.175 Y3.200 Z-1.733
G1 X6.175 Y3.200 Z-1.733
G1 X4.000 Y3.200 Z-1.733
G1 X3.931 Y3.203 Z-1.733
G1 X3.863 Y3.212 Z-1.733
G1 X3.796 Y3.227 Z-1.733
G1 X3.730 Y3.247 Z-1.733
G1 X3.666 Y3.273 Z-1.733
G1 X3.601 Y3.306 Z-1.733
G1 X3.539 Y3.346 Z-1.733
G1 X3.479 Y3.393 Z-1.733
G1 X3.423 Y3.446 Z-1.733
G1 X3.372 Y3.505 Z-1.733
G1 X3.327 Y3.568 Z-1.733
G1 X3.288 Y3.636 Z-1.733
G1 X3.256 Y3.707 Z-1.733
G1 X3.231 Y3.780 Z-1.733
G1 X3.214 Y3.853 Z-1.733
G1 X3.203 Y3.927 Z-1.733
G1 X3.200 Y4.000 Z-1.733
G1 X3.200 Y9.200 Z-1.733
G1 X3.200 Y10.100 Z-1.733
G1 X3.200 Y15.350 Z-1.733
G1 X3.203 Y15.422 Z-1.733
G1 X3.213 Y15.496 Z-1.733
G1 X3.231 Y15.570 Z-1.733
G1 X3.256 Y15.644 Z-1.733
G1 X3.289 Y15.717 Z-1.733
G1 X3.330 Y15.788 Z-1.733
G1 X3.379 Y15.854 Z-1.733
G1 X3.434 Y15.916 Z-1.733
G1 X3.496 Y15.971 Z-1.733
G1 X3.562 Y16.020 Z-1.733
G1 X3.633 Y16.061 Z-1.733
G1 X3.706 Y16.094 Z-1.733
G1 X3.780 Y16.119 Z-1.733
G1 X3.854 Y16.137 Z-1.733
G1 X3.928 Y16.147 Z-1.733
G1 X4.000 Y16.150 Z-1.733
G1 X8.400 Y16.150 Z-1.733
G1 X8.634 Y15.916 Z-1.733
G1 X8.400 Y16.150 Z-1.733
G1 X8.400 Y19.550 Z-1.733
G1 X8.634 Y19.784 Z-1.733
G1 X8.400 Y19.550 Z-1.733
G1 X4.000 Y19.550 Z-1.733
G1 X3.928 Y19.553 Z-1.733
G1 X3.854 Y19.563 Z-1.733
G1 X3.780 Y19.581 Z-1.733
G1 X3.706 Y19.606 Z-1.733
G1 X3.633 Y19.639 Z-1.733
G1 X3.562 Y19.680 Z-1.733
G1 X3.496 Y19.729 Z-1.733
G1 X3.434 Y19.784 Z-1.733
G1 X3.379 Y19.846 Z-1.733
G1 X3.330 Y19.912 Z-1.733
G1 X3.289 Y19.983 Z-1.733
G1 X3.256 Y20.056 Z-1.733
G1 X3.231 Y20.130 Z-1.733
G1 X3.213 Y20.204 Z-1.733
G1 X3.203 Y20.278 Z-1.733
G1 X3.200 Y20.350 Z-1.733
G1 X3.200 Y26.500 Z-1.733
G1 X3.203 Y26.572 Z-1.733
G1 X3.213 Y26.646 Z-1.733
G1 X3.231 Y26.720 Z-1.733
G1 X3.256 Y26.794 Z-1.733
G1 X3.289 Y26.867 Z-1.733
G1 X3.330 Y26.938 Z-1.733
G1 X3.379 Y27.004 Z-1.733
G1 X3.434 Y27.066 Z-1.733
G1 X3.496 Y27.121 Z-1.733
G1 X3.562 Y27.170 Z-1.733
G1 X3.633 Y27.211 Z-1.733
G1 X3.706 Y27.244 Z-1.733
G1 X3.780 Y27.269 Z-1.733
G1 X3.854 Y27.287 Z-1.733
G1 X3.928 Y27.297 Z-1.733
G1 X4.000 Y27.300 Z-1.733
G1 X8.400 Y27.300 Z-1.733
G1 X8.634 Y27.066 Z-1.733
G1 X8.400 Y27.300 Z-1.733
G1 X8.400 Y30.700 Z-1.733
G1 X8.634 Y30.934 Z-1.733
G1 X8.400 Y30.700 Z-1.733
G1 X4.000 Y30.700 Z-1.733
G1 X3.928 Y30.703 Z-1.733
G1 X3.854 Y30.713 Z-1.733
G1 X3.780 Y30.731 Z-1.733
G1 X3.706 Y30.756 Z-1.733
G1 X3.633 Y30.789 Z-1.733
G1 X3.562 Y30.830 Z-1.733
G1 X3.496 Y30.879 Z-1.733
G1 X3.434 Y30.934 Z-1.733
G1 X3.379 Y30.996 Z-1.733
G1 X3.330 Y31.062 Z-1.733
G1 X3.289 Y31.133 Z-1.733
G1 X3.256 Y31.206 Z-1.733
G1 X3.231 Y31.280 Z-1.733
G1 X3.213 Y31.354 Z-1.733
G1 X3.203 Y31.428 Z-1.733
G1 X3.200 Y31.500 Z-1.733
G1 X3.200 Y37.650 Z-1.733
G1 X3.203 Y37.722 Z-1.733
G1 X3.213 Y37.796 Z-1.733
G1 X3.231 Y37.870 Z-1.733
G1 X3.256 Y37.944 Z-1.733
G1 X3.289 Y38.017 Z-1.733
G1 X3.330 Y38.088 Z-1.733
G1 X3.379 Y38.154 Z-1.733
G1 X3.434 Y38.216 Z-1.733
G1 X3.496 Y38.271 Z-1.733
G1 X3.562 Y38.320 Z-1.733
G1 X3.633 Y38.361 Z-1.733
G1 X3.706 Y38.394 Z-1.733
G1 X3.780 Y38.419 Z-1.733
G1 X3.854 Y38.437 Z-1.733
G1 X3.928 Y38.447 Z-1.733
G1 X4.000 Y38.450 Z-1.733
G1 X8.400 Y38.450 Z-1.733
G1 X8.550 Y38.300 Z-1.733
G1 X8.634 Y38.216 Z-1.733
G1 X8.400 Y38.450 Z-1.733
G1 X8.400 Y41.850 Z-1.733
G1 X8.634 Y42.084 Z-1.733
G1 X8.400 Y41.850 Z-1.733
G1 X4.000 Y41.850 Z-1.733
G1 X3.928 Y41.853 Z-1.733
G1 X3.854 Y41.863 Z-1.733
G1 X3.780 Y41.881 Z-1.733
G1 X3.706 Y41.906 Z-1.733
G1 X3.633 Y41.939 Z-1.733
G1 X3.562 Y41.980 Z-1.733
G1 X3.496 Y42.029 Z-1.733
G1 X3.434 Y42.084 Z-1.733
G1 X3.379 Y42.146 Z-1.733
G1 X3.330 Y42.212 Z-1.733
G1 X3.289 Y42.283 Z-1.733
G1 X3.256 Y42.356 Z-1.733
G1 X3.231 Y42.430 Z-1.733
G1 X3.213 Y42.504 Z-1.733
G1 X3.203 Y42.578 Z-1.733
G1 X3.200 Y42.650 Z-1.733
G1 X3.200 Y44.825 Z-1.733
G1 X3.200 Y51.825 Z-1.733
G1 X3.200 Y54.000 Z-1.733
G1 X3.203 Y54.069 Z-1.733
G1 X3.212 Y54.137 Z-1.733
G1 X3.227 Y54.204 Z-1.733
G1 X3.247 Y54.270 Z-1.733
G1 X3.273 Y54.334 Z-1.733
G1 X3.306 Y54.399 Z-1.733
G1 X3.346 Y54.461 Z-1.733
G1 X3.393 Y54.521 Z-1.733
G1 X3.446 Y54.577 Z-1.733
G1 X3.505 Y54.628 Z-1.733
G1 X3.568 Y54.673 Z-1.733
G1 X3.636 Y54.712 Z-1.733
G1 X3.707 Y54.744 Z-1.733
G1 X3.780 Y54.769 Z-1.733
G1 X3.853 Y54.786 Z-1.733
G1 X3.927 Y54.797 Z-1.733
G1 X4.000 Y54.800 Z-1.733
G1 X9.200 Y54.800 Z-1.733
G1 X10.100 Y54.800 Z-1.733
G1 X15.350 Y54.800 Z-1.733
G1 X15.422 Y54.797 Z-1.733
G1 X15.496 Y54.787 Z-1.733
G1 X15.570 Y54.769 Z-1.733
G1 X15.644 Y54.744 Z-1.733
G1 X15.717 Y54.711 Z-1.733
G1 X15.788 Y54.670 Z-1.733
G1 X15.854 Y54.621 Z-1.733
G1 X15.916 Y54.566 Z-1.733
G1 X15.971 Y54.504 Z-1.733
G1 X16.020 Y54.438 Z-1.733
G1 X16.061 Y54.367 Z-1.733
G1 X16.094 Y54.294 Z-1.733
G1 X16.119 Y54.220 Z-1.733
G1 X16.137 Y54.146 Z-1.733
G1 X16.147 Y54.072 Z-1.733
G1 X16.150 Y54.000 Z-1.733
G1 X16.150 Y51.892 Z-1.733
G1 X16.150 Y49.600 Z-1.733
G1 X15.916 Y49.366 Z-1.733
G1 X16.150 Y49.600 Z-1.733
G1 X19.550 Y49.600 Z-1.733
G1 X19.784 Y49.366 Z-1.733
G1 X19.550 Y49.600 Z-1.733
G1 X19.550 Y54.000 Z-1.733
G1 X19.553 Y54.072 Z-1.733
G1 X19.563 Y54.146 Z-1.733
G1 X19.581 Y54.220 Z-1.733
G1 X19.606 Y54.294 Z-1.733
G1 X19.639 Y54.367 Z-1.733
G1 X19.680 Y54.438 Z-1.733
G1 X19.729 Y54.504 Z-1.733
G1 X19.784 Y54.566 Z-1.733
G1 X19.846 Y54.621 Z-1.733
G1 X19.912 Y54.670 Z-1.733
G1 X19.983 Y54.711 Z-1.733
G1 X20.056 Y54.744 Z-1.733
G1 X20.130 Y54.769 Z-1.733
G1 X20.204 Y54.787 Z-1.733
G1 X20.278 Y54.797 Z-1.733
G1 X20.350 Y54.800 Z-1.733
G1 X26.500 Y54.800 Z-1.733
G1 X26.572 Y54.797 Z-1.733
G1 X26.646 Y54.787 Z-1.733
G1 X26.720 Y54.769 Z-1.733
G1 X26.794 Y54.744 Z-1.733
G1 X26.867 Y54.711 Z-1.733
G1 X26.938 Y54.670 Z-1.733
G1 X27.004 Y54.621 Z-1.733
G1 X27.066 Y54.566 Z-1.733
G1 X27.121 Y54.504 Z-1.733
G1 X27.170 Y54.438 Z-1.733
G1 X27.211 Y54.367 Z-1.733
G1 X27.244 Y54.294 Z-1.733
G1 X27.269 Y54.220 Z-1.733
G1 X27.287 Y54.146 Z-1.733
G1 X27.297 Y54.072 Z-1.733
G1 X27.300 Y54.000 Z-1.733
G1 X27.300 Y49.600 Z-1.733
G1 X27.066 Y49.366 Z-1.733
G1 X27.300 Y49.600 Z-1.733
G1 X30.700 Y49.600 Z-1.733
G1 X30.934 Y49.366 Z-1.733
G1 X30.700 Y49.600 Z-1.733
G1 X30.700 Y54.000 Z-1.733
G1 X30.703 Y54.072 Z-1.733
G1 X30.713 Y54.146 Z-1.733
G1 X30.731 Y54.220 Z-1.733
G1 X30.756 Y54.294 Z-1.733
G1 X30.789 Y54.367 Z-1.733
G1 X30.830 Y54.438 Z-1.733
G1 X30.879 Y54.504 Z-1.733
G1 X30.934 Y54.566 Z-1.733
G1 X30.996 Y54.621 Z-1.733
G1 X31.062 Y54.670 Z-1.733
G1 X31.133 Y54.711 Z-1.733
G1 X31.206 Y54.744 Z-1.733
G1 X31.280 Y54.769 Z-1.733
G1 X31.354 Y54.787 Z-1.733
G1 X31.428 Y54.797 Z-1.733
G1 X31.500 Y54.800 Z-1.733
G1 X37.650 Y54.800 Z-1.733
G1 X37.722 Y54.797 Z-1.733
G1 X37.796 Y54.787 Z-1.733
G1 X37.870 Y54.769 Z-1.733
G1 X37.944 Y54.744 Z-1.733
G1 X38.017 Y54.711 Z-1.733
G1 X38.088 Y54.670 Z-1.733
G1 X38.154 Y54.621 Z-1.733
G1 X38.216 Y54.566 Z-1.733
G1 X38.271 Y54.504 Z-1.733
G1 X38.320 Y54.438 Z-1.733
G1 X38.361 Y54.367 Z-1.733
G1 X38.394 Y54.294 Z-1.733
G1 X38.419 Y54.220 Z-1.733
G1 X38.437 Y54.146 Z-1.733
G1 X38.447 Y54.072 Z-1.733
G1 X38.450 Y54.000 Z-1.733
G1 X38.450 Y49.600 Z-1.733
G1 X38.216 Y49.366 Z-1.733
G1 X38.450 Y49.600 Z-1.733
G1 X41.850 Y49.600 Z-1.733
G1 X42.084 Y49.366 Z-1.733
G1 X41.850 Y49.600 Z-1.733
G1 X41.850 Y54.000 Z-1.733
G1 X41.853 Y54.072 Z-1.733
G1 X41.863 Y54.146 Z-1.733
G1 X41.881 Y54.220 Z-1.733
G1 X41.906 Y54.294 Z-1.733
G1 X41.939 Y54.367 Z-1.733
G1 X41.980 Y54.438 Z-1.733
G1 X42.029 Y54.504 Z-1.733
G1 X42.084 Y54.566 Z-1.733
G1 X42.146 Y54.621 Z-1.733
G1 X42.212 Y54.670 Z-1.733
G1 X42.283 Y54.711 Z-1.733
G1 X42.356 Y54.744 Z-1.733
G1 X42.430 Y54.769 Z-1.733
G1 X42.504 Y54.787 Z-1.733
G1 X42.578 Y54.797 Z-1.733
G1 X42.650 Y54.800 Z-1.733
G1 X44.825 Y54.800 Z-1.733
G1 X48.107 Y54.800 Z-1.733
G1 X51.825 Y54.800 Z-1.733
G1 X54.000 Y54.800 Z-1.733
G1 X54.069 Y54.797 Z-1.733
G1 X54.137 Y54.788 Z-1.733
G1 X54.204 Y54.773 Z-1.733
G1 X54.270 Y54.753 Z-1.733
G1 X54.334 Y54.727 Z-1.733
G1 X54.399 Y54.694 Z-1.733
G1 X54.461 Y54.654 Z-1.733
G1 X54.521 Y54.607 Z-1.733
G1 X54.577 Y54.554 Z-1.733
G1 X54.628 Y54.495 Z-1.733
G1 X54.673 Y54.432 Z-1.733
G1 X54.712 Y54.364 Z-1.733
G1 X54.744 Y54.293 Z-1.733
G1 X54.769 Y54.220 Z-1.733
G1 X54.786 Y54.147 Z-1.733
G1 X54.797 Y54.073 Z-1.733
G1 X54.800 Y54.000 Z-1.733
G1 X54.800 Y48.800 Z-1.733
G1 X54.800 Y47.900 Z-1.733
G1 X54.800 Y42.650 Z-1.733
G1 X54.797 Y42.578 Z-1.733
G1 X54.787 Y42.504 Z-1.733
G1 X54.769 Y42.430 Z-1.733
G1 X54.744 Y42.356 Z-1.733
G1 X54.711 Y42.283 Z-1.733
G1 X54.670 Y42.212 Z-1.733
G1 X54.621 Y42.146 Z-1.733
G1 X54.566 Y42.084 Z-1.733
G1 X54.504 Y42.029 Z-1.733
G1 X54.438 Y41.980 Z-1.733
G1 X54.367 Y41.939 Z-1.733
G1 X54.294 Y41.906 Z-1.733
G1 X54.220 Y41.881 Z-1.733
G1 X54.146 Y41.863 Z-1.733
G1 X54.072 Y41.853 Z-1.733
G1 X54.000 Y41.850 Z-1.733
G1 X49.600 Y41.850 Z-1.733
G1 X49.366 Y42.084 Z-1.733
G1 X49.600 Y41.850 Z-1.733
G1 X49.600 Y38.450 Z-1.733
G1 X49.366 Y38.216 Z-1.733
G1 X49.600 Y38.450 Z-1.733
G1 X54.000 Y38.450 Z-1.733
G1 X54.072 Y38.447 Z-1.733
G1 X54.146 Y38.437 Z-1.733
G1 X54.220 Y38.419 Z-1.733
G1 X54.294 Y38.394 Z-1.733
G1 X54.367 Y38.361 Z-1.733
G1 X54.438 Y38.320 Z-1.733
G1 X54.504 Y38.271 Z-1.733
G1 X54.566 Y38.216 Z-1.733
G1 X54.621 Y38.154 Z-1.733
G1 X54.670 Y38.088 Z-1.733
G1 X54.711 Y38.017 Z-1.733
G1 X54.744 Y37.944 Z-1.733
G1 X54.769 Y37.870 Z-1.733
G1 X54.787 Y37.796 Z-1.733
G1 X54.797 Y37.722 Z-1.733
G1 X54.800 Y37.650 Z-1.733
G1 X54.800 Y34.697 Z-1.733
G1 X54.800 Y31.500 Z-1.761 F250.0
G1 X54.797 Y31.428 Z-1.762
G1 X54.787 Y31.354 Z-1.762
G1 X54.769 Y31.280 Z-1.763
G1 X54.744 Y31.206 Z-1.764
G1 X54.711 Y31.133 Z-1.764
G1 X54.670 Y31.062 Z-1.765
G1 X54.621 Y30.996 Z-1.766
G1 X54.566 Y30.934 Z-1.766
G1 X54.504 Y30.879 Z-1.767
G1 X54.438 Y30.830 Z-1.768
G1 X54.367 Y30.789 Z-1.769
G1 X54.294 Y30.756 Z-1.769
G1 X54.220 Y30.731 Z-1.770
G1 X54.146 Y30.713 Z-1.771
G1 X54.072 Y30.703 Z-1.771
G1 X54.000 Y30.700 Z-1.772
G1 X49.600 Y30.700 Z-1.810
G1 X49.366 Y30.934 Z-1.813
G1 X49.600 Y30.700 Z-1.816
G1 X49.600 Y27.300 Z-1.845
G1 X49.366 Y27.066 Z-1.848
G1 X49.600 Y27.300 Z-1.851
G1 X54.000 Y27.300 Z-1.889
G1 X54.072 Y27.297 Z-1.890
G1 X54.146 Y27.287 Z-1.891
G1 X54.220 Y27.269 Z-1.891
G1 X54.294 Y27.244 Z-1.892
G1 X54.367 Y27.211 Z-1.893
G1 X54.438 Y27.170 Z-1.893
G1 X54.504 Y27.121 Z-1.894
G1 X54.566 Y27.066 Z-1.895
G1 X54.621 Y27.004 Z-1.895
G1 X54.670 Y26.938 Z-1.896
G1 X54.711 Y26.867 Z-1.897
G1 X54.744 Y26.794 Z-1.897
G1 X54.769 Y26.720 Z-1.898
G1 X54.787 Y26.646 Z-1.899
G1 X54.797 Y26.572 Z-1.899
G1 X54.800 Y26.500 Z-1.900
G1 X54.800 Y20.350 Z-1.953
G1 X54.797 Y20.278 Z-1.954
G1 X54.787 Y20.204 Z-1.955
G1 X54.769 Y20.130 Z-1.955
G1 X54.744 Y20.056 Z-1.956
G1 X54.711 Y19.983 Z-1.957
G1 X54.670 Y19.912 Z-1.957
G1 X54.621 Y19.846 Z-1.958
G1 X54.566 Y19.784 Z-1.959
G1 X54.504 Y19.729 Z-1.959
G1 X54.438 Y19.680 Z-1.960
G1 X54.367 Y19.639 Z-1.961
G1 X54.294 Y19.606 Z-1.962
G1 X54.220 Y19.581 Z-1.962
G1 X54.146 Y19.563 Z-1.963
G1 X54.072 Y19.553 Z-1.964
G1 X54.000 Y19.550 Z-1.964
G1 X49.600 Y19.550 Z-2.002
G1 X49.366 Y19.784 Z-2.005
G1 X49.600 Y19.550 Z-2.008
G1 X49.600 Y16.150 Z-2.038
G1 X49.366 Y15.916 Z-2.040
G1 X49.600 Y16.150 Z-2.043
G1 X54.000 Y16.150 Z-2.081
G1 X54.072 Y16.147 Z-2.082
G1 X54.146 Y16.137 Z-2.083
G1 X54.220 Y16.119 Z-2.083
G1 X54.294 Y16.094 Z-2.084
G1 X54.367 Y16.061 Z-2.085
G1 X54.438 Y16.020 Z-2.086
G1 X54.504 Y15.971 Z-2.086
G1 X54.566 Y15.916 Z-2.087
G1 X54.621 Y15.854 Z-2.088
G1 X54.670 Y15.788 Z-2.088
G1 X54.711 Y15.717 Z-2.089
G1 X54.744 Y15.644 Z-2.090
G1 X54.769 Y15.570 Z-2.090
G1 X54.787 Y15.496 Z-2.091
G1 X54.797 Y15.422 Z-2.092
G1 X54.800 Y15.350 Z-2.092
G1 X54.800 Y13.175 Z-2.111
G1 X54.800 Y6.175 Z-2.172
G1 X54.800 Y4.000 Z-2.191
G1 X54.797 Y3.931 Z-2.191
G1 X54.788 Y3.863 Z-2.192
G1 X54.773 Y3.796 Z-2.193
G1 X54.753 Y3.730 Z-2.193
G1 X54.727 Y3.666 Z-2.194
G1 X54.694 Y3.601 Z-2.194
G1 X54.654 Y3.539 Z-2.195
G1 X54.607 Y3.479 Z-2.196
G1 X54.554 Y3.423 Z-2.196
G1 X54.495 Y3.372 Z-2.197
G1 X54.432 Y3.327 Z-2.198
G1 X54.364 Y3.288 Z-2.198
G1 X54.293 Y3.256 Z-2.199
G1 X54.220 Y3.231 Z-2.200
G1 X54.147 Y3.214 Z-2.200
G1 X54.073 Y3.203 Z-2.201
G1 X54.000 Y3.200 Z-2.202
G1 X48.800 Y3.200 Z-2.247
G1 X47.900 Y3.200 Z-2.254
G1 X42.650 Y3.200 Z-2.300
G1 X42.578 Y3.203 Z-2.301
G1 X42.504 Y3.213 Z-2.301
G1 X42.430 Y3.231 Z-2.302
G1 X42.356 Y3.256 Z-2.303
G1 X42.283 Y3.289 Z-2.303
G1 X42.212 Y3.330 Z-2.304
G1 X42.146 Y3.379 Z-2.305
G1 X42.084 Y3.434 Z-2.305
G1 X42.029 Y3.496 Z-2.306
G1 X41.980 Y3.562 Z-2.307
G1 X41.939 Y3.633 Z-2.307
G1 X41.906 Y3.706 Z-2.308
G1 X41.881 Y3.780 Z-2.309
G1 X41.863 Y3.854 Z-2.309
G1 X41.853 Y3.928 Z-2.310
G1 X41.850 Y4.000 Z-2.311
G1 X41.850 Y8.400 Z-2.349
G1 X42.084 Y8.634 Z-2.352
G1 X41.850 Y8.400 Z-2.355
G1 X38.450 Y8.400 Z-2.384
G1 X38.216 Y8.634 Z-2.387
G1 X38.450 Y8.400 Z-2.390
G1 X38.450 Y4.000 Z-2.428
G1 X38.447 Y3.928 Z-2.429
G1 X38.437 Y3.854 Z-2.429
G1 X38.419 Y3.780 Z-2.430
G1 X38.394 Y3.706 Z-2.431
G1 X38.361 Y3.633 Z-2.431
G1 X38.320 Y3.562 Z-2.432
G1 X38.271 Y3.496 Z-2.433
G1 X38.216 Y3.434 Z-2.434
G1 X38.154 Y3.379 Z-2.434
G1 X38.088 Y3.330 Z-2.435
G1 X38.017 Y3.289 Z-2.436
G1 X37.944 Y3.256 Z-2.436
G1 X37.870 Y3.231 Z-2.437
G1 X37.796 Y3.213 Z-2.438
G1 X37.722 Y3.203 Z-2.438
G1 X37.650 Y3.200 Z-2.439
G1 X31.500 Y3.200 Z-2.492
G1 X31.428 Y3.203 Z-2.493
G1 X31.354 Y3.213 Z-2.494
G1 X31.280 Y3.231 Z-2.494
G1 X31.206 Y3.256 Z-2.495
G1 X31.133 Y3.289 Z-2.496
G1 X31.062 Y3.330 Z-2.496
G1 X30.996 Y3.379 Z-2.497
G1 X30.934 Y3.434 Z-2.498
G1 X30.879 Y3.496 Z-2.498
G1 X30.830 Y3.562 Z-2.499
G1 X30.789 Y3.633 Z-2.500
G1 X30.756 Y3.706 Z-2.500
G1 X30.731 Y3.780 Z-2.501
G1 X30.713 Y3.854 Z-2.502
G1 X30.703 Y3.928 Z-2.502
G1 X30.700 Y4.000 Z-2.503
G1 X30.700 Y8.400 Z-2.541
G1 X30.934 Y8.634 Z-2.544
G1 X30.700 Y8.400 Z-2.547
G1 X27.300 Y8.400 Z-2.577
G1 X27.066 Y8.634 Z-2.579
G1 X27.300 Y8.400 Z-2.582
G1 X27.300 Y6.352 Z-2.600
G1 X27.300 Y4.000 Z-2.600 F180.0
G1 X27.297 Y3.928 Z-2.600
G1 X27.287 Y3.854 Z-2.600
G1 X27.269 Y3.780 Z-2.600
G1 X27.244 Y3.706 Z-2.600
G1 X27.211 Y3.633 Z-2.600
G1 X27.170 Y3.562 Z-2.600
G1 X27.121 Y3.496 Z-2.600
G1 X27.066 Y3.434 Z-2.600
G1 X27.004 Y3.379 Z-2.600
G1 X26.938 Y3.330 Z-2.600
G1 X26.867 Y3.289 Z-2.600
G1 X26.794 Y3.256 Z-2.600
G1 X26.720 Y3.231 Z-2.600
G1 X26.646 Y3.213 Z-2.600
G1 X26.572 Y3.203 Z-2.600
G1 X26.500 Y3.200 Z-2.600
G1 X20.350 Y3.200 Z-2.600
G1 X20.278 Y3.203 Z-2.600
G1 X20.204 Y3.213 Z-2.600
G1 X20.130 Y3.231 Z-2.600
G1 X20.056 Y3.256 Z-2.600
G1 X19.983 Y3.289 Z-2.600
G1 X19.912 Y3.330 Z-2.600
G1 X19.846 Y3.379 Z-2.600
G1 X19.784 Y3.434 Z-2.600
G1 X19.729 Y3.496 Z-2.600
G1 X19.680 Y3.562 Z-2.600
G1 X19.639 Y3.633 Z-2.600
G1 X19.606 Y3.706 Z-2.600
G1 X19.581 Y3.780 Z-2.600
G1 X19.563 Y3.854 Z-2.600
G1 X19.553 Y3.928 Z-2.600
G1 X19.550 Y4.000 Z-2.600
G1 X19.550 Y8.400 Z-2.600
G1 X19.784 Y8.634 Z-2.600
G1 X19.550 Y8.400 Z-2.600
G1 X16.150 Y8.400 Z-2.600
G1 X15.916 Y8.634 Z-2.600
G1 X16.150 Y8.400 Z-2.600
G1 X16.150 Y4.000 Z-2.600
G1 X16.147 Y3.928 Z-2.600
G1 X16.137 Y3.854 Z-2.600
G1 X16.119 Y3.780 Z-2.600
G1 X16.094 Y3.706 Z-2.600
G1 X16.061 Y3.633 Z-2.600
G1 X16.020 Y3.562 Z-2.600
G1 X15.971 Y3.496 Z-2.600
G1 X15.916 Y3.434 Z-2.600
G1 X15.854 Y3.379 Z-2.600
G1 X15.788 Y3.330 Z-2.600
G1 X15.717 Y3.289 Z-2.600
G1 X15.644 Y3.256 Z-2.600
G1 X15.570 Y3.231 Z-2.600
G1 X15.496 Y3.213 Z-2.600
G1 X15.422 Y3.203 Z-2.600
G1 X15.350 Y3.200 Z-2.600
G1 X13.175 Y3.200 Z-2.600
G1 X6.175 Y3.200 Z-2.600
G1 X4.000 Y3.200 Z-2.600
G1 X3.931 Y3.203 Z-2.600
G1 X3.863 Y3.212 Z-2.600
G1 X3.796 Y3.227 Z-2.600
G1 X3.730 Y3.247 Z-2.600
G1 X3.666 Y3.273 Z-2.600
G1 X3.601 Y3.306 Z-2.600
G1 X3.539 Y3.346 Z-2.600
G1 X3.479 Y3.393 Z-2.600
G1 X3.423 Y3.446 Z-2.600
G1 X3.372 Y3.505 Z-2.600
G1 X3.327 Y3.568 Z-2.600
G1 X3.288 Y3.636 Z-2.600
G1 X3.256 Y3.707 Z-2.600
G1 X3.231 Y3.780 Z-2.600
G1 X3.214 Y3.853 Z-2.600
G1 X3.203 Y3.927 Z-2.600
G1 X3.200 Y4.000 Z-2.600
G1 X3.200 Y9.200 Z-2.600
G1 X3.200 Y10.100 Z-2.600
G1 X3.200 Y15.350 Z-2.600
G1 X3.203 Y15.422 Z-2.600
G1 X3.213 Y15.496 Z-2.600
G1 X3.231 Y15.570 Z-2.600
G1 X3.256 Y15.644 Z-2.600
G1 X3.289 Y15.717 Z-2.600
G1 X3.330 Y15.788 Z-2.600
G1 X3.379 Y15.854 Z-2.600
G1 X3.434 Y15.916 Z-2.600
G1 X3.496 Y15.971 Z-2.600
G1 X3.562 Y16.020 Z-2.600
G1 X3.633 Y16.061 Z-2.600
G1 X3.706 Y16.094 Z-2.600
G1 X3.780 Y16.119 Z-2.600
G1 X3.854 Y16.137 Z-2.600
G1 X3.928 Y16.147 Z-2.600
G1 X4.000 Y16.150 Z-2.600
G1 X8.400 Y16.150 Z-2.600
G1 X8.634 Y15.916 Z-2.600
G1 X8.400 Y16.150 Z-2.600
G1 X8.400 Y19.550 Z-2.600
G1 X8.634 Y19.784 Z-2.600
G1 X8.400 Y19.550 Z-2.600
G1 X4.000 Y19.550 Z-2.600
G1 X3.928 Y19.553 Z-2.600
G1 X3.854 Y19.563 Z-2.600
G1 X3.780 Y19.581 Z-2.600
G1 X3.706 Y19.606 Z-2.600
G1 X3.633 Y19.639 Z-2.600
G1 X3.562 Y19.680 Z-2.600
G1 X3.496 Y19.729 Z-2.600
G1 X3.434 Y19.784 Z-2.600
G1 X3.379 Y19.846 Z-2.600
G1 X3.330 Y19.912 Z-2.600
G1 X3.289 Y19.983 Z-2.600
G1 X3.256 Y20.056 Z-2.600
G1 X3.231 Y20.130 Z-2.600
G1 X3.213 Y20.204 Z-2.600
G1 X3.203 Y20.278 Z-2.600
G1 X3.200 Y20.350 Z-2.600
G1 X3.200 Y26.500 Z-2.600
G1 X3.203 Y26.572 Z-2.600
G1 X3.213 Y26.646 Z-2.600
G1 X3.231 Y26.720 Z-2.600
G1 X3.256 Y26.794 Z-2.600
G1 X3.289 Y26.867 Z-2.600
G1 X3.330 Y26.938 Z-2.600
G1 X3.379 Y27.004 Z-2.600
G1 X3.434 Y27.066 Z-2.600
G1 X3.496 Y27.121 Z-2.600
G1 X3.562 Y27.170 Z-2.600
G1 X3.633 Y27.211 Z-2.600
G1 X3.706 Y27.244 Z-2.600
G1 X3.780 Y27.269 Z-2.600
G1 X3.854 Y27.287 Z-2.600
G1 X3.928 Y27.297 Z-2.600
G1 X4.000 Y27.300 Z-2.600
G1 X8.400 Y27.300 Z-2.600
G1 X8.634 Y27.066 Z-2.600
G1 X8.400 Y27.300 Z-2.600
G1 X8.400 Y30.700 Z-2.600
G1 X8.634 Y30.934 Z-2.600
G1 X8.400 Y30.700 Z-2.600
G1 X4.000 Y30.700 Z-2.600
G1 X3.928 Y30.703 Z-2.600
G1 X3.854 Y30.713 Z-2.600
G1 X3.780 Y30.731 Z-2.600
G1 X3.706 Y30.756 Z-2.600
G1 X3.633 Y30.789 Z-2.600
G1 X3.562 Y30.830 Z-2.600
G1 X3.496 Y30.879 Z-2.600
G1 X3.434 Y30.934 Z-2.600
G1 X3.379 Y30.996 Z-2.600
G1 X3.330 Y31.062 Z-2.600
G1 X3.289 Y31.133 Z-2.600
G1 X3.256 Y31.206 Z-2.600
G1 X3.231 Y31.280 Z-2.600
G1 X3.213 Y31.354 Z-2.600
G1 X3.203 Y31.428 Z-2.600
G1 X3.200 Y31.500 Z-2.600
G1 X3.200 Y37.650 Z-2.600
G1 X3.203 Y37.722 Z-2.600
G1 X3.213 Y37.796 Z-2.600
G1 X3.231 Y37.870 Z-2.600
G1 X3.256 Y37.944 Z-2.600
G1 X3.289 Y38.017 Z-2.600
G1 X3.330 Y38.088 Z-2.600
G1 X3.379 Y38.154 Z-2.600
G1 X3.434 Y38.216 Z-2.600
G1 X3.496 Y38.271 Z-2.600
G1 X3.562 Y38.320 Z-2.600
G1 X3.633 Y38.361 Z-2.600
G1 X3.706 Y38.394 Z-2.600
G1 X3.780 Y38.419 Z-2.600
G1 X3.854 Y38.437 Z-2.600
G1 X3.928 Y38.447 Z-2.600
G1 X4.000 Y38.450 Z-2.600
G1 X8.400 Y38.450 Z-2.600
G1 X8.550 Y38.300 Z-2.600
G1 X8.634 Y38.216 Z-2.600
G1 X8.400 Y38.450 Z-2.600
G1 X8.400 Y41.850 Z-2.600
G1 X8.634 Y42.084 Z-2.600
G1 X8.400 Y41.850 Z-2.600
G1 X4.000 Y41.850 Z-2.600
G1 X3.928 Y41.853 Z-2.600
G1 X3.854 Y41.863 Z-2.600
G1 X3.780 Y41.881 Z-2.600
G1 X3.706 Y41.906 Z-2.600
G1 X3.633 Y41.939 Z-2.600
G1 X3.562 Y41.980 Z-2.600
G1 X3.496 Y42.029 Z-2.600
G1 X3.434 Y42.084 Z-2.600
G1 X3.379 Y42.146 Z-2.600
G1 X3.330 Y42.212 Z-2.600
G1 X3.289 Y42.283 Z-2.600
G1 X3.256 Y42.356 Z-2.600
G1 X3.231 Y42.430 Z-2.600
G1 X3.213 Y42.504 Z-2.600
G1 X3.203 Y42.578 Z-2.600
G1 X3.200 Y42.650 Z-2.600
G1 X3.200 Y44.825 Z-2.600
G1 X3.200 Y51.825 Z-2.600
G1 X3.200 Y54.000 Z-2.600
G1 X3.203 Y54.069 Z-2.600
G1 X3.212 Y54.137 Z-2.600
G1 X3.227 Y54.204 Z-2.600
G1 X3.247 Y54.270 Z-2.600
G1 X3.273 Y54.334 Z-2.600
G1 X3.306 Y54.399 Z-2.600
G1 X3.346 Y54.461 Z-2.600
G1 X3.393 Y54.521 Z-2.600
G1 X3.446 Y54.577 Z-2.600
G1 X3.505 Y54.628 Z-2.600
G1 X3.568 Y54.673 Z-2.600
G1 X3.636 Y54.712 Z-2.600
G1 X3.707 Y54.744 Z-2.600
G1 X3.780 Y54.769 Z-2.600
G1 X3.853 Y54.786 Z-2.600
G1 X3.927 Y54.797 Z-2.600
G1 X4.000 Y54.800 Z-2.600
G1 X9.200 Y54.800 Z-2.600
G1 X10.100 Y54.800 Z-2.600
G1 X15.350 Y54.800 Z-2.600
G1 X15.422 Y54.797 Z-2.600
G1 X15.496 Y54.787 Z-2.600
G1 X15.570 Y54.769 Z-2.600
G1 X15.644 Y54.744 Z-2.600
G1 X15.717 Y54.711 Z-2.600
G1 X15.788 Y54.670 Z-2.600
G1 X15.854 Y54.621 Z-2.600
G1 X15.916 Y54.566 Z-2.600
G1 X15.971 Y54.504 Z-2.600
G1 X16.020 Y54.438 Z-2.600
G1 X16.061 Y54.367 Z-2.600
G1 X16.094 Y54.294 Z-2.600
G1 X16.119 Y54.220 Z-2.600
G1 X16.137 Y54.146 Z-2.600
G1 X16.147 Y54.072 Z-2.600
G1 X16.150 Y54.000 Z-2.600
G1 X16.150 Y51.892 Z-2.600
G1 X16.150 Y49.600 Z-2.600
G1 X15.916 Y49.366 Z-2.600
G1 X16.150 Y49.600 Z-2.600
G1 X19.550 Y49.600 Z-2.600
G1 X19.784 Y49.366 Z-2.600
G1 X19.550 Y49.600 Z-2.600
G1 X19.550 Y54.000 Z-2.600
G1 X19.553 Y54.072 Z-2.600
G1 X19.563 Y54.146 Z-2.600
G1 X19.581 Y54.220 Z-2.600
G1 X19.606 Y54.294 Z-2.600
G1 X19.639 Y54.367 Z-2.600
G1 X19.680 Y54.438 Z-2.600
G1 X19.729 Y54.504 Z-2.600
G1 X19.784 Y54.566 Z-2.600
G1 X19.846 Y54.621 Z-2.600
G1 X19.912 Y54.670 Z-2.600
G1 X19.983 Y54.711 Z-2.600
G1 X20.056 Y54.744 Z-2.600
G1 X20.130 Y54.769 Z-2.600
G1 X20.204 Y54.787 Z-2.600
G1 X20.278 Y54.797 Z-2.600
G1 X20.350 Y54.800 Z-2.600
G1 X26.500 Y54.800 Z-2.600
G1 X26.572 Y54.797 Z-2.600
G1 X26.646 Y54.787 Z-2.600
G1 X26.720 Y54.769 Z-2.600
G1 X26.794 Y54.744 Z-2.600
G1 X26.867 Y54.711 Z-2.600
G1 X26.938 Y54.670 Z-2.600
G1 X27.004 Y54.621 Z-2.600
G1 X27.066 Y54.566 Z-2.600
G1 X27.121 Y54.504 Z-2.600
G1 X27.170 Y54.438 Z-2.600
G1 X27.211 Y54.367 Z-2.600
G1 X27.244 Y54.294 Z-2.600
G1 X27.269 Y54.220 Z-2.600
G1 X27.287 Y54.146 Z-2.600
G1 X27.297 Y54.072 Z-2.600
G1 X27.300 Y54.000 Z-2.600
G1 X27.300 Y49.600 Z-2.600
G1 X27.066 Y49.366 Z-2.600
G1 X27.300 Y49.600 Z-2.600
G1 X30.700 Y49.600 Z-2.600
G1 X30.934 Y49.366 Z-2.600
G1 X30.700 Y49.600 Z-2.600
G1 X30.700 Y54.000 Z-2.600
G1 X30.703 Y54.072 Z-2.600
G1 X30.713 Y54.146 Z-2.600
G1 X30.731 Y54.220 Z-2.600
G1 X30.756 Y54.294 Z-2.600
G1 X30.789 Y54.367 Z-2.600
G1 X30.830 Y54.438 Z-2.600
G1 X30.879 Y54.504 Z-2.600
G1 X30.934 Y54.566 Z-2.600
G1 X30.996 Y54.621 Z-2.600
G1 X31.062 Y54.670 Z-2.600
G1 X31.133 Y54.711 Z-2.600
G1 X31.206 Y54.744 Z-2.600
G1 X31.280 Y54.769 Z-2.600
G1 X31.354 Y54.787 Z-2.600
G1 X31.428 Y54.797 Z-2.600
G1 X31.500 Y54.800 Z-2.600
G1 X37.650 Y54.800 Z-2.600
G1 X37.722 Y54.797 Z-2.600
G1 X37.796 Y54.787 Z-2.600
G1 X37.870 Y54.769 Z-2.600
G1 X37.944 Y54.744 Z-2.600
G1 X38.017 Y54.711 Z-2.600
G1 X38.088 Y54.670 Z-2.600
G1 X38.154 Y54.621 Z-2.600
G1 X38.216 Y54.566 Z-2.600
G1 X38.271 Y54.504 Z-2.600
G1 X38.320 Y54.438 Z-2.600
G1 X38.361 Y54.367 Z-2.600
G1 X38.394 Y54.294 Z-2.600
G1 X38.419 Y54.220 Z-2.600
G1 X38.437 Y54.146 Z-2.600
G1 X38.447 Y54.072 Z-2.600
G1 X38.450 Y54.000 Z-2.600
G1 X38.450 Y49.600 Z-2.600
G1 X38.216 Y49.366 Z-2.600
G1 X38.450 Y49.600 Z-2.600
G1 X41.850 Y49.600 Z-2.600
G1 X42.084 Y49.366 Z-2.600
G1 X41.850 Y49.600 Z-2.600
G1 X41.850 Y54.000 Z-2.600
G1 X41.853 Y54.072 Z-2.600
G1 X41.863 Y54.146 Z-2.600
G1 X41.881 Y54.220 Z-2.600
G1 X41.906 Y54.294 Z-2.600
G1 X41.939 Y54.367 Z-2.600
G1 X41.980 Y54.438 Z-2.600
G1 X42.029 Y54.504 Z-2.600
G1 X42.084 Y54.566 Z-2.600
G1 X42.146 Y54.621 Z-2.600
G1 X42.212 Y54.670 Z-2.600
G1 X42.283 Y54.711 Z-2.600
G1 X42.356 Y54.744 Z-2.600
G1 X42.430 Y54.769 Z-2.600
G1 X42.504 Y54.787 Z-2.600
G1 X42.578 Y54.797 Z-2.600
G1 X42.650 Y54.800 Z-2.600
G1 X44.825 Y54.800 Z-2.600
G1 X48.107 Y54.800 Z-2.600
G1 X51.825 Y54.800 Z-2.600
G1 X54.000 Y54.800 Z-2.600
G1 X54.069 Y54.797 Z-2.600
G1 X54.137 Y54.788 Z-2.600
G1 X54.204 Y54.773 Z-2.600
G1 X54.270 Y54.753 Z-2.600
G1 X54.334 Y54.727 Z-2.600
G1 X54.399 Y54.694 Z-2.600
G1 X54.461 Y54.654 Z-2.600
G1 X54.521 Y54.607 Z-2.600
G1 X54.577 Y54.554 Z-2.600
G1 X54.628 Y54.495 Z-2.600
G1 X54.673 Y54.432 Z-2.600
G1 X54.712 Y54.364 Z-2.600
G1 X54.744 Y54.293 Z-2.600
G1 X54.769 Y54.220 Z-2.600
G1 X54.786 Y54.147 Z-2.600
G1 X54.797 Y54.073 Z-2.600
G1 X54.800 Y54.000 Z-2.600
G1 X54.800 Y48.800 Z-2.600
G1 X54.800 Y47.900 Z-2.600
G1 X54.800 Y42.650 Z-2.600
G1 X54.797 Y42.578 Z-2.600
G1 X54.787 Y42.504 Z-2.600
G1 X54.769 Y42.430 Z-2.600
G1 X54.744 Y42.356 Z-2.600
G1 X54.711 Y42.283 Z-2.600
G1 X54.670 Y42.212 Z-2.600
G1 X54.621 Y42.146 Z-2.600
G1 X54.566 Y42.084 Z-2.600
G1 X54.504 Y42.029 Z-2.600
G1 X54.438 Y41.980 Z-2.600
G1 X54.367 Y41.939 Z-2.600
G1 X54.294 Y41.906 Z-2.600
G1 X54.220 Y41.881 Z-2.600
G1 X54.146 Y41.863 Z-2.600
G1 X54.072 Y41.853 Z-2.600
G1 X54.000 Y41.850 Z-2.600
G1 X49.600 Y41.850 Z-2.600
G1 X49.366 Y42.084 Z-2.600
G1 X49.600 Y41.850 Z-2.600
G1 X49.600 Y38.450 Z-2.600
G1 X49.366 Y38.216 Z-2.600
G1 X49.600 Y38.450 Z-2.600
G1 X54.000 Y38.450 Z-2.600
G1 X54.072 Y38.447 Z-2.600
G1 X54.146 Y38.437 Z-2.600
G1 X54.220 Y38.419 Z-2.600
G1 X54.294 Y38.394 Z-2.600
G1 X54.367 Y38.361 Z-2.600
G1 X54.438 Y38.320 Z-2.600
G1 X54.504 Y38.271 Z-2.600
G1 X54.566 Y38.216 Z-2.600
G1 X54.621 Y38.154 Z-2.600
G1 X54.670 Y38.088 Z-2.600
G1 X54.711 Y38.017 Z-2.600
G1 X54.744 Y37.944 Z-2.600
G1 X54.769 Y37.870 Z-2.600
G1 X54.787 Y37.796 Z-2.600
G1 X54.797 Y37.722 Z-2.600
G1 X54.800 Y37.650 Z-2.600
G1 X54.800 Y34.697 Z-2.600
G1 X54.800 Y31.500 Z-2.600
G1 X54.797 Y31.428 Z-2.600
G1 X54.787 Y31.354 Z-2.600
G1 X54.769 Y31.280 Z-2.600
G1 X54.744 Y31.206 Z-2.600
G1 X54.711 Y31.133 Z-2.600
G1 X54.670 Y31.062 Z-2.600
G1 X54.621 Y30.996 Z-2.600
G1 X54.566 Y30.934 Z-2.600
G1 X54.504 Y30.879 Z-2.600
G1 X54.438 Y30.830 Z-2.600
G1 X54.367 Y30.789 Z-2.600
G1 X54.294 Y30.756 Z-2.600
G1 X54.220 Y30.731 Z-2.600
G1 X54.146 Y30.713 Z-2.600
G1 X54.072 Y30.703 Z-2.600
G1 X54.000 Y30.700 Z-2.600
G1 X49.600 Y30.700 Z-2.600
G1 X49.366 Y30.934 Z-2.600
G1 X49.600 Y30.700 Z-2.600
G1 X49.600 Y27.300 Z-2.600
G1 X49.366 Y27.066 Z-2.600
G1 X49.600 Y27.300 Z-2.600
G1 X54.000 Y27.300 Z-2.600
G1 X54.072 Y27.297 Z-2.600
G1 X54.146 Y27.287 Z-2.600
G1 X54.220 Y27.269 Z-2.600
G1 X54.294 Y27.244 Z-2.600
G1 X54.367 Y27.211 Z-2.600
G1 X54.438 Y27.170 Z-2.600
G1 X54.504 Y27.121 Z-2.600
G1 X54.566 Y27.066 Z-2.600
G1 X54.621 Y27.004 Z-2.600
G1 X54.670 Y26.938 Z-2.600
G1 X54.711 Y26.867 Z-2.600
G1 X54.744 Y26.794 Z-2.600
G1 X54.769 Y26.720 Z-2.600
G1 X54.787 Y26.646 Z-2.600
G1 X54.797 Y26.572 Z-2.600
G1 X54.800 Y26.500 Z-2.600
G1 X54.800 Y20.350 Z-2.600
G1 X54.797 Y20.278 Z-2.600
G1 X54.787 Y20.204 Z-2.600
G1 X54.769 Y20.130 Z-2.600
G1 X54.744 Y20.056 Z-2.600
G1 X54.711 Y19.983 Z-2.600
G1 X54.670 Y19.912 Z-2.600
G1 X54.621 Y19.846 Z-2.600
G1 X54.566 Y19.784 Z-2.600
G1 X54.504 Y19.729 Z-2.600
G1 X54.438 Y19.680 Z-2.600
G1 X54.367 Y19.639 Z-2.600
G1 X54.294 Y19.606 Z-2.600
G1 X54.220 Y19.581 Z-2.600
G1 X54.146 Y19.563 Z-2.600
G1 X54.072 Y19.553 Z-2.600
G1 X54.000 Y19.550 Z-2.600
G1 X49.600 Y19.550 Z-2.600
G1 X49.366 Y19.784 Z-2.600
G1 X49.600 Y19.550 Z-2.600
G1 X49.600 Y16.150 Z-2.600
G1 X49.366 Y15.916 Z-2.600
G1 X49.600 Y16.150 Z-2.600
G1 X54.000 Y16.150 Z-2.600
G1 X54.072 Y16.147 Z-2.600
G1 X54.146 Y16.137 Z-2.600
G1 X54.220 Y16.119 Z-2.600
G1 X54.294 Y16.094 Z-2.600
G1 X54.367 Y16.061 Z-2.600
G1 X54.438 Y16.020 Z-2.600
G1 X54.504 Y15.971 Z-2.600
G1 X54.566 Y15.916 Z-2.600
G1 X54.621 Y15.854 Z-2.600
G1 X54.670 Y15.788 Z-2.600
G1 X54.711 Y15.717 Z-2.600
G1 X54.744 Y15.644 Z-2.600
G1 X54.769 Y15.570 Z-2.600
G1 X54.787 Y15.496 Z-2.600
G1 X54.797 Y15.422 Z-2.600
G1 X54.800 Y15.350 Z-2.600
G1 X54.800 Y13.175 Z-2.600
G1 X54.800 Y6.175 Z-2.600
G1 X54.800 Y4.000 Z-2.600
G1 X54.797 Y3.931 Z-2.600
G1 X54.788 Y3.863 Z-2.600
G1 X54.773 Y3.796 Z-2.600
G1 X54.753 Y3.730 Z-2.600
G1 X54.727 Y3.666 Z-2.600
G1 X54.694 Y3.601 Z-2.600
G1 X54.654 Y3.539 Z-2.600
G1 X54.607 Y3.479 Z-2.600
G1 X54.554 Y3.423 Z-2.600
G1 X54.495 Y3.372 Z-2.600
G1 X54.432 Y3.327 Z-2.600
G1 X54.364 Y3.288 Z-2.600
G1 X54.293 Y3.256 Z-2.600
G1 X54.220 Y3.231 Z-2.600
G1 X54.147 Y3.214 Z-2.600
G1 X54.073 Y3.203 Z-2.600
G1 X54.000 Y3.200 Z-2.600
G1 X48.800 Y3.200 Z-2.600
G1 X47.900 Y3.200 Z-2.600
G1 X42.650 Y3.200 Z-2.600
G1 X42.578 Y3.203 Z-2.600
G1 X42.504 Y3.213 Z-2.600
G1 X42.430 Y3.231 Z-2.600
G1 X42.356 Y3.256 Z-2.600
G1 X42.283 Y3.289 Z-2.600
G1 X42.212 Y3.330 Z-2.600
G1 X42.146 Y3.379 Z-2.600
G1 X42.084 Y3.434 Z-2.600
G1 X42.029 Y3.496 Z-2.600
G1 X41.980 Y3.562 Z-2.600
G1 X41.939 Y3.633 Z-2.600
G1 X41.906 Y3.706 Z-2.600
G1 X41.881 Y3.780 Z-2.600
G1 X41.863 Y3.854 Z-2.600
G1 X41.853 Y3.928 Z-2.600
G1 X41.850 Y4.000 Z-2.600
G1 X41.850 Y8.400 Z-2.600
G1 X42.084 Y8.634 Z-2.600
G1 X41.850 Y8.400 Z-2.600
G1 X38.450 Y8.400 Z-2.600
G1 X38.216 Y8.634 Z-2.600
G1 X38.450 Y8.400 Z-2.600
G1 X38.450 Y4.000 Z-2.600
G1 X38.447 Y3.928 Z-2.600
G1 X38.437 Y3.854 Z-2.600
G1 X38.419 Y3.780 Z-2.600
G1 X38.394 Y3.706 Z-2.600
G1 X38.361 Y3.633 Z-2.600
G1 X38.320 Y3.562 Z-2.600
G1 X38.271 Y3.496 Z-2.600
G1 X38.216 Y3.434 Z-2.600
G1 X38.154 Y3.379 Z-2.600
G1 X38.088 Y3.330 Z-2.600
G1 X38.017 Y3.289 Z-2.600
G1 X37.944 Y3.256 Z-2.600
G1 X37.870 Y3.231 Z-2.600
G1 X37.796 Y3.213 Z-2.600
G1 X37.722 Y3.203 Z-2.600
G1 X37.650 Y3.200 Z-2.600
G1 X31.500 Y3.200 Z-2.600
G1 X31.428 Y3.203 Z-2.600
G1 X31.354 Y3.213 Z-2.600
G1 X31.280 Y3.231 Z-2.600
G1 X31.206 Y3.256 Z-2.600
G1 X31.133 Y3.289 Z-2.600
G1 X31.062 Y3.330 Z-2.600
G1 X30.996 Y3.379 Z-2.600
G1 X30.934 Y3.434 Z-2.600
G1 X30.879 Y3.496 Z-2.600
G1 X30.830 Y3.562 Z-2.600
G1 X30.789 Y3.633 Z-2.600
G1 X30.756 Y3.706 Z-2.600
G1 X30.731 Y3.780 Z-2.600
G1 X30.713 Y3.854 Z-2.600
G1 X30.703 Y3.928 Z-2.600
G1 X30.700 Y4.000 Z-2.600
G1 X30.700 Y8.400 Z-2.600
G1 X30.934 Y8.634 Z-2.600
G1 X30.700 Y8.400 Z-2.600
G1 X27.300 Y8.400 Z-2.600
G1 X27.066 Y8.634 Z-2.600
G1 X27.300 Y8.400 Z-2.600
G1 X27.300 Y6.352 Z-2.600
G1 X27.300 Y4.000 Z-2.620 F250.0
G1 X27.297 Y3.928 Z-2.621
G1 X27.287 Y3.854 Z-2.622
G1 X27.269 Y3.780 Z-2.622
G1 X27.244 Y3.706 Z-2.623
G1 X27.211 Y3.633 Z-2.624
G1 X27.170 Y3.562 Z-2.624
G1 X27.121 Y3.496 Z-2.625
G1 X27.066 Y3.434 Z-2.626
G1 X27.004 Y3.379 Z-2.627
G1 X26.938 Y3.330 Z-2.627
G1 X26.867 Y3.289 Z-2.628
G1 X26.794 Y3.256 Z-2.629
G1 X26.720 Y3.231 Z-2.629
G1 X26.646 Y3.213 Z-2.630
G1 X26.572 Y3.203 Z-2.631
G1 X26.500 Y3.200 Z-2.631
G1 X20.350 Y3.200 Z-2.685
G1 X20.278 Y3.203 Z-2.685
G1 X20.204 Y3.213 Z-2.686
G1 X20.130 Y3.231 Z-2.687
G1 X20.056 Y3.256 Z-2.687
G1 X19.983 Y3.289 Z-2.688
G1 X19.912 Y3.330 Z-2.689
G1 X19.846 Y3.379 Z-2.689
G1 X19.784 Y3.434 Z-2.690
G1 X19.729 Y3.496 Z-2.691
G1 X19.680 Y3.562 Z-2.691
G1 X19.639 Y3.633 Z-2.692
G1 X19.606 Y3.706 Z-2.693
G1 X19.581 Y3.780 Z-2.693
G1 X19.563 Y3.854 Z-2.694
G1 X19.553 Y3.928 Z-2.695
G1 X19.550 Y4.000 Z-2.695
G1 X19.550 Y8.400 Z-2.734
G1 X19.784 Y8.634 Z-2.736
G1 X19.550 Y8.400 Z-2.739
G1 X16.150 Y8.400 Z-2.769
G1 X15.916 Y8.634 Z-2.772
G1 X16.150 Y8.400 Z-2.775
G1 X16.150 Y4.000 Z-2.813
G1 X16.147 Y3.928 Z-2.813
G1 X16.137 Y3.854 Z-2.814
G1 X16.119 Y3.780 Z-2.815
G1 X16.094 Y3.706 Z-2.815
G1 X16.061 Y3.633 Z-2.816
G1 X16.020 Y3.562 Z-2.817
G1 X15.971 Y3.496 Z-2.817
G1 X15.916 Y3.434 Z-2.818
G1 X15.854 Y3.379 Z-2.819
G1 X15.788 Y3.330 Z-2.819
G1 X15.717 Y3.289 Z-2.820
G1 X15.644 Y3.256 Z-2.821
G1 X15.570 Y3.231 Z-2.822
G1 X15.496 Y3.213 Z-2.822
G1 X15.422 Y3.203 Z-2.823
G1 X15.350 Y3.200 Z-2.824
G1 X13.175 Y3.200 Z-2.842
G1 X6.175 Y3.200 Z-2.903
G1 X4.000 Y3.200 Z-2.922
G1 X3.931 Y3.203 Z-2.923
G1 X3.863 Y3.212 Z-2.923
G1 X3.796 Y3.227 Z-2.924
G1 X3.730 Y3.247 Z-2.924
G1 X3.666 Y3.273 Z-2.925
G1 X3.601 Y3.306 Z-2.926
G1 X3.539 Y3.346 Z-2.926
G1 X3.479 Y3.393 Z-2.927
G1 X3.423 Y3.446 Z-2.928
G1 X3.372 Y3.505 Z-2.928
G1 X3.327 Y3.568 Z-2.929
G1 X3.288 Y3.636 Z-2.930
G1 X3.256 Y3.707 Z-2.930
G1 X3.231 Y3.780 Z-2.931
G1 X3.214 Y3.853 Z-2.932
G1 X3.203 Y3.927 Z-2.932
G1 X3.200 Y4.000 Z-2.933
G1 X3.200 Y9.200 Z-2.978
G1 X3.200 Y10.100 Z-2.986
G1 X3.200 Y15.350 Z-3.031
G1 X3.203 Y15.422 Z-3.032
G1 X3.213 Y15.496 Z-3.033
G1 X3.231 Y15.570 Z-3.033
G1 X3.256 Y15.644 Z-3.034
G1 X3.289 Y15.717 Z-3.035
G1 X3.330 Y15.788 Z-3.035
G1 X3.379 Y15.854 Z-3.036
G1 X3.434 Y15.916 Z-3.037
G1 X3.496 Y15.971 Z-3.037
G1 X3.562 Y16.020 Z-3.038
G1 X3.633 Y16.061 Z-3.039
G1 X3.706 Y16.094 Z-3.039
G1 X3.780 Y16.119 Z-3.040
G1 X3.854 Y16.137 Z-3.041
G1 X3.928 Y16.147 Z-3.041
G1 X4.000 Y16.150 Z-3.042
G1 X8.400 Y16.150 Z-3.080
G1 X8.634 Y15.916 Z-3.083
G1 X8.400 Y16.150 Z-3.086
G1 X8.400 Y19.550 Z-3.115
G1 X8.634 Y19.784 Z-3.118
G1 X8.400 Y19.550 Z-3.121
G1 X4.000 Y19.550 Z-3.159
G1 X3.928 Y19.553 Z-3.160
G1 X3.854 Y19.563 Z-3.161
G1 X3.780 Y19.581 Z-3.161
G1 X3.706 Y19.606 Z-3.162
G1 X3.633 Y19.639 Z-3.163
G1 X3.562 Y19.680 Z-3.163
G1 X3.496 Y19.729 Z-3.164
G1 X3.434 Y19.784 Z-3.165
G1 X3.379 Y19.846 Z-3.165
G1 X3.330 Y19.912 Z-3.166
G1 X3.289 Y19.983 Z-3.167
G1 X3.256 Y20.056 Z-3.167
G1 X3.231 Y20.130 Z-3.168
G1 X3.213 Y20.204 Z-3.169
G1 X3.203 Y20.278 Z-3.170
G1 X3.200 Y20.350 Z-3.170
G1 X3.200 Y26.500 Z-3.224
G1 X3.203 Y26.572 Z-3.224
G1 X3.213 Y26.646 Z-3.225
G1 X3.231 Y26.720 Z-3.226
G1 X3.256 Y26.794 Z-3.226
G1 X3.289 Y26.867 Z-3.227
G1 X3.330 Y26.938 Z-3.228
G1 X3.379 Y27.004 Z-3.228
G1 X3.434 Y27.066 Z-3.229
G1 X3.496 Y27.121 Z-3.230
G1 X3.562 Y27.170 Z-3.230
G1 X3.633 Y27.211 Z-3.231
G1 X3.706 Y27.244 Z-3.232
G1 X3.780 Y27.269 Z-3.232
G1 X3.854 Y27.287 Z-3.233
G1 X3.928 Y27.297 Z-3.234
G1 X4.000 Y27.300 Z-3.234
G1 X8.400 Y27.300 Z-3.273
G1 X8.634 Y27.066 Z-3.275
G1 X8.400 Y27.300 Z-3.278
G1 X8.400 Y30.700 Z-3.308
G1 X8.634 Y30.934 Z-3.311
G1 X8.400 Y30.700 Z-3.313
G1 X4.000 Y30.700 Z-3.352
G1 X3.928 Y30.703 Z-3.352
G1 X3.854 Y30.713 Z-3.353
G1 X3.780 Y30.731 Z-3.354
G1 X3.706 Y30.756 Z-3.354
G1 X3.633 Y30.789 Z-3.355
G1 X3.562 Y30.830 Z-3.356
G1 X3.496 Y30.879 Z-3.356
G1 X3.434 Y30.934 Z-3.357
G1 X3.379 Y30.996 Z-3.358
G1 X3.330 Y31.062 Z-3.358
G1 X3.289 Y31.133 Z-3.359
G1 X3.256 Y31.206 Z-3.360
G1 X3.231 Y31.280 Z-3.360
G1 X3.213 Y31.354 Z-3.361
G1 X3.203 Y31.428 Z-3.362
G1 X3.200 Y31.500 Z-3.363
G1 X3.200 Y37.650 Z-3.416
G1 X3.203 Y37.722 Z-3.416
G1 X3.213 Y37.796 Z-3.417
G1 X3.231 Y37.870 Z-3.418
G1 X3.256 Y37.944 Z-3.419
G1 X3.289 Y38.017 Z-3.419
G1 X3.330 Y38.088 Z-3.420
G1 X3.379 Y38.154 Z-3.421
G1 X3.434 Y38.216 Z-3.421
G1 X3.496 Y38.271 Z-3.422
G1 X3.562 Y38.320 Z-3.423
G1 X3.633 Y38.361 Z-3.423
G1 X3.706 Y38.394 Z-3.424
G1 X3.780 Y38.419 Z-3.425
G1 X3.854 Y38.437 Z-3.425
G1 X3.928 Y38.447 Z-3.426
G1 X4.000 Y38.450 Z-3.427
G1 X8.400 Y38.450 Z-3.465
G1 X8.550 Y38.300 Z-3.467
G1 X8.634 Y38.216 Z-3.467 F180.0
G1 X8.400 Y38.450 Z-3.467
G1 X8.400 Y41.850 Z-3.467
G1 X8.634 Y42.084 Z-3.467
G1 X8.400 Y41.850 Z-3.467
G1 X4.000 Y41.850 Z-3.467
G1 X3.928 Y41.853 Z-3.467
G1 X3.854 Y41.863 Z-3.467
G1 X3.780 Y41.881 Z-3.467
G1 X3.706 Y41.906 Z-3.467
G1 X3.633 Y41.939 Z-3.467
G1 X3.562 Y41.980 Z-3.467
G1 X3.496 Y42.029 Z-3.467
G1 X3.434 Y42.084 Z-3.467
G1 X3.379 Y42.146 Z-3.467
G1 X3.330 Y42.212 Z-3.467
G1 X3.289 Y42.283 Z-3.467
G1 X3.256 Y42.356 Z-3.467
G1 X3.231 Y42.430 Z-3.467
G1 X3.213 Y42.504 Z-3.467
G1 X3.203 Y42.578 Z-3.467
G1 X3.200 Y42.650 Z-3.467
G1 X3.200 Y44.825 Z-3.467
G1 X3.200 Y51.825 Z-3.467
G1 X3.200 Y54.000 Z-3.467
G1 X3.203 Y54.069 Z-3.467
G1 X3.212 Y54.137 Z-3.467
G1 X3.227 Y54.204 Z-3.467
G1 X3.247 Y54.270 Z-3.467
G1 X3.273 Y54.334 Z-3.467
G1 X3.306 Y54.399 Z-3.467
G1 X3.346 Y54.461 Z-3.467
G1 X3.393 Y54.521 Z-3.467
G1 X3.446 Y54.577 Z-3.467
G1 X3.505 Y54.628 Z-3.467
G1 X3.568 Y54.673 Z-3.467
G1 X3.636 Y54.712 Z-3.467
G1 X3.707 Y54.744 Z-3.467
G1 X3.780 Y54.769 Z-3.467
G1 X3.853 Y54.786 Z-3.467
G1 X3.927 Y54.797 Z-3.467
G1 X4.000 Y54.800 Z-3.467
G1 X9.200 Y54.800 Z-3.467
G1 X10.100 Y54.800 Z-3.467
G1 X15.350 Y54.800 Z-3.467
G1 X15.422 Y54.797 Z-3.467
G1 X15.496 Y54.787 Z-3.467
G1 X15.570 Y54.769 Z-3.467
G1 X15.644 Y54.744 Z-3.467
G1 X15.717 Y54.711 Z-3.467
G1 X15.788 Y54.670 Z-3.467
G1 X15.854 Y54.621 Z-3.467
G1 X15.916 Y54.566 Z-3.467
G1 X15.971 Y54.504 Z-3.467
G1 X16.020 Y54.438 Z-3.467
G1 X16.061 Y54.367 Z-3.467
G1 X16.094 Y54.294 Z-3.467
G1 X16.119 Y54.220 Z-3.467
G1 X16.137 Y54.146 Z-3.467
G1 X16.147 Y54.072 Z-3.467
G1 X16.150 Y54.000 Z-3.467
G1 X16.150 Y51.892 Z-3.467
G1 X16.150 Y49.600 Z-3.467
G1 X15.916 Y49.366 Z-3.467
G1 X16.150 Y49.600 Z-3.467
G1 X19.550 Y49.600 Z-3.467
G1 X19.784 Y49.366 Z-3.467
G1 X19.550 Y49.600 Z-3.467
G1 X19.550 Y54.000 Z-3.467
G1 X19.553 Y54.072 Z-3.467
G1 X19.563 Y54.146 Z-3.467
G1 X19.581 Y54.220 Z-3.467
G1 X19.606 Y54.294 Z-3.467
G1 X19.639 Y54.367 Z-3.467
G1 X19.680 Y54.438 Z-3.467
G1 X19.729 Y54.504 Z-3.467
G1 X19.784 Y54.566 Z-3.467
G1 X19.846 Y54.621 Z-3.467
G1 X19.912 Y54.670 Z-3.467
G1 X19.983 Y54.711 Z-3.467
G1 X20.056 Y54.744 Z-3.467
G1 X20.130 Y54.769 Z-3.467
G1 X20.204 Y54.787 Z-3.467
G1 X20.278 Y54.797 Z-3.467
G1 X20.350 Y54.800 Z-3.467
G1 X26.500 Y54.800 Z-3.467
G1 X26.572 Y54.797 Z-3.467
G1 X26.646 Y54.787 Z-3.467
G1 X26.720 Y54.769 Z-3.467
G1 X26.794 Y54.744 Z-3.467
G1 X26.867 Y54.711 Z-3.467
G1 X26.938 Y54.670 Z-3.467
G1 X27.004 Y54.621 Z-3.467
G1 X27.066 Y54.566 Z-3.467
G1 X27.121 Y54.504 Z-3.467
G1 X27.170 Y54.438 Z-3.467
G1 X27.211 Y54.367 Z-3.467
G1 X27.244 Y54.294 Z-3.467
G1 X27.269 Y54.220 Z-3.467
G1 X27.287 Y54.146 Z-3.467
G1 X27.297 Y54.072 Z-3.467
G1 X27.300 Y54.000 Z-3.467
G1 X27.300 Y49.600 Z-3.467
G1 X27.066 Y49.366 Z-3.467
G1 X27.300 Y49.600 Z-3.467
G1 X30.700 Y49.600 Z-3.467
G1 X30.934 Y49.366 Z-3.467
G1 X30.700 Y49.600 Z-3.467
G1 X30.700 Y54.000 Z-3.467
G1 X30.703 Y54.072 Z-3.467
G1 X30.713 Y54.146 Z-3.467
G1 X30.731 Y54.220 Z-3.467
G1 X30.756 Y54.294 Z-3.467
G1 X30.789 Y54.367 Z-3.467
G1 X30.830 Y54.438 Z-3.467
G1 X30.879 Y54.504 Z-3.467
G1 X30.934 Y54.566 Z-3.467
G1 X30.996 Y54.621 Z-3.467
G1 X31.062 Y54.670 Z-3.467
G1 X31.133 Y54.711 Z-3.467
G1 X31.206 Y54.744 Z-3.467
G1 X31.280 Y54.769 Z-3.467
G1 X31.354 Y54.787 Z-3.467
G1 X31.428 Y54.797 Z-3.467
G1 X31.500 Y54.800 Z-3.467
G1 X37.650 Y54.800 Z-3.467
G1 X37.722 Y54.797 Z-3.467
G1 X37.796 Y54.787 Z-3.467
G1 X37.870 Y54.769 Z-3.467
G1 X37.944 Y54.744 Z-3.467
G1 X38.017 Y54.711 Z-3.467
G1 X38.088 Y54.670 Z-3.467
G1 X38.154 Y54.621 Z-3.467
G1 X38.216 Y54.566 Z-3.467
G1 X38.271 Y54.504 Z-3.467
G1 X38.320 Y54.438 Z-3.467
G1 X38.361 Y54.367 Z-3.467
G1 X38.394 Y54.294 Z-3.467
G1 X38.419 Y54.220 Z-3.467
G1 X38.437 Y54.146 Z-3.467
G1 X38.447 Y54.072 Z-3.467
G1 X38.450 Y54.000 Z-3.467
G1 X38.450 Y49.600 Z-3.467
G1 X38.216 Y49.366 Z-3.467
G1 X38.450 Y49.600 Z-3.467
G1 X41.850 Y49.600 Z-3.467
G1 X42.084 Y49.366 Z-3.467
G1 X41.850 Y49.600 Z-3.467
G1 X41.850 Y54.000 Z-3.467
G1 X41.853 Y54.072 Z-3.467
G1 X41.863 Y54.146 Z-3.467
G1 X41.881 Y54.220 Z-3.467
G1 X41.906 Y54.294 Z-3.467
G1 X41.939 Y54.367 Z-3.467
G1 X41.980 Y54.438 Z-3.467
G1 X42.029 Y54.504 Z-3.467
G1 X42.084 Y54.566 Z-3.467
G1 X42.146 Y54.621 Z-3.467
G1 X42.212 Y54.670 Z-3.467
G1 X42.283 Y54.711 Z-3.467
G1 X42.356 Y54.744 Z-3.467
G1 X42.430 Y54.769 Z-3.467
G1 X42.504 Y54.787 Z-3.467
G1 X42.578 Y54.797 Z-3.467
G1 X42.650 Y54.800 Z-3.467
G1 X44.825 Y54.800 Z-3.467
G1 X48.107 Y54.800 Z-3.467
G1 X51.825 Y54.800 Z-3.467
G1 X54.000 Y54.800 Z-3.467
G1 X54.069 Y54.797 Z-3.467
G1 X54.137 Y54.788 Z-3.467
G1 X54.204 Y54.773 Z-3.467
G1 X54.270 Y54.753 Z-3.467
G1 X54.334 Y54.727 Z-3.467
G1 X54.399 Y54.694 Z-3.467
G1 X54.461 Y54.654 Z-3.467
G1 X54.521 Y54.607 Z-3.467
G1 X54.577 Y54.554 Z-3.467
G1 X54.628 Y54.495 Z-3.467
G1 X54.673 Y54.432 Z-3.467
G1 X54.712 Y54.364 Z-3.467
G1 X54.744 Y54.293 Z-3.467
G1 X54.769 Y54.220 Z-3.467
G1 X54.786 Y54.147 Z-3.467
G1 X54.797 Y54.073 Z-3.467
G1 X54.800 Y54.000 Z-3.467
G1 X54.800 Y48.800 Z-3.467
G1 X54.800 Y47.900 Z-3.467
G1 X54.800 Y42.650 Z-3.467
G1 X54.797 Y42.578 Z-3.467
G1 X54.787 Y42.504 Z-3.467
G1 X54.769 Y42.430 Z-3.467
G1 X54.744 Y42.356 Z-3.467
G1 X54.711 Y42.283 Z-3.467
G1 X54.670 Y42.212 Z-3.467
G1 X54.621 Y42.146 Z-3.467
G1 X54.566 Y42.084 Z-3.467
G1 X54.504 Y42.029 Z-3.467
G1 X54.438 Y41.980 Z-3.467
G1 X54.367 Y41.939 Z-3.467
G1 X54.294 Y41.906 Z-3.467
G1 X54.220 Y41.881 Z-3.467
G1 X54.146 Y41.863 Z-3.467
G1 X54.072 Y41.853 Z-3.467
G1 X54.000 Y41.850 Z-3.467
G1 X49.600 Y41.850 Z-3.467
G1 X49.366 Y42.084 Z-3.467
G1 X49.600 Y41.850 Z-3.467
G1 X49.600 Y38.450 Z-3.467
G1 X49.366 Y38.216 Z-3.467
G1 X49.600 Y38.450 Z-3.467
G1 X54.000 Y38.450 Z-3.467
G1 X54.072 Y38.447 Z-3.467
G1 X54.146 Y38.437 Z-3.467
G1 X54.220 Y38.419 Z-3.467
G1 X54.294 Y38.394 Z-3.467
G1 X54.367 Y38.361 Z-3.467
G1 X54.438 Y38.320 Z-3.467
G1 X54.504 Y38.271 Z-3.467
G1 X54.566 Y38.216 Z-3.467
G1 X54.621 Y38.154 Z-3.467
G1 X54.670 Y38.088 Z-3.467
G1 X54.711 Y38.017 Z-3.467
G1 X54.744 Y37.944 Z-3.467
G1 X54.769 Y37.870 Z-3.467
G1 X54.787 Y37.796 Z-3.467
G1 X54.797 Y37.722 Z-3.467
G1 X54.800 Y37.650 Z-3.467
G1 X54.800 Y34.697 Z-3.467
G1 X54.800 Y31.500 Z-3.467
G1 X54.797 Y31.428 Z-3.467
G1 X54.787 Y31.354 Z-3.467
G1 X54.769 Y31.280 Z-3.467
G1 X54.744 Y31.206 Z-3.467
G1 X54.711 Y31.133 Z-3.467
G1 X54.670 Y31.062 Z-3.467
G1 X54.621 Y30.996 Z-3.467
G1 X54.566 Y30.934 Z-3.467
G1 X54.504 Y30.879 Z-3.467
G1 X54.438 Y30.830 Z-3.467
G1 X54.367 Y30.789 Z-3.467
G1 X54.294 Y30.756 Z-3.467
G1 X54.220 Y30.731 Z-3.467
G1 X54.146 Y30.713 Z-3.467
G1 X54.072 Y30.703 Z-3.467
G1 X54.000 Y30.700 Z-3.467
G1 X49.600 Y30.700 Z-3.467
G1 X49.366 Y30.934 Z-3.467
G1 X49.600 Y30.700 Z-3.467
G1 X49.600 Y27.300 Z-3.467
G1 X49.366 Y27.066 Z-3.467
G1 X49.600 Y27.300 Z-3.467
G1 X54.000 Y27.300 Z-3.467
G1 X54.072 Y27.297 Z-3.467
G1 X54.146 Y27.287 Z-3.467
G1 X54.220 Y27.269 Z-3.467
G1 X54.294 Y27.244 Z-3.467
G1 X54.367 Y27.211 Z-3.467
G1 X54.438 Y27.170 Z-3.467
G1 X54.504 Y27.121 Z-3.467
G1 X54.566 Y27.066 Z-3.467
G1 X54.621 Y27.004 Z-3.467
G1 X54.670 Y26.938 Z-3.467
G1 X54.711 Y26.867 Z-3.467
G1 X54.744 Y26.794 Z-3.467
G1 X54.769 Y26.720 Z-3.467
G1 X54.787 Y26.646 Z-3.467
G1 X54.797 Y26.572 Z-3.467
G1 X54.800 Y26.500 Z-3.467
G1 X54.800 Y20.350 Z-3.467
G1 X54.797 Y20.278 Z-3.467
G1 X54.787 Y20.204 Z-3.467
G1 X54.769 Y20.130 Z-3.467
G1 X54.744 Y20.056 Z-3.467
G1 X54.711 Y19.983 Z-3.467
G1 X54.670 Y19.912 Z-3.467
G1 X54.621 Y19.846 Z-3.467
G1 X54.566 Y19.784 Z-3.467
G1 X54.504 Y19.729 Z-3.467
G1 X54.438 Y19.680 Z-3.467
G1 X54.367 Y19.639 Z-3.467
G1 X54.294 Y19.606 Z-3.467
G1 X54.220 Y19.581 Z-3.467
G1 X54.146 Y19.563 Z-3.467
G1 X54.072 Y19.553 Z-3.467
G1 X54.000 Y19.550 Z-3.467
G1 X49.600 Y19.550 Z-3.467
G1 X49.366 Y19.784 Z-3.467
G1 X49.600 Y19.550 Z-3.467
G1 X49.600 Y16.150 Z-3.467
G1 X49.366 Y15.916 Z-3.467
G1 X49.600 Y16.150 Z-3.467
G1 X54.000 Y16.150 Z-3.467
G1 X54.072 Y16.147 Z-3.467
G1 X54.146 Y16.137 Z-3.467
G1 X54.220 Y16.119 Z-3.467
G1 X54.294 Y16.094 Z-3.467
G1 X54.367 Y16.061 Z-3.467
G1 X54.438 Y16.020 Z-3.467
G1 X54.504 Y15.971 Z-3.467
G1 X54.566 Y15.916 Z-3.467
G1 X54.621 Y15.854 Z-3.467
G1 X54.670 Y15.788 Z-3.467
G1 X54.711 Y15.717 Z-3.467
G1 X54.744 Y15.644 Z-3.467
G1 X54.769 Y15.570 Z-3.467
G1 X54.787 Y15.496 Z-3.467
G1 X54.797 Y15.422 Z-3.467
G1 X54.800 Y15.350 Z-3.467
G1 X54.800 Y13.175 Z-3.467
G1 X54.800 Y6.175 Z-3.467
G1 X54.800 Y4.000 Z-3.467
G1 X54.797 Y3.931 Z-3.467
G1 X54.788 Y3.863 Z-3.467
G1 X54.773 Y3.796 Z-3.467
G1 X54.753 Y3.730 Z-3.467
G1 X54.727 Y3.666 Z-3.467
G1 X54.694 Y3.601 Z-3.467
G1 X54.654 Y3.539 Z-3.467
G1 X54.607 Y3.479 Z-3.467
G1 X54.554 Y3.423 Z-3.467
G1 X54.495 Y3.372 Z-3.467
G1 X54.432 Y3.327 Z-3.467
G1 X54.364 Y3.288 Z-3.467
G1 X54.293 Y3.256 Z-3.467
G1 X54.220 Y3.231 Z-3.467
G1 X54.147 Y3.214 Z-3.467
G1 X54.073 Y3.203 Z-3.467
G1 X54.000 Y3.200 Z-3.467
G1 X48.800 Y3.200 Z-3.467
G1 X47.900 Y3.200 Z-3.467
G1 X42.650 Y3.200 Z-3.467
G1 X42.578 Y3.203 Z-3.467
G1 X42.504 Y3.213 Z-3.467
G1 X42.430 Y3.231 Z-3.467
G1 X42.356 Y3.256 Z-3.467
G1 X42.283 Y3.289 Z-3.467
G1 X42.212 Y3.330 Z-3.467
G1 X42.146 Y3.379 Z-3.467
G1 X42.084 Y3.434 Z-3.467
G1 X42.029 Y3.496 Z-3.467
G1 X41.980 Y3.562 Z-3.467
G1 X41.939 Y3.633 Z-3.467
G1 X41.906 Y3.706 Z-3.467
G1 X41.881 Y3.780 Z-3.467
G1 X41.863 Y3.854 Z-3.467
G1 X41.853 Y3.928 Z-3.467
G1 X41.850 Y4.000 Z-3.467
G1 X41.850 Y8.400 Z-3.467
G1 X42.084 Y8.634 Z-3.467
G1 X41.850 Y8.400 Z-3.467
G1 X38.450 Y8.400 Z-3.467
G1 X38.216 Y8.634 Z-3.467
G1 X38.450 Y8.400 Z-3.467
G1 X38.450 Y4.000 Z-3.467
G1 X38.447 Y3.928 Z-3.467
G1 X38.437 Y3.854 Z-3.467
G1 X38.419 Y3.780 Z-3.467
G1 X38.394 Y3.706 Z-3.467
G1 X38.361 Y3.633 Z-3.467
G1 X38.320 Y3.562 Z-3.467
G1 X38.271 Y3.496 Z-3.467
G1 X38.216 Y3.434 Z-3.467
G1 X38.154 Y3.379 Z-3.467
G1 X38.088 Y3.330 Z-3.467
G1 X38.017 Y3.289 Z-3.467
G1 X37.944 Y3.256 Z-3.467
G1 X37.870 Y3.231 Z-3.467
G1 X37.796 Y3.213 Z-3.467
G1 X37.722 Y3.203 Z-3.467
G1 X37.650 Y3.200 Z-3.467
G1 X31.500 Y3.200 Z-3.467
G1 X31.428 Y3.203 Z-3.467
G1 X31.354 Y3.213 Z-3.467
G1 X31.280 Y3.231 Z-3.467
G1 X31.206 Y3.256 Z-3.467
G1 X31.133 Y3.289 Z-3.467
G1 X31.062 Y3.330 Z-3.467
G1 X30.996 Y3.379 Z-3.467
G1 X30.934 Y3.434 Z-3.467
G1 X30.879 Y3.496 Z-3.467
G1 X30.830 Y3.562 Z-3.467
G1 X30.789 Y3.633 Z-3.467
G1 X30.756 Y3.706 Z-3.467
G1 X30.731 Y3.780 Z-3.467
G1 X30.713 Y3.854 Z-3.467
G1 X30.703 Y3.928 Z-3.467
G1 X30.700 Y4.000 Z-3.467
G1 X30.700 Y8.400 Z-3.467
G1 X30.934 Y8.634 Z-3.467
G1 X30.700 Y8.400 Z-3.467
G1 X27.300 Y8.400 Z-3.467
G1 X27.066 Y8.634 Z-3.467
G1 X27.300 Y8.400 Z-3.467
G1 X27.300 Y6.352 Z-3.467
G1 X27.300 Y4.000 Z-3.467
G1 X27.297 Y3.928 Z-3.467
G1 X27.287 Y3.854 Z-3.467
G1 X27.269 Y3.780 Z-3.467
G1 X27.244 Y3.706 Z-3.467
G1 X27.211 Y3.633 Z-3.467
G1 X27.170 Y3.562 Z-3.467
G1 X27.121 Y3.496 Z-3.467
G1 X27.066 Y3.434 Z-3.467
G1 X27.004 Y3.379 Z-3.467
G1 X26.938 Y3.330 Z-3.467
G1 X26.867 Y3.289 Z-3.467
G1 X26.794 Y3.256 Z-3.467
G1 X26.720 Y3.231 Z-3.467
G1 X26.646 Y3.213 Z-3.467
G1 X26.572 Y3.203 Z-3.467
G1 X26.500 Y3.200 Z-3.467
G1 X20.350 Y3.200 Z-3.467
G1 X20.278 Y3.203 Z-3.467
G1 X20.204 Y3.213 Z-3.467
G1 X20.130 Y3.231 Z-3.467
G1 X20.056 Y3.256 Z-3.467
G1 X19.983 Y3.289 Z-3.467
G1 X19.912 Y3.330 Z-3.467
G1 X19.846 Y3.379 Z-3.467
G1 X19.784 Y3.434 Z-3.467
G1 X19.729 Y3.496 Z-3.467
G1 X19.680 Y3.562 Z-3.467
G1 X19.639 Y3.633 Z-3.467
G1 X19.606 Y3.706 Z-3.467
G1 X19.581 Y3.780 Z-3.467
G1 X19.563 Y3.854 Z-3.467
G1 X19.553 Y3.928 Z-3.467
G1 X19.550 Y4.000 Z-3.467
G1 X19.550 Y8.400 Z-3.467
G1 X19.784 Y8.634 Z-3.467
G1 X19.550 Y8.400 Z-3.467
G1 X16.150 Y8.400 Z-3.467
G1 X15.916 Y8.634 Z-3.467
G1 X16.150 Y8.400 Z-3.467
G1 X16.150 Y4.000 Z-3.467
G1 X16.147 Y3.928 Z-3.467
G1 X16.137 Y3.854 Z-3.467
G1 X16.119 Y3.780 Z-3.467
G1 X16.094 Y3.706 Z-3.467
G1 X16.061 Y3.633 Z-3.467
G1 X16.020 Y3.562 Z-3.467
G1 X15.971 Y3.496 Z-3.467
G1 X15.916 Y3.434 Z-3.467
G1 X15.854 Y3.379 Z-3.467
G1 X15.788 Y3.330 Z-3.467
G1 X15.717 Y3.289 Z-3.467
G1 X15.644 Y3.256 Z-3.467
G1 X15.570 Y3.231 Z-3.467
G1 X15.496 Y3.213 Z-3.467
G1 X15.422 Y3.203 Z-3.467
G1 X15.350 Y3.200 Z-3.467
G1 X13.175 Y3.200 Z-3.467
G1 X6.175 Y3.200 Z-3.467
G1 X4.000 Y3.200 Z-3.467
G1 X3.931 Y3.203 Z-3.467
G1 X3.863 Y3.212 Z-3.467
G1 X3.796 Y3.227 Z-3.467
G1 X3.730 Y3.247 Z-3.467
G1 X3.666 Y3.273 Z-3.467
G1 X3.601 Y3.306 Z-3.467
G1 X3.539 Y3.346 Z-3.467
G1 X3.479 Y3.393 Z-3.467
G1 X3.423 Y3.446 Z-3.467
G1 X3.372 Y3.505 Z-3.467
G1 X3.327 Y3.568 Z-3.467
G1 X3.288 Y3.636 Z-3.467
G1 X3.256 Y3.707 Z-3.467
G1 X3.231 Y3.780 Z-3.467
G1 X3.214 Y3.853 Z-3.467
G1 X3.203 Y3.927 Z-3.467
G1 X3.200 Y4.000 Z-3.467
G1 X3.200 Y9.200 Z-3.467
G1 X3.200 Y10.100 Z-3.467
G1 X3.200 Y15.350 Z-3.467
G1 X3.203 Y15.422 Z-3.467
G1 X3.213 Y15.496 Z-3.467
G1 X3.231 Y15.570 Z-3.467
G1 X3.256 Y15.644 Z-3.467
G1 X3.289 Y15.717 Z-3.467
G1 X3.330 Y15.788 Z-3.467
G1 X3.379 Y15.854 Z-3.467
G1 X3.434 Y15.916 Z-3.467
G1 X3.496 Y15.971 Z-3.467
G1 X3.562 Y16.020 Z-3.467
G1 X3.633 Y16.061 Z-3.467
G1 X3.706 Y16.094 Z-3.467
G1 X3.780 Y16.119 Z-3.467
G1 X3.854 Y16.137 Z-3.467
G1 X3.928 Y16.147 Z-3.467
G1 X4.000 Y16.150 Z-3.467
G1 X8.400 Y16.150 Z-3.467
G1 X8.634 Y15.916 Z-3.467
G1 X8.400 Y16.150 Z-3.467
G1 X8.400 Y19.550 Z-3.467
G1 X8.634 Y19.784 Z-3.467
G1 X8.400 Y19.550 Z-3.467
G1 X4.000 Y19.550 Z-3.467
G1 X3.928 Y19.553 Z-3.467
G1 X3.854 Y19.563 Z-3.467
G1 X3.780 Y19.581 Z-3.467
G1 X3.706 Y19.606 Z-3.467
G1 X3.633 Y19.639 Z-3.467
G1 X3.562 Y19.680 Z-3.467
G1 X3.496 Y19.729 Z-3.467
G1 X3.434 Y19.784 Z-3.467
G1 X3.379 Y19.846 Z-3.467
G1 X3.330 Y19.912 Z-3.467
G1 X3.289 Y19.983 Z-3.467
G1 X3.256 Y20.056 Z-3.467
G1 X3.231 Y20.130 Z-3.467
G1 X3.213 Y20.204 Z-3.467
G1 X3.203 Y20.278 Z-3.467
G1 X3.200 Y20.350 Z-3.467
G1 X3.200 Y26.500 Z-3.467
G1 X3.203 Y26.572 Z-3.467
G1 X3.213 Y26.646 Z-3.467
G1 X3.231 Y26.720 Z-3.467
G1 X3.256 Y26.794 Z-3.467
G1 X3.289 Y26.867 Z-3.467
G1 X3.330 Y26.938 Z-3.467
G1 X3.379 Y27.004 Z-3.467
G1 X3.434 Y27.066 Z-3.467
G1 X3.496 Y27.121 Z-3.467
G1 X3.562 Y27.170 Z-3.467
G1 X3.633 Y27.211 Z-3.467
G1 X3.706 Y27.244 Z-3.467
G1 X3.780 Y27.269 Z-3.467
G1 X3.854 Y27.287 Z-3.467
G1 X3.928 Y27.297 Z-3.467
G1 X4.000 Y27.300 Z-3.467
G1 X8.400 Y27.300 Z-3.467
G1 X8.634 Y27.066 Z-3.467
G1 X8.400 Y27.300 Z-3.467
G1 X8.400 Y30.700 Z-3.467
G1 X8.634 Y30.934 Z-3.467
G1 X8.400 Y30.700 Z-3.467
G1 X4.000 Y30.700 Z-3.467
G1 X3.928 Y30.703 Z-3.467
G1 X3.854 Y30.713 Z-3.467
G1 X3.780 Y30.731 Z-3.467
G1 X3.706 Y30.756 Z-3.467
G1 X3.633 Y30.789 Z-3.467
G1 X3.562 Y30.830 Z-3.467
G1 X3.496 Y30.879 Z-3.467
G1 X3.434 Y30.934 Z-3.467
G1 X3.379 Y30.996 Z-3.467
G1 X3.330 Y31.062 Z-3.467
G1 X3.289 Y31.133 Z-3.467
G1 X3.256 Y31.206 Z-3.467
G1 X3.231 Y31.280 Z-3.467
G1 X3.213 Y31.354 Z-3.467
G1 X3.203 Y31.428 Z-3.467
G1 X3.200 Y31.500 Z-3.467
G1 X3.200 Y37.650 Z-3.467
G1 X3.203 Y37.722 Z-3.467
G1 X3.213 Y37.796 Z-3.467
G1 X3.231 Y37.870 Z-3.467
G1 X3.256 Y37.944 Z-3.467
G1 X3.289 Y38.017 Z-3.467
G1 X3.330 Y38.088 Z-3.467
G1 X3.379 Y38.154 Z-3.467
G1 X3.434 Y38.216 Z-3.467
G1 X3.496 Y38.271 Z-3.467
G1 X3.562 Y38.320 Z-3.467
G1 X3.633 Y38.361 Z-3.467
G1 X3.706 Y38.394 Z-3.467
G1 X3.780 Y38.419 Z-3.467
G1 X3.854 Y38.437 Z-3.467
G1 X3.928 Y38.447 Z-3.467
G1 X4.000 Y38.450 Z-3.467
G1 X8.400 Y38.450 Z-3.467
G1 X8.550 Y38.300 Z-3.467
G1 X8.634 Y38.216 Z-3.468 F250.0
G1 X8.400 Y38.450 Z-3.471
G1 X8.400 Y41.850 Z-3.500
G1 X8.634 Y42.084 Z-3.503
G1 X8.400 Y41.850 Z-3.506
G1 X4.000 Y41.850 Z-3.544
G1 X3.928 Y41.853 Z-3.545
G1 X3.854 Y41.863 Z-3.545
G1 X3.780 Y41.881 Z-3.546
G1 X3.706 Y41.906 Z-3.547
G1 X3.633 Y41.939 Z-3.547
G1 X3.562 Y41.980 Z-3.548
G1 X3.496 Y42.029 Z-3.549
G1 X3.434 Y42.084 Z-3.549
G1 X3.379 Y42.146 Z-3.550
G1 X3.330 Y42.212 Z-3.551
G1 X3.289 Y42.283 Z-3.551
G1 X3.256 Y42.356 Z-3.552
G1 X3.231 Y42.430 Z-3.553
G1 X3.213 Y42.504 Z-3.553
G1 X3.203 Y42.578 Z-3.554
G1 X3.200 Y42.650 Z-3.555
G1 X3.200 Y44.825 Z-3.574
G1 X3.200 Y51.825 Z-3.634
G1 X3.200 Y54.000 Z-3.653
G1 X3.203 Y54.069 Z-3.654
G1 X3.212 Y54.137 Z-3.654
G1 X3.227 Y54.204 Z-3.655
G1 X3.247 Y54.270 Z-3.656
G1 X3.273 Y54.334 Z-3.656
G1 X3.306 Y54.399 Z-3.657
G1 X3.346 Y54.461 Z-3.657
G1 X3.393 Y54.521 Z-3.658
G1 X3.446 Y54.577 Z-3.659
G1 X3.505 Y54.628 Z-3.659
G1 X3.568 Y54.673 Z-3.660
G1 X3.636 Y54.712 Z-3.661
G1 X3.707 Y54.744 Z-3.661
G1 X3.780 Y54.769 Z-3.662
G1 X3.853 Y54.786 Z-3.663
G1 X3.927 Y54.797 Z-3.663
G1 X4.000 Y54.800 Z-3.664
G1 X9.200 Y54.800 Z-3.709
G1 X10.100 Y54.800 Z-3.717
G1 X15.350 Y54.800 Z-3.762
G1 X15.422 Y54.797 Z-3.763
G1 X15.496 Y54.787 Z-3.764
G1 X15.570 Y54.769 Z-3.764
G1 X15.644 Y54.744 Z-3.765
G1 X15.717 Y54.711 Z-3.766
G1 X15.788 Y54.670 Z-3.767
G1 X15.854 Y54.621 Z-3.767
G1 X15.916 Y54.566 Z-3.768
G1 X15.971 Y54.504 Z-3.769
G1 X16.020 Y54.438 Z-3.769
G1 X16.061 Y54.367 Z-3.770
G1 X16.094 Y54.294 Z-3.771
G1 X16.119 Y54.220 Z-3.771
G1 X16.137 Y54.146 Z-3.772
G1 X16.147 Y54.072 Z-3.773
G1 X16.150 Y54.000 Z-3.773
G1 X16.150 Y51.892 Z-3.792
G1 X16.150 Y49.600 Z-3.811
G1 X15.916 Y49.366 Z-3.814
G1 X16.150 Y49.600 Z-3.817
G1 X19.550 Y49.600 Z-3.847
G1 X19.784 Y49.366 Z-3.850
G1 X19.550 Y49.600 Z-3.852
G1 X19.550 Y54.000 Z-3.891
G1 X19.553 Y54.072 Z-3.891
G1 X19.563 Y54.146 Z-3.892
G1 X19.581 Y54.220 Z-3.893
G1 X19.606 Y54.294 Z-3.893
G1 X19.639 Y54.367 Z-3.894
G1 X19.680 Y54.438 Z-3.895
G1 X19.729 Y54.504 Z-3.895
G1 X19.784 Y54.566 Z-3.896
G1 X19.846 Y54.621 Z-3.897
G1 X19.912 Y54.670 Z-3.897
G1 X19.983 Y54.711 Z-3.898
G1 X20.056 Y54.744 Z-3.899
G1 X20.130 Y54.769 Z-3.899
G1 X20.204 Y54.787 Z-3.900
G1 X20.278 Y54.797 Z-3.901
G1 X20.350 Y54.800 Z-3.901
G1 X26.500 Y54.800 Z-3.955
G1 X26.572 Y54.797 Z-3.955
G1 X26.646 Y54.787 Z-3.956
G1 X26.720 Y54.769 Z-3.957
G1 X26.794 Y54.744 Z-3.957
G1 X26.867 Y54.711 Z-3.958
G1 X26.938 Y54.670 Z-3.959
G1 X27.004 Y54.621 Z-3.959
G1 X27.066 Y54.566 Z-3.960
G1 X27.121 Y54.504 Z-3.961
G1 X27.170 Y54.438 Z-3.962
G1 X27.211 Y54.367 Z-3.962
G1 X27.244 Y54.294 Z-3.963
G1 X27.269 Y54.220 Z-3.964
G1 X27.287 Y54.146 Z-3.964
G1 X27.297 Y54.072 Z-3.965
G1 X27.300 Y54.000 Z-3.966
G1 X27.300 Y49.600 Z-4.004
G1 X27.066 Y49.366 Z-4.007
G1 X27.300 Y49.600 Z-4.010
G1 X30.700 Y49.600 Z-4.039
G1 X30.934 Y49.366 Z-4.042
G1 X30.700 Y49.600 Z-4.045
G1 X30.700 Y54.000 Z-4.083
G1 X30.703 Y54.072 Z-4.084
G1 X30.713 Y54.146 Z-4.084
G1 X30.731 Y54.220 Z-4.085
G1 X30.756 Y54.294 Z-4.086
G1 X30.789 Y54.367 Z-4.086
G1 X30.830 Y54.438 Z-4.087
G1 X30.879 Y54.504 Z-4.088
G1 X30.934 Y54.566 Z-4.088
G1 X30.996 Y54.621 Z-4.089
G1 X31.062 Y54.670 Z-4.090
G1 X31.133 Y54.711 Z-4.090
G1 X31.206 Y54.744 Z-4.091
G1 X31.280 Y54.769 Z-4.092
G1 X31.354 Y54.787 Z-4.092
G1 X31.428 Y54.797 Z-4.093
G1 X31.500 Y54.800 Z-4.094
G1 X37.650 Y54.800 Z-4.147
G1 X37.722 Y54.797 Z-4.148
G1 X37.796 Y54.787 Z-4.148
G1 X37.870 Y54.769 Z-4.149
G1 X37.944 Y54.744 Z-4.150
G1 X38.017 Y54.711 Z-4.150
G1 X38.088 Y54.670 Z-4.151
G1 X38.154 Y54.621 Z-4.152
G1 X38.216 Y54.566 Z-4.152
G1 X38.271 Y54.504 Z-4.153
G1 X38.320 Y54.438 Z-4.154
G1 X38.361 Y54.367 Z-4.155
G1 X38.394 Y54.294 Z-4.155
G1 X38.419 Y54.220 Z-4.156
G1 X38.437 Y54.146 Z-4.157
G1 X38.447 Y54.072 Z-4.157
G1 X38.450 Y54.000 Z-4.158
G1 X38.450 Y49.600 Z-4.196
G1 X38.216 Y49.366 Z-4.199
G1 X38.450 Y49.600 Z-4.202
G1 X41.850 Y49.600 Z-4.231
G1 X42.084 Y49.366 Z-4.234
G1 X41.850 Y49.600 Z-4.237
G1 X41.850 Y54.000 Z-4.275
G1 X41.853 Y54.072 Z-4.276
G1 X41.863 Y54.146 Z-4.277
G1 X41.881 Y54.220 Z-4.277
G1 X41.906 Y54.294 Z-4.278
G1 X41.939 Y54.367 Z-4.279
G1 X41.980 Y54.438 Z-4.279
G1 X42.029 Y54.504 Z-4.280
G1 X42.084 Y54.566 Z-4.281
G1 X42.146 Y54.621 Z-4.281
G1 X42.212 Y54.670 Z-4.282
G1 X42.283 Y54.711 Z-4.283
G1 X42.356 Y54.744 Z-4.283
G1 X42.430 Y54.769 Z-4.284
G1 X42.504 Y54.787 Z-4.285
G1 X42.578 Y54.797 Z-4.285
G1 X42.650 Y54.800 Z-4.286
G1 X44.825 Y54.800 Z-4.305
G1 X44.825 Y54.800 Z-4.200
G1 X48.107 Y54.800 Z-4.200
G1 X51.825 Y54.800 Z-4.200 F180.0
G1 X51.825 Y54.800 Z-4.333 F250.0
G1 X54.000 Y54.800 Z-4.333 F180.0
G1 X54.069 Y54.797 Z-4.333
G1 X54.137 Y54.788 Z-4.333
G1 X54.204 Y54.773 Z-4.333
G1 X54.270 Y54.753 Z-4.333
G1 X54.334 Y54.727 Z-4.333
G1 X54.334 Y54.727 Z-4.200
G1 X54.399 Y54.694 Z-4.200
G1 X54.461 Y54.654 Z-4.200
G1 X54.521 Y54.607 Z-4.200
G1 X54.577 Y54.554 Z-4.200
G1 X54.628 Y54.495 Z-4.200
G1 X54.673 Y54.432 Z-4.200
G1 X54.712 Y54.364 Z-4.200
G1 X54.744 Y54.293 Z-4.200
G1 X54.769 Y54.220 Z-4.200
G1 X54.786 Y54.147 Z-4.200
G1 X54.797 Y54.073 Z-4.200
G1 X54.800 Y54.000 Z-4.200
G1 X54.800 Y48.800 Z-4.200
G1 X54.800 Y47.900 Z-4.200
G1 X54.800 Y47.900 Z-4.333 F250.0
G1 X54.800 Y42.650 Z-4.333 F180.0
G1 X54.797 Y42.578 Z-4.333
G1 X54.787 Y42.504 Z-4.333
G1 X54.769 Y42.430 Z-4.333
G1 X54.744 Y42.356 Z-4.333
G1 X54.711 Y42.283 Z-4.333
G1 X54.670 Y42.212 Z-4.333
G1 X54.621 Y42.146 Z-4.333
G1 X54.566 Y42.084 Z-4.333
G1 X54.504 Y42.029 Z-4.333
G1 X54.438 Y41.980 Z-4.333
G1 X54.367 Y41.939 Z-4.333
G1 X54.294 Y41.906 Z-4.333
G1 X54.220 Y41.881 Z-4.333
G1 X54.146 Y41.863 Z-4.333
G1 X54.072 Y41.853 Z-4.333
G1 X54.000 Y41.850 Z-4.333
G1 X49.600 Y41.850 Z-4.333
G1 X49.366 Y42.084 Z-4.333
G1 X49.600 Y41.850 Z-4.333
G1 X49.600 Y38.450 Z-4.333
G1 X49.366 Y38.216 Z-4.333
G1 X49.600 Y38.450 Z-4.333
G1 X54.000 Y38.450 Z-4.333
G1 X54.072 Y38.447 Z-4.333
G1 X54.146 Y38.437 Z-4.333
G1 X54.220 Y38.419 Z-4.333
G1 X54.294 Y38.394 Z-4.333
G1 X54.367 Y38.361 Z-4.333
G1 X54.438 Y38.320 Z-4.333
G1 X54.504 Y38.271 Z-4.333
G1 X54.566 Y38.216 Z-4.333
G1 X54.621 Y38.154 Z-4.333
G1 X54.670 Y38.088 Z-4.333
G1 X54.711 Y38.017 Z-4.333
G1 X54.744 Y37.944 Z-4.333
G1 X54.769 Y37.870 Z-4.333
G1 X54.787 Y37.796 Z-4.333
G1 X54.797 Y37.722 Z-4.333
G1 X54.800 Y37.650 Z-4.333
G1 X54.800 Y34.697 Z-4.333
G1 X54.800 Y31.500 Z-4.333
G1 X54.797 Y31.428 Z-4.333
G1 X54.787 Y31.354 Z-4.333
G1 X54.769 Y31.280 Z-4.333
G1 X54.744 Y31.206 Z-4.333
G1 X54.711 Y31.133 Z-4.333
G1 X54.670 Y31.062 Z-4.333
G1 X54.621 Y30.996 Z-4.333
G1 X54.566 Y30.934 Z-4.333
G1 X54.504 Y30.879 Z-4.333
G1 X54.438 Y30.830 Z-4.333
G1 X54.367 Y30.789 Z-4.333
G1 X54.294 Y30.756 Z-4.333
G1 X54.220 Y30.731 Z-4.333
G1 X54.146 Y30.713 Z-4.333
G1 X54.072 Y30.703 Z-4.333
G1 X54.000 Y30.700 Z-4.333
G1 X49.600 Y30.700 Z-4.333
G1 X49.366 Y30.934 Z-4.333
G1 X49.600 Y30.700 Z-4.333
G1 X49.600 Y27.300 Z-4.333
G1 X49.366 Y27.066 Z-4.333
G1 X49.600 Y27.300 Z-4.333
G1 X54.000 Y27.300 Z-4.333
G1 X54.072 Y27.297 Z-4.333
G1 X54.146 Y27.287 Z-4.333
G1 X54.220 Y27.269 Z-4.333
G1 X54.294 Y27.244 Z-4.333
G1 X54.367 Y27.211 Z-4.333
G1 X54.438 Y27.170 Z-4.333
G1 X54.504 Y27.121 Z-4.333
G1 X54.566 Y27.066 Z-4.333
G1 X54.621 Y27.004 Z-4.333
G1 X54.670 Y26.938 Z-4.333
G1 X54.711 Y26.867 Z-4.333
G1 X54.744 Y26.794 Z-4.333
G1 X54.769 Y26.720 Z-4.333
G1 X54.787 Y26.646 Z-4.333
G1 X54.797 Y26.572 Z-4.333
G1 X54.800 Y26.500 Z-4.333
G1 X54.800 Y20.350 Z-4.333
G1 X54.797 Y20.278 Z-4.333
G1 X54.787 Y20.204 Z-4.333
G1 X54.769 Y20.130 Z-4.333
G1 X54.744 Y20.056 Z-4.333
G1 X54.711 Y19.983 Z-4.333
G1 X54.670 Y19.912 Z-4.333
G1 X54.621 Y19.846 Z-4.333
G1 X54.566 Y19.784 Z-4.333
G1 X54.504 Y19.729 Z-4.333
G1 X54.438 Y19.680 Z-4.333
G1 X54.367 Y19.639 Z-4.333
G1 X54.294 Y19.606 Z-4.333
G1 X54.220 Y19.581 Z-4.333
G1 X54.146 Y19.563 Z-4.333
G1 X54.072 Y19.553 Z-4.333
G1 X54.000 Y19.550 Z-4.333
G1 X49.600 Y19.550 Z-4.333
G1 X49.366 Y19.784 Z-4.333
G1 X49.600 Y19.550 Z-4.333
G1 X49.600 Y16.150 Z-4.333
G1 X49.366 Y15.916 Z-4.333
G1 X49.600 Y16.150 Z-4.333
G1 X54.000 Y16.150 Z-4.333
G1 X54.072 Y16.147 Z-4.333
G1 X54.146 Y16.137 Z-4.333
G1 X54.220 Y16.119 Z-4.333
G1 X54.294 Y16.094 Z-4.333
G1 X54.367 Y16.061 Z-4.333
G1 X54.438 Y16.020 Z-4.333
G1 X54.504 Y15.971 Z-4.333
G1 X54.566 Y15.916 Z-4.333
G1 X54.621 Y15.854 Z-4.333
G1 X54.670 Y15.788 Z-4.333
G1 X54.711 Y15.717 Z-4.333
G1 X54.744 Y15.644 Z-4.333
G1 X54.769 Y15.570 Z-4.333
G1 X54.787 Y15.496 Z-4.333
G1 X54.797 Y15.422 Z-4.333
G1 X54.800 Y15.350 Z-4.333
G1 X54.800 Y13.175 Z-4.333
G1 X54.800 Y13.175 Z-4.200
G1 X54.800 Y6.175 Z-4.200
G1 X54.800 Y6.175 Z-4.333 F250.0
G1 X54.800 Y4.000 Z-4.333 F180.0
G1 X54.797 Y3.931 Z-4.333
G1 X54.788 Y3.863 Z-4.333
G1 X54.773 Y3.796 Z-4.333
G1 X54.753 Y3.730 Z-4.333
G1 X54.727 Y3.666 Z-4.333
G1 X54.727 Y3.666 Z-4.200
G1 X54.694 Y3.601 Z-4.200
G1 X54.654 Y3.539 Z-4.200
G1 X54.607 Y3.479 Z-4.200
G1 X54.554 Y3.423 Z-4.200
G1 X54.495 Y3.372 Z-4.200
G1 X54.432 Y3.327 Z-4.200
G1 X54.364 Y3.288 Z-4.200
G1 X54.293 Y3.256 Z-4.200
G1 X54.220 Y3.231 Z-4.200
G1 X54.147 Y3.214 Z-4.200
G1 X54.073 Y3.203 Z-4.200
G1 X54.000 Y3.200 Z-4.200
G1 X48.800 Y3.200 Z-4.200
G1 X47.900 Y3.200 Z-4.200
G1 X47.900 Y3.200 Z-4.333 F250.0
G1 X42.650 Y3.200 Z-4.333 F180.0
G1 X42.578 Y3.203 Z-4.333
G1 X42.504 Y3.213 Z-4.333
G1 X42.430 Y3.231 Z-4.333
G1 X42.356 Y3.256 Z-4.333
G1 X42.283 Y3.289 Z-4.333
G1 X42.212 Y3.330 Z-4.333
G1 X42.146 Y3.379 Z-4.333
G1 X42.084 Y3.434 Z-4.333
G1 X42.029 Y3.496 Z-4.333
G1 X41.980 Y3.562 Z-4.333
G1 X41.939 Y3.633 Z-4.333
G1 X41.906 Y3.706 Z-4.333
G1 X41.881 Y3.780 Z-4.333
G1 X41.863 Y3.854 Z-4.333
G1 X41.853 Y3.928 Z-4.333
G1 X41.850 Y4.000 Z-4.333
G1 X41.850 Y8.400 Z-4.333
G1 X42.084 Y8.634 Z-4.333
G1 X41.850 Y8.400 Z-4.333
G1 X38.450 Y8.400 Z-4.333
G1 X38.216 Y8.634 Z-4.333
G1 X38.450 Y8.400 Z-4.333
G1 X38.450 Y4.000 Z-4.333
G1 X38.447 Y3.928 Z-4.333
G1 X38.437 Y3.854 Z-4.333
G1 X38.419 Y3.780 Z-4.333
G1 X38.394 Y3.706 Z-4.333
G1 X38.361 Y3.633 Z-4.333
G1 X38.320 Y3.562 Z-4.333
G1 X38.271 Y3.496 Z-4.333
G1 X38.216 Y3.434 Z-4.333
G1 X38.154 Y3.379 Z-4.333
G1 X38.088 Y3.330 Z-4.333
G1 X38.017 Y3.289 Z-4.333
G1 X37.944 Y3.256 Z-4.333
G1 X37.870 Y3.231 Z-4.333
G1 X37.796 Y3.213 Z-4.333
G1 X37.722 Y3.203 Z-4.333
G1 X37.650 Y3.200 Z-4.333
G1 X31.500 Y3.200 Z-4.333
G1 X31.428 Y3.203 Z-4.333
G1 X31.354 Y3.213 Z-4.333
G1 X31.280 Y3.231 Z-4.333
G1 X31.206 Y3.256 Z-4.333
G1 X31.133 Y3.289 Z-4.333
G1 X31.062 Y3.330 Z-4.333
G1 X30.996 Y3.379 Z-4.333
G1 X30.934 Y3.434 Z-4.333
G1 X30.879 Y3.496 Z-4.333
G1 X30.830 Y3.562 Z-4.333
G1 X30.789 Y3.633 Z-4.333
G1 X30.756 Y3.706 Z-4.333
G1 X30.731 Y3.780 Z-4.333
G1 X30.713 Y3.854 Z-4.333
G1 X30.703 Y3.928 Z-4.333
G1 X30.700 Y4.000 Z-4.333
G1 X30.700 Y8.400 Z-4.333
G1 X30.934 Y8.634 Z-4.333
G1 X30.700 Y8.400 Z-4.333
G1 X27.300 Y8.400 Z-4.333
G1 X27.066 Y8.634 Z-4.333
G1 X27.300 Y8.400 Z-4.333
G1 X27.300 Y6.352 Z-4.333
G1 X27.300 Y4.000 Z-4.333
G1 X27.297 Y3.928 Z-4.333
G1 X27.287 Y3.854 Z-4.333
G1 X27.269 Y3.780 Z-4.333
G1 X27.244 Y3.706 Z-4.333
G1 X27.211 Y3.633 Z-4.333
G1 X27.170 Y3.562 Z-4.333
G1 X27.121 Y3.496 Z-4.333
G1 X27.066 Y3.434 Z-4.333
G1 X27.004 Y3.379 Z-4.333
G1 X26.938 Y3.330 Z-4.333
G1 X26.867 Y3.289 Z-4.333
G1 X26.794 Y3.256 Z-4.333
G1 X26.720 Y3.231 Z-4.333
G1 X26.646 Y3.213 Z-4.333
G1 X26.572 Y3.203 Z-4.333
G1 X26.500 Y3.200 Z-4.333
G1 X20.350 Y3.200 Z-4.333
G1 X20.278 Y3.203 Z-4.333
G1 X20.204 Y3.213 Z-4.333
G1 X20.130 Y3.231 Z-4.333
G1 X20.056 Y3.256 Z-4.333
G1 X19.983 Y3.289 Z-4.333
G1 X19.912 Y3.330 Z-4.333
G1 X19.846 Y3.379 Z-4.333
G1 X19.784 Y3.434 Z-4.333
G1 X19.729 Y3.496 Z-4.333
G1 X19.680 Y3.562 Z-4.333
G1 X19.639 Y3.633 Z-4.333
G1 X19.606 Y3.706 Z-4.333
G1 X19.581 Y3.780 Z-4.333
G1 X19.563 Y3.854 Z-4.333
G1 X19.553 Y3.928 Z-4.333
G1 X19.550 Y4.000 Z-4.333
G1 X19.550 Y8.400 Z-4.333
G1 X19.784 Y8.634 Z-4.333
G1 X19.550 Y8.400 Z-4.333
G1 X16.150 Y8.400 Z-4.333
G1 X15.916 Y8.634 Z-4.333
G1 X16.150 Y8.400 Z-4.333
G1 X16.150 Y4.000 Z-4.333
G1 X16.147 Y3.928 Z-4.333
G1 X16.137 Y3.854 Z-4.333
G1 X16.119 Y3.780 Z-4.333
G1 X16.094 Y3.706 Z-4.333
G1 X16.061 Y3.633 Z-4.333
G1 X16.020 Y3.562 Z-4.333
G1 X15.971 Y3.496 Z-4.333
G1 X15.916 Y3.434 Z-4.333
G1 X15.854 Y3.379 Z-4.333
G1 X15.788 Y3.330 Z-4.333
G1 X15.717 Y3.289 Z-4.333
G1 X15.644 Y3.256 Z-4.333
G1 X15.570 Y3.231 Z-4.333
G1 X15.496 Y3.213 Z-4.333
G1 X15.422 Y3.203 Z-4.333
G1 X15.350 Y3.200 Z-4.333
G1 X13.175 Y3.200 Z-4.333
G1 X13.175 Y3.200 Z-4.200
G1 X6.175 Y3.200 Z-4.200
G1 X6.175 Y3.200 Z-4.333 F250.0
G1 X4.000 Y3.200 Z-4.333 F180.0
G1 X3.931 Y3.203 Z-4.333
G1 X3.863 Y3.212 Z-4.333
G1 X3.796 Y3.227 Z-4.333
G1 X3.730 Y3.247 Z-4.333
G1 X3.666 Y3.273 Z-4.333
G1 X3.666 Y3.273 Z-4.200
G1 X3.601 Y3.306 Z-4.200
G1 X3.539 Y3.346 Z-4.200
G1 X3.479 Y3.393 Z-4.200
G1 X3.423 Y3.446 Z-4.200
G1 X3.372 Y3.505 Z-4.200
G1 X3.327 Y3.568 Z-4.200
G1 X3.288 Y3.636 Z-4.200
G1 X3.256 Y3.707 Z-4.200
G1 X3.231 Y3.780 Z-4.200
G1 X3.214 Y3.853 Z-4.200
G1 X3.203 Y3.927 Z-4.200
G1 X3.200 Y4.000 Z-4.200
G1 X3.200 Y9.200 Z-4.200
G1 X3.200 Y10.100 Z-4.200
G1 X3.200 Y10.100 Z-4.333 F250.0
G1 X3.200 Y15.350 Z-4.333 F180.0
G1 X3.203 Y15.422 Z-4.333
G1 X3.213 Y15.496 Z-4.333
G1 X3.231 Y15.570 Z-4.333
G1 X3.256 Y15.644 Z-4.333
G1 X3.289 Y15.717 Z-4.333
G1 X3.330 Y15.788 Z-4.333
G1 X3.379 Y15.854 Z-4.333
G1 X3.434 Y15.916 Z-4.333
G1 X3.496 Y15.971 Z-4.333
G1 X3.562 Y16.020 Z-4.333
G1 X3.633 Y16.061 Z-4.333
G1 X3.706 Y16.094 Z-4.333
G1 X3.780 Y16.119 Z-4.333
G1 X3.854 Y16.137 Z-4.333
G1 X3.928 Y16.147 Z-4.333
G1 X4.000 Y16.150 Z-4.333
G1 X8.400 Y16.150 Z-4.333
G1 X8.634 Y15.916 Z-4.333
G1 X8.400 Y16.150 Z-4.333
G1 X8.400 Y19.550 Z-4.333
G1 X8.634 Y19.784 Z-4.333
G1 X8.400 Y19.550 Z-4.333
G1 X4.000 Y19.550 Z-4.333
G1 X3.928 Y19.553 Z-4.333
G1 X3.854 Y19.563 Z-4.333
G1 X3.780 Y19.581 Z-4.333
G1 X3.706 Y19.606 Z-4.333
G1 X3.633 Y19.639 Z-4.333
G1 X3.562 Y19.680 Z-4.333
G1 X3.496 Y19.729 Z-4.333
G1 X3.434 Y19.784 Z-4.333
G1 X3.379 Y19.846 Z-4.333
G1 X3.330 Y19.912 Z-4.333
G1 X3.289 Y19.983 Z-4.333
G1 X3.256 Y20.056 Z-4.333
G1 X3.231 Y20.130 Z-4.333
G1 X3.213 Y20.204 Z-4.333
G1 X3.203 Y20.278 Z-4.333
G1 X3.200 Y20.350 Z-4.333
G1 X3.200 Y26.500 Z-4.333
G1 X3.203 Y26.572 Z-4.333
G1 X3.213 Y26.646 Z-4.333
G1 X3.231 Y26.720 Z-4.333
G1 X3.256 Y26.794 Z-4.333
G1 X3.289 Y26.867 Z-4.333
G1 X3.330 Y26.938 Z-4.333
G1 X3.379 Y27.004 Z-4.333
G1 X3.434 Y27.066 Z-4.333
G1 X3.496 Y27.121 Z-4.333
G1 X3.562 Y27.170 Z-4.333
G1 X3.633 Y27.211 Z-4.333
G1 X3.706 Y27.244 Z-4.333
G1 X3.780 Y27.269 Z-4.333
G1 X3.854 Y27.287 Z-4.333
G1 X3.928 Y27.297 Z-4.333
G1 X4.000 Y27.300 Z-4.333
G1 X8.400 Y27.300 Z-4.333
G1 X8.634 Y27.066 Z-4.333
G1 X8.400 Y27.300 Z-4.333
G1 X8.400 Y30.700 Z-4.333
G1 X8.634 Y30.934 Z-4.333
G1 X8.400 Y30.700 Z-4.333
G1 X4.000 Y30.700 Z-4.333
G1 X3.928 Y30.703 Z-4.333
G1 X3.854 Y30.713 Z-4.333
G1 X3.780 Y30.731 Z-4.333
G1 X3.706 Y30.756 Z-4.333
G1 X3.633 Y30.789 Z-4.333
G1 X3.562 Y30.830 Z-4.333
G1 X3.496 Y30.879 Z-4.333
G1 X3.434 Y30.934 Z-4.333
G1 X3.379 Y30.996 Z-4.333
G1 X3.330 Y31.062 Z-4.333
G1 X3.289 Y31.133 Z-4.333
G1 X3.256 Y31.206 Z-4.333
G1 X3.231 Y31.280 Z-4.333
G1 X3.213 Y31.354 Z-4.333
G1 X3.203 Y31.428 Z-4.333
G1 X3.200 Y31.500 Z-4.333
G1 X3.200 Y37.650 Z-4.333
G1 X3.203 Y37.722 Z-4.333
G1 X3.213 Y37.796 Z-4.333
G1 X3.231 Y37.870 Z-4.333
G1 X3.256 Y37.944 Z-4.333
G1 X3.289 Y38.017 Z-4.333
G1 X3.330 Y38.088 Z-4.333
G1 X3.379 Y38.154 Z-4.333
G1 X3.434 Y38.216 Z-4.333
G1 X3.496 Y38.271 Z-4.333
G1 X3.562 Y38.320 Z-4.333
G1 X3.633 Y38.361 Z-4.333
G1 X3.706 Y38.394 Z-4.333
G1 X3.780 Y38.419 Z-4.333
G1 X3.854 Y38.437 Z-4.333
G1 X3.928 Y38.447 Z-4.333
G1 X4.000 Y38.450 Z-4.333
G1 X8.400 Y38.450 Z-4.333
G1 X8.550 Y38.300 Z-4.333
G1 X8.634 Y38.216 Z-4.333
G1 X8.400 Y38.450 Z-4.333
G1 X8.400 Y41.850 Z-4.333
G1 X8.634 Y42.084 Z-4.333
G1 X8.400 Y41.850 Z-4.333
G1 X4.000 Y41.850 Z-4.333
G1 X3.928 Y41.853 Z-4.333
G1 X3.854 Y41.863 Z-4.333
G1 X3.780 Y41.881 Z-4.333
G1 X3.706 Y41.906 Z-4.333
G1 X3.633 Y41.939 Z-4.333
G1 X3.562 Y41.980 Z-4.333
G1 X3.496 Y42.029 Z-4.333
G1 X3.434 Y42.084 Z-4.333
G1 X3.379 Y42.146 Z-4.333
G1 X3.330 Y42.212 Z-4.333
G1 X3.289 Y42.283 Z-4.333
G1 X3.256 Y42.356 Z-4.333
G1 X3.231 Y42.430 Z-4.333
G1 X3.213 Y42.504 Z-4.333
G1 X3.203 Y42.578 Z-4.333
G1 X3.200 Y42.650 Z-4.333
G1 X3.200 Y44.825 Z-4.333
G1 X3.200 Y44.825 Z-4.200
G1 X3.200 Y51.825 Z-4.200
G1 X3.200 Y51.825 Z-4.333 F250.0
G1 X3.200 Y54.000 Z-4.333 F180.0
G1 X3.203 Y54.069 Z-4.333
G1 X3.212 Y54.137 Z-4.333
G1 X3.227 Y54.204 Z-4.333
G1 X3.247 Y54.270 Z-4.333
G1 X3.273 Y54.334 Z-4.333
G1 X3.273 Y54.334 Z-4.200
G1 X3.306 Y54.399 Z-4.200
G1 X3.346 Y54.461 Z-4.200
G1 X3.393 Y54.521 Z-4.200
G1 X3.446 Y54.577 Z-4.200
G1 X3.505 Y54.628 Z-4.200
G1 X3.568 Y54.673 Z-4.200
G1 X3.636 Y54.712 Z-4.200
G1 X3.707 Y54.744 Z-4.200
G1 X3.780 Y54.769 Z-4.200
G1 X3.853 Y54.786 Z-4.200
G1 X3.927 Y54.797 Z-4.200
G1 X4.000 Y54.800 Z-4.200
G1 X9.200 Y54.800 Z-4.200
G1 X10.100 Y54.800 Z-4.200
G1 X10.100 Y54.800 Z-4.333 F250.0
G1 X15.350 Y54.800 Z-4.333 F180.0
G1 X15.422 Y54.797 Z-4.333
G1 X15.496 Y54.787 Z-4.333
G1 X15.570 Y54.769 Z-4.333
G1 X15.644 Y54.744 Z-4.333
G1 X15.717 Y54.711 Z-4.333
G1 X15.788 Y54.670 Z-4.333
G1 X15.854 Y54.621 Z-4.333
G1 X15.916 Y54.566 Z-4.333
G1 X15.971 Y54.504 Z-4.333
G1 X16.020 Y54.438 Z-4.333
G1 X16.061 Y54.367 Z-4.333
G1 X16.094 Y54.294 Z-4.333
G1 X16.119 Y54.220 Z-4.333
G1 X16.137 Y54.146 Z-4.333
G1 X16.147 Y54.072 Z-4.333
G1 X16.150 Y54.000 Z-4.333
G1 X16.150 Y51.892 Z-4.333
G1 X16.150 Y49.600 Z-4.333
G1 X15.916 Y49.366 Z-4.333
G1 X16.150 Y49.600 Z-4.333
G1 X19.550 Y49.600 Z-4.333
G1 X19.784 Y49.366 Z-4.333
G1 X19.550 Y49.600 Z-4.333
G1 X19.550 Y54.000 Z-4.333
G1 X19.553 Y54.072 Z-4.333
G1 X19.563 Y54.146 Z-4.333
G1 X19.581 Y54.220 Z-4.333
G1 X19.606 Y54.294 Z-4.333
G1 X19.639 Y54.367 Z-4.333
G1 X19.680 Y54.438 Z-4.333
G1 X19.729 Y54.504 Z-4.333
G1 X19.784 Y54.566 Z-4.333
G1 X19.846 Y54.621 Z-4.333
G1 X19.912 Y54.670 Z-4.333
G1 X19.983 Y54.711 Z-4.333
G1 X20.056 Y54.744 Z-4.333
G1 X20.130 Y54.769 Z-4.333
G1 X20.204 Y54.787 Z-4.333
G1 X20.278 Y54.797 Z-4.333
G1 X20.350 Y54.800 Z-4.333
G1 X26.500 Y54.800 Z-4.333
G1 X26.572 Y54.797 Z-4.333
G1 X26.646 Y54.787 Z-4.333
G1 X26.720 Y54.769 Z-4.333
G1 X26.794 Y54.744 Z-4.333
G1 X26.867 Y54.711 Z-4.333
G1 X26.938 Y54.670 Z-4.333
G1 X27.004 Y54.621 Z-4.333
G1 X27.066 Y54.566 Z-4.333
G1 X27.121 Y54.504 Z-4.333
G1 X27.170 Y54.438 Z-4.333
G1 X27.211 Y54.367 Z-4.333
G1 X27.244 Y54.294 Z-4.333
G1 X27.269 Y54.220 Z-4.333
G1 X27.287 Y54.146 Z-4.333
G1 X27.297 Y54.072 Z-4.333
G1 X27.300 Y54.000 Z-4.333
G1 X27.300 Y49.600 Z-4.333
G1 X27.066 Y49.366 Z-4.333
G1 X27.300 Y49.600 Z-4.333
G1 X30.700 Y49.600 Z-4.333
G1 X30.934 Y49.366 Z-4.333
G1 X30.700 Y49.600 Z-4.333
G1 X30.700 Y54.000 Z-4.333
G1 X30.703 Y54.072 Z-4.333
G1 X30.713 Y54.146 Z-4.333
G1 X30.731 Y54.220 Z-4.333
G1 X30.756 Y54.294 Z-4.333
G1 X30.789 Y54.367 Z-4.333
G1 X30.830 Y54.438 Z-4.333
G1 X30.879 Y54.504 Z-4.333
G1 X30.934 Y54.566 Z-4.333
G1 X30.996 Y54.621 Z-4.333
G1 X31.062 Y54.670 Z-4.333
G1 X31.133 Y54.711 Z-4.333
G1 X31.206 Y54.744 Z-4.333
G1 X31.280 Y54.769 Z-4.333
G1 X31.354 Y54.787 Z-4.333
G1 X31.428 Y54.797 Z-4.333
G1 X31.500 Y54.800 Z-4.333
G1 X37.650 Y54.800 Z-4.333
G1 X37.722 Y54.797 Z-4.333
G1 X37.796 Y54.787 Z-4.333
G1 X37.870 Y54.769 Z-4.333
G1 X37.944 Y54.744 Z-4.333
G1 X38.017 Y54.711 Z-4.333
G1 X38.088 Y54.670 Z-4.333
G1 X38.154 Y54.621 Z-4.333
G1 X38.216 Y54.566 Z-4.333
G1 X38.271 Y54.504 Z-4.333
G1 X38.320 Y54.438 Z-4.333
G1 X38.361 Y54.367 Z-4.333
G1 X38.394 Y54.294 Z-4.333
G1 X38.419 Y54.220 Z-4.333
G1 X38.437 Y54.146 Z-4.333
G1 X38.447 Y54.072 Z-4.333
G1 X38.450 Y54.000 Z-4.333
G1 X38.450 Y49.600 Z-4.333
G1 X38.216 Y49.366 Z-4.333
G1 X38.450 Y49.600 Z-4.333
G1 X41.850 Y49.600 Z-4.333
G1 X42.084 Y49.366 Z-4.333
G1 X41.850 Y49.600 Z-4.333
G1 X41.850 Y54.000 Z-4.333
G1 X41.853 Y54.072 Z-4.333
G1 X41.863 Y54.146 Z-4.333
G1 X41.881 Y54.220 Z-4.333
G1 X41.906 Y54.294 Z-4.333
G1 X41.939 Y54.367 Z-4.333
G1 X41.980 Y54.438 Z-4.333
G1 X42.029 Y54.504 Z-4.333
G1 X42.084 Y54.566 Z-4.333
G1 X42.146 Y54.621 Z-4.333
G1 X42.212 Y54.670 Z-4.333
G1 X42.283 Y54.711 Z-4.333
G1 X42.356 Y54.744 Z-4.333
G1 X42.430 Y54.769 Z-4.333
G1 X42.504 Y54.787 Z-4.333
G1 X42.578 Y54.797 Z-4.333
G1 X42.650 Y54.800 Z-4.333
G1 X44.825 Y54.800 Z-4.333
G1 X44.825 Y54.800 Z-4.200
G1 X48.107 Y54.800 Z-4.200
G1 X51.825 Y54.800 Z-4.200
G1 X51.825 Y54.800 Z-5.200 F250.0
G1 X54.000 Y54.800 Z-5.200 F180.0
G1 X54.069 Y54.797 Z-5.200
G1 X54.137 Y54.788 Z-5.200
G1 X54.204 Y54.773 Z-5.200
G1 X54.270 Y54.753 Z-5.200
G1 X54.334 Y54.727 Z-5.200
G1 X54.334 Y54.727 Z-4.200
G1 X54.399 Y54.694 Z-4.200
G1 X54.461 Y54.654 Z-4.200
G1 X54.521 Y54.607 Z-4.200
G1 X54.577 Y54.554 Z-4.200
G1 X54.628 Y54.495 Z-4.200
G1 X54.673 Y54.432 Z-4.200
G1 X54.712 Y54.364 Z-4.200
G1 X54.744 Y54.293 Z-4.200
G1 X54.769 Y54.220 Z-4.200
G1 X54.786 Y54.147 Z-4.200
G1 X54.797 Y54.073 Z-4.200
G1 X54.800 Y54.000 Z-4.200
G1 X54.800 Y48.800 Z-4.200
G1 X54.800 Y47.900 Z-4.200
G1 X54.800 Y47.900 Z-5.200 F250.0
G1 X54.800 Y42.650 Z-5.200 F180.0
G1 X54.797 Y42.578 Z-5.200
G1 X54.787 Y42.504 Z-5.200
G1 X54.769 Y42.430 Z-5.200
G1 X54.744 Y42.356 Z-5.200
G1 X54.711 Y42.283 Z-5.200
G1 X54.670 Y42.212 Z-5.200
G1 X54.621 Y42.146 Z-5.200
G1 X54.566 Y42.084 Z-5.200
G1 X54.504 Y42.029 Z-5.200
