(VECTRIC POST REVISION)
(AE8C5706166A14C0DE23454C54EBD95B)
%
G21
G40
G94
G97
G64
G90
T1 M6
M8
M3 S12000
G0 X3.073 Y3.625
G0 Z6.000
G1 X3.073 Y3.625 Z0.000 F250.0
G1 X3.047 Y3.697 Z-0.001
G1 X3.027 Y3.771 Z-0.001
G1 X3.012 Y3.847 Z-0.002
G1 X3.003 Y3.923 Z-0.003
G1 X3.000 Y4.000 Z-0.003
G1 X3.000 Y9.200 Z-0.048
G1 X3.000 Y9.600 Z-0.052
G1 X3.000 Y15.350 Z-0.102
G1 X3.003 Y15.430 Z-0.102
G1 X3.013 Y15.511 Z-0.103
G1 X3.030 Y15.594 Z-0.104
G1 X3.055 Y15.677 Z-0.105
G1 X3.087 Y15.759 Z-0.105
G1 X3.128 Y15.839 Z-0.106
G1 X3.176 Y15.916 Z-0.107
G1 X3.231 Y15.989 Z-0.108
G1 X3.293 Y16.057 Z-0.109
G1 X3.361 Y16.119 Z-0.109
G1 X3.434 Y16.174 Z-0.110
G1 X3.511 Y16.222 Z-0.111
G1 X3.591 Y16.263 Z-0.112
G1 X3.673 Y16.295 Z-0.112
G1 X3.756 Y16.320 Z-0.113
G1 X3.839 Y16.337 Z-0.114
G1 X3.920 Y16.347 Z-0.115
G1 X4.000 Y16.350 Z-0.115
G1 X8.200 Y16.350 Z-0.152
G1 X8.493 Y16.057 Z-0.155
G1 X8.200 Y16.350 Z-0.159
G1 X8.200 Y19.350 Z-0.185
G1 X8.493 Y19.643 Z-0.188
G1 X8.200 Y19.350 Z-0.192
G1 X4.000 Y19.350 Z-0.228
G1 X3.920 Y19.353 Z-0.229
G1 X3.839 Y19.363 Z-0.230
G1 X3.756 Y19.380 Z-0.231
G1 X3.673 Y19.405 Z-0.231
G1 X3.591 Y19.437 Z-0.232
G1 X3.511 Y19.478 Z-0.233
G1 X3.434 Y19.526 Z-0.234
G1 X3.361 Y19.581 Z-0.235
G1 X3.293 Y19.643 Z-0.235
G1 X3.231 Y19.711 Z-0.236
G1 X3.176 Y19.784 Z-0.237
G1 X3.128 Y19.861 Z-0.238
G1 X3.087 Y19.941 Z-0.238
G1 X3.055 Y20.023 Z-0.239
G1 X3.030 Y20.106 Z-0.240
G1 X3.013 Y20.189 Z-0.241
G1 X3.003 Y20.270 Z-0.241
G1 X3.000 Y20.350 Z-0.242
G1 X3.000 Y26.500 Z-0.295
G1 X3.003 Y26.580 Z-0.296
G1 X3.013 Y26.661 Z-0.297
G1 X3.030 Y26.744 Z-0.298
G1 X3.055 Y26.827 Z-0.298
G1 X3.087 Y26.909 Z-0.299
G1 X3.128 Y26.989 Z-0.300
G1 X3.176 Y27.066 Z-0.301
G1 X3.231 Y27.139 Z-0.301
G1 X3.293 Y27.207 Z-0.302
G1 X3.361 Y27.269 Z-0.303
G1 X3.434 Y27.324 Z-0.304
G1 X3.511 Y27.372 Z-0.304
G1 X3.591 Y27.413 Z-0.305
G1 X3.673 Y27.445 Z-0.306
G1 X3.756 Y27.470 Z-0.307
G1 X3.839 Y27.487 Z-0.307
G1 X3.920 Y27.497 Z-0.308
G1 X4.000 Y27.500 Z-0.309
G1 X8.200 Y27.500 Z-0.345
G1 X8.493 Y27.207 Z-0.349
G1 X8.200 Y27.500 Z-0.353
G1 X8.200 Y30.500 Z-0.379
G1 X8.493 Y30.793 Z-0.382
G1 X8.200 Y30.500 Z-0.386
G1 X4.000 Y30.500 Z-0.422
G1 X3.920 Y30.503 Z-0.423
G1 X3.839 Y30.513 Z-0.424
G1 X3.756 Y30.530 Z-0.424
G1 X3.673 Y30.555 Z-0.425
G1 X3.591 Y30.587 Z-0.426
G1 X3.511 Y30.628 Z-0.427
G1 X3.434 Y30.676 Z-0.427
G1 X3.361 Y30.731 Z-0.428
G1 X3.293 Y30.793 Z-0.429
G1 X3.231 Y30.861 Z-0.430
G1 X3.176 Y30.934 Z-0.430
G1 X3.128 Y31.011 Z-0.431
G1 X3.087 Y31.091 Z-0.432
G1 X3.055 Y31.173 Z-0.433
G1 X3.030 Y31.256 Z-0.434
G1 X3.013 Y31.339 Z-0.434
G1 X3.003 Y31.420 Z-0.435
G1 X3.000 Y31.500 Z-0.436
G1 X3.000 Y37.650 Z-0.489
G1 X3.003 Y37.730 Z-0.490
G1 X3.013 Y37.811 Z-0.491
G1 X3.030 Y37.894 Z-0.491
G1 X3.055 Y37.977 Z-0.492
G1 X3.087 Y38.059 Z-0.493
G1 X3.128 Y38.139 Z-0.494
G1 X3.176 Y38.216 Z-0.494
G1 X3.231 Y38.289 Z-0.495
G1 X3.293 Y38.357 Z-0.496
G1 X3.361 Y38.419 Z-0.497
G1 X3.434 Y38.474 Z-0.497
G1 X3.511 Y38.522 Z-0.498
G1 X3.591 Y38.563 Z-0.499
G1 X3.673 Y38.595 Z-0.500
G1 X3.756 Y38.620 Z-0.500
G1 X3.839 Y38.637 Z-0.501
G1 X3.920 Y38.647 Z-0.502
G1 X4.000 Y38.650 Z-0.503
G1 X5.333 Y38.650 Z-0.514
G1 X8.200 Y38.650 Z-0.539
G1 X8.493 Y38.357 Z-0.543
G1 X8.200 Y38.650 Z-0.546
G1 X8.200 Y41.650 Z-0.572
G1 X8.493 Y41.943 Z-0.576
G1 X8.200 Y41.650 Z-0.579
G1 X4.000 Y41.650 Z-0.616
G1 X3.920 Y41.653 Z-0.617
G1 X3.839 Y41.663 Z-0.617
G1 X3.756 Y41.680 Z-0.618
G1 X3.673 Y41.705 Z-0.619
G1 X3.591 Y41.737 Z-0.620
G1 X3.511 Y41.778 Z-0.620
G1 X3.434 Y41.826 Z-0.621
G1 X3.361 Y41.881 Z-0.622
G1 X3.293 Y41.943 Z-0.623
G1 X3.231 Y42.011 Z-0.623
G1 X3.176 Y42.084 Z-0.624
G1 X3.128 Y42.161 Z-0.625
G1 X3.087 Y42.241 Z-0.626
G1 X3.055 Y42.323 Z-0.626
G1 X3.030 Y42.406 Z-0.627
G1 X3.013 Y42.489 Z-0.628
G1 X3.003 Y42.570 Z-0.629
G1 X3.000 Y42.650 Z-0.629
G1 X3.000 Y45.325 Z-0.653
G1 X3.000 Y51.325 Z-0.705
G1 X3.000 Y54.000 Z-0.728
G1 X3.003 Y54.081 Z-0.729
G1 X3.013 Y54.163 Z-0.729
G1 X3.030 Y54.245 Z-0.730
G1 X3.055 Y54.327 Z-0.731
G1 X3.086 Y54.407 Z-0.731
G1 X3.125 Y54.485 Z-0.732
G1 X3.171 Y54.559 Z-0.733
G1 X3.223 Y54.629 Z-0.734
G1 X3.280 Y54.694 Z-0.734
G1 X3.343 Y54.754 Z-0.735
G1 X3.409 Y54.807 Z-0.736
G1 X3.479 Y54.854 Z-0.737
G1 X3.551 Y54.894 Z-0.737
G1 X3.625 Y54.927 Z-0.738
G1 X3.697 Y54.953 Z-0.739
G1 X3.771 Y54.973 Z-0.739
G1 X3.847 Y54.988 Z-0.740
G1 X3.923 Y54.997 Z-0.741
G1 X4.000 Y55.000 Z-0.741
G1 X9.200 Y55.000 Z-0.787
G1 X9.600 Y55.000 Z-0.790
G1 X15.350 Y55.000 Z-0.840
G1 X15.430 Y54.997 Z-0.841
G1 X15.511 Y54.987 Z-0.841
G1 X15.594 Y54.970 Z-0.842
G1 X15.677 Y54.945 Z-0.843
G1 X15.759 Y54.913 Z-0.844
G1 X15.839 Y54.872 Z-0.844
G1 X15.916 Y54.824 Z-0.845
G1 X15.989 Y54.769 Z-0.846
G1 X16.057 Y54.707 Z-0.847
G1 X16.119 Y54.639 Z-0.847
G1 X16.174 Y54.566 Z-0.848
G1 X16.222 Y54.489 Z-0.849
G1 X16.263 Y54.409 Z-0.850
G1 X16.295 Y54.327 Z-0.850
G1 X16.320 Y54.244 Z-0.851
G1 X16.337 Y54.161 Z-0.852
G1 X16.347 Y54.080 Z-0.853
G1 X16.350 Y54.000 Z-0.853
G1 X16.350 Y52.471 Z-0.867
G1 X16.350 Y49.800 Z-0.867 F180.0
G1 X16.057 Y49.507 Z-0.867
G1 X16.350 Y49.800 Z-0.867
G1 X19.350 Y49.800 Z-0.867
G1 X19.643 Y49.507 Z-0.867
G1 X19.350 Y49.800 Z-0.867
G1 X19.350 Y54.000 Z-0.867
G1 X19.353 Y54.080 Z-0.867
G1 X19.363 Y54.161 Z-0.867
G1 X19.380 Y54.244 Z-0.867
G1 X19.405 Y54.327 Z-0.867
G1 X19.437 Y54.409 Z-0.867
G1 X19.478 Y54.489 Z-0.867
G1 X19.526 Y54.566 Z-0.867
G1 X19.581 Y54.639 Z-0.867
G1 X19.643 Y54.707 Z-0.867
G1 X19.711 Y54.769 Z-0.867
G1 X19.784 Y54.824 Z-0.867
G1 X19.861 Y54.872 Z-0.867
G1 X19.941 Y54.913 Z-0.867
G1 X20.023 Y54.945 Z-0.867
G1 X20.106 Y54.970 Z-0.867
G1 X20.189 Y54.987 Z-0.867
G1 X20.270 Y54.997 Z-0.867
G1 X20.350 Y55.000 Z-0.867
G1 X26.500 Y55.000 Z-0.867
G1 X26.580 Y54.997 Z-0.867
G1 X26.661 Y54.987 Z-0.867
G1 X26.744 Y54.970 Z-0.867
G1 X26.827 Y54.945 Z-0.867
G1 X26.909 Y54.913 Z-0.867
G1 X26.989 Y54.872 Z-0.867
G1 X27.066 Y54.824 Z-0.867
G1 X27.139 Y54.769 Z-0.867
G1 X27.207 Y54.707 Z-0.867
G1 X27.269 Y54.639 Z-0.867
G1 X27.324 Y54.566 Z-0.867
G1 X27.372 Y54.489 Z-0.867
G1 X27.413 Y54.409 Z-0.867
G1 X27.445 Y54.327 Z-0.867
G1 X27.470 Y54.244 Z-0.867
G1 X27.487 Y54.161 Z-0.867
G1 X27.497 Y54.080 Z-0.867
G1 X27.500 Y54.000 Z-0.867
G1 X27.500 Y49.800 Z-0.867
G1 X27.207 Y49.507 Z-0.867
G1 X27.500 Y49.800 Z-0.867
G1 X30.500 Y49.800 Z-0.867
G1 X30.793 Y49.507 Z-0.867
G1 X30.500 Y49.800 Z-0.867
G1 X30.500 Y54.000 Z-0.867
G1 X30.503 Y54.080 Z-0.867
G1 X30.513 Y54.161 Z-0.867
G1 X30.530 Y54.244 Z-0.867
G1 X30.555 Y54.327 Z-0.867
G1 X30.587 Y54.409 Z-0.867
G1 X30.628 Y54.489 Z-0.867
G1 X30.676 Y54.566 Z-0.867
G1 X30.731 Y54.639 Z-0.867
G1 X30.793 Y54.707 Z-0.867
G1 X30.861 Y54.769 Z-0.867
G1 X30.934 Y54.824 Z-0.867
G1 X31.011 Y54.872 Z-0.867
G1 X31.091 Y54.913 Z-0.867
G1 X31.173 Y54.945 Z-0.867
G1 X31.256 Y54.970 Z-0.867
G1 X31.339 Y54.987 Z-0.867
G1 X31.420 Y54.997 Z-0.867
G1 X31.500 Y55.000 Z-0.867
G1 X37.650 Y55.000 Z-0.867
G1 X37.730 Y54.997 Z-0.867
G1 X37.811 Y54.987 Z-0.867
G1 X37.894 Y54.970 Z-0.867
G1 X37.977 Y54.945 Z-0.867
G1 X38.059 Y54.913 Z-0.867
G1 X38.139 Y54.872 Z-0.867
G1 X38.216 Y54.824 Z-0.867
G1 X38.289 Y54.769 Z-0.867
G1 X38.357 Y54.707 Z-0.867
G1 X38.419 Y54.639 Z-0.867
G1 X38.474 Y54.566 Z-0.867
G1 X38.522 Y54.489 Z-0.867
G1 X38.563 Y54.409 Z-0.867
G1 X38.595 Y54.327 Z-0.867
G1 X38.620 Y54.244 Z-0.867
G1 X38.637 Y54.161 Z-0.867
G1 X38.647 Y54.080 Z-0.867
G1 X38.650 Y54.000 Z-0.867
G1 X38.650 Y49.800 Z-0.867
G1 X38.357 Y49.507 Z-0.867
G1 X38.650 Y49.800 Z-0.867
G1 X41.650 Y49.800 Z-0.867
G1 X41.943 Y49.507 Z-0.867
G1 X41.650 Y49.800 Z-0.867
G1 X41.650 Y54.000 Z-0.867
G1 X41.653 Y54.080 Z-0.867
G1 X41.663 Y54.161 Z-0.867
G1 X41.680 Y54.244 Z-0.867
G1 X41.705 Y54.327 Z-0.867
G1 X41.737 Y54.409 Z-0.867
G1 X41.778 Y54.489 Z-0.867
G1 X41.826 Y54.566 Z-0.867
G1 X41.881 Y54.639 Z-0.867
G1 X41.943 Y54.707 Z-0.867
G1 X42.011 Y54.769 Z-0.867
G1 X42.084 Y54.824 Z-0.867
G1 X42.161 Y54.872 Z-0.867
G1 X42.241 Y54.913 Z-0.867
G1 X42.323 Y54.945 Z-0.867
G1 X42.406 Y54.970 Z-0.867
G1 X42.489 Y54.987 Z-0.867
G1 X42.570 Y54.997 Z-0.867
G1 X42.650 Y55.000 Z-0.867
G1 X44.189 Y55.000 Z-0.867
G1 X45.325 Y55.000 Z-0.867
G1 X51.325 Y55.000 Z-0.867
G1 X54.000 Y55.000 Z-0.867
G1 X54.081 Y54.997 Z-0.867
G1 X54.163 Y54.987 Z-0.867
G1 X54.245 Y54.970 Z-0.867
G1 X54.327 Y54.945 Z-0.867
G1 X54.407 Y54.914 Z-0.867
G1 X54.485 Y54.875 Z-0.867
G1 X54.559 Y54.829 Z-0.867
G1 X54.629 Y54.777 Z-0.867
G1 X54.694 Y54.720 Z-0.867
G1 X54.754 Y54.657 Z-0.867
G1 X54.807 Y54.591 Z-0.867
G1 X54.854 Y54.521 Z-0.867
G1 X54.894 Y54.449 Z-0.867
G1 X54.927 Y54.375 Z-0.867
G1 X54.953 Y54.303 Z-0.867
G1 X54.973 Y54.229 Z-0.867
G1 X54.988 Y54.153 Z-0.867
G1 X54.997 Y54.077 Z-0.867
G1 X55.000 Y54.000 Z-0.867
G1 X55.000 Y48.800 Z-0.867
G1 X55.000 Y48.400 Z-0.867
G1 X55.000 Y42.650 Z-0.867
G1 X54.997 Y42.570 Z-0.867
G1 X54.987 Y42.489 Z-0.867
G1 X54.970 Y42.406 Z-0.867
G1 X54.945 Y42.323 Z-0.867
G1 X54.913 Y42.241 Z-0.867
G1 X54.872 Y42.161 Z-0.867
G1 X54.824 Y42.084 Z-0.867
G1 X54.769 Y42.011 Z-0.867
G1 X54.707 Y41.943 Z-0.867
G1 X54.639 Y41.881 Z-0.867
G1 X54.566 Y41.826 Z-0.867
G1 X54.489 Y41.778 Z-0.867
G1 X54.409 Y41.737 Z-0.867
G1 X54.327 Y41.705 Z-0.867
G1 X54.244 Y41.680 Z-0.867
G1 X54.161 Y41.663 Z-0.867
G1 X54.080 Y41.653 Z-0.867
G1 X54.000 Y41.650 Z-0.867
G1 X49.800 Y41.650 Z-0.867
G1 X49.507 Y41.943 Z-0.867
G1 X49.800 Y41.650 Z-0.867
G1 X49.800 Y38.650 Z-0.867
G1 X49.507 Y38.357 Z-0.867
G1 X49.800 Y38.650 Z-0.867
G1 X54.000 Y38.650 Z-0.867
G1 X54.080 Y38.647 Z-0.867
G1 X54.161 Y38.637 Z-0.867
G1 X54.244 Y38.620 Z-0.867
G1 X54.327 Y38.595 Z-0.867
G1 X54.409 Y38.563 Z-0.867
G1 X54.489 Y38.522 Z-0.867
G1 X54.566 Y38.474 Z-0.867
G1 X54.639 Y38.419 Z-0.867
G1 X54.707 Y38.357 Z-0.867
G1 X54.769 Y38.289 Z-0.867
G1 X54.824 Y38.216 Z-0.867
G1 X54.872 Y38.139 Z-0.867
G1 X54.913 Y38.059 Z-0.867
G1 X54.945 Y37.977 Z-0.867
G1 X54.970 Y37.894 Z-0.867
G1 X54.987 Y37.811 Z-0.867
G1 X54.997 Y37.730 Z-0.867
G1 X55.000 Y37.650 Z-0.867
G1 X55.000 Y35.915 Z-0.867
G1 X55.000 Y31.500 Z-0.867
G1 X54.997 Y31.420 Z-0.867
G1 X54.987 Y31.339 Z-0.867
G1 X54.970 Y31.256 Z-0.867
G1 X54.945 Y31.173 Z-0.867
G1 X54.913 Y31.091 Z-0.867
G1 X54.872 Y31.011 Z-0.867
G1 X54.824 Y30.934 Z-0.867
G1 X54.769 Y30.861 Z-0.867
G1 X54.707 Y30.793 Z-0.867
G1 X54.639 Y30.731 Z-0.867
G1 X54.566 Y30.676 Z-0.867
G1 X54.489 Y30.628 Z-0.867
G1 X54.409 Y30.587 Z-0.867
G1 X54.327 Y30.555 Z-0.867
G1 X54.244 Y30.530 Z-0.867
G1 X54.161 Y30.513 Z-0.867
G1 X54.080 Y30.503 Z-0.867
G1 X54.000 Y30.500 Z-0.867
G1 X49.800 Y30.500 Z-0.867
G1 X49.507 Y30.793 Z-0.867
G1 X49.800 Y30.500 Z-0.867
G1 X49.800 Y27.500 Z-0.867
G1 X49.507 Y27.207 Z-0.867
G1 X49.800 Y27.500 Z-0.867
G1 X54.000 Y27.500 Z-0.867
G1 X54.080 Y27.497 Z-0.867
G1 X54.161 Y27.487 Z-0.867
G1 X54.244 Y27.470 Z-0.867
G1 X54.327 Y27.445 Z-0.867
G1 X54.409 Y27.413 Z-0.867
G1 X54.489 Y27.372 Z-0.867
G1 X54.566 Y27.324 Z-0.867
G1 X54.639 Y27.269 Z-0.867
G1 X54.707 Y27.207 Z-0.867
G1 X54.769 Y27.139 Z-0.867
G1 X54.824 Y27.066 Z-0.867
G1 X54.872 Y26.989 Z-0.867
G1 X54.913 Y26.909 Z-0.867
G1 X54.945 Y26.827 Z-0.867
G1 X54.970 Y26.744 Z-0.867
G1 X54.987 Y26.661 Z-0.867
G1 X54.997 Y26.580 Z-0.867
G1 X55.000 Y26.500 Z-0.867
G1 X55.000 Y20.350 Z-0.867
G1 X54.997 Y20.270 Z-0.867
G1 X54.987 Y20.189 Z-0.867
G1 X54.970 Y20.106 Z-0.867
G1 X54.945 Y20.023 Z-0.867
G1 X54.913 Y19.941 Z-0.867
G1 X54.872 Y19.861 Z-0.867
G1 X54.824 Y19.784 Z-0.867
G1 X54.769 Y19.711 Z-0.867
G1 X54.707 Y19.643 Z-0.867
G1 X54.639 Y19.581 Z-0.867
G1 X54.566 Y19.526 Z-0.867
G1 X54.489 Y19.478 Z-0.867
G1 X54.409 Y19.437 Z-0.867
G1 X54.327 Y19.405 Z-0.867
G1 X54.244 Y19.380 Z-0.867
G1 X54.161 Y19.363 Z-0.867
G1 X54.080 Y19.353 Z-0.867
G1 X54.000 Y19.350 Z-0.867
G1 X49.800 Y19.350 Z-0.867
G1 X49.507 Y19.643 Z-0.867
G1 X49.800 Y19.350 Z-0.867
G1 X49.800 Y16.350 Z-0.867
G1 X49.507 Y16.057 Z-0.867
G1 X49.800 Y16.350 Z-0.867
G1 X54.000 Y16.350 Z-0.867
G1 X54.080 Y16.347 Z-0.867
G1 X54.161 Y16.337 Z-0.867
G1 X54.244 Y16.320 Z-0.867
G1 X54.327 Y16.295 Z-0.867
G1 X54.409 Y16.263 Z-0.867
G1 X54.489 Y16.222 Z-0.867
G1 X54.566 Y16.174 Z-0.867
G1 X54.639 Y16.119 Z-0.867
G1 X54.707 Y16.057 Z-0.867
G1 X54.769 Y15.989 Z-0.867
G1 X54.824 Y15.916 Z-0.867
G1 X54.872 Y15.839 Z-0.867
G1 X54.913 Y15.759 Z-0.867
G1 X54.945 Y15.677 Z-0.867
G1 X54.970 Y15.594 Z-0.867
G1 X54.987 Y15.511 Z-0.867
G1 X54.997 Y15.430 Z-0.867
G1 X55.000 Y15.350 Z-0.867
G1 X55.000 Y12.675 Z-0.867
G1 X55.000 Y6.675 Z-0.867
G1 X55.000 Y4.000 Z-0.867
G1 X54.997 Y3.919 Z-0.867
G1 X54.987 Y3.837 Z-0.867
G1 X54.970 Y3.755 Z-0.867
G1 X54.945 Y3.673 Z-0.867
G1 X54.914 Y3.593 Z-0.867
G1 X54.875 Y3.515 Z-0.867
G1 X54.829 Y3.441 Z-0.867
G1 X54.777 Y3.371 Z-0.867
G1 X54.720 Y3.306 Z-0.867
G1 X54.657 Y3.246 Z-0.867
G1 X54.591 Y3.193 Z-0.867
G1 X54.521 Y3.146 Z-0.867
G1 X54.449 Y3.106 Z-0.867
G1 X54.375 Y3.073 Z-0.867
G1 X54.303 Y3.047 Z-0.867
G1 X54.229 Y3.027 Z-0.867
G1 X54.153 Y3.012 Z-0.867
G1 X54.077 Y3.003 Z-0.867
G1 X54.000 Y3.000 Z-0.867
G1 X50.547 Y3.000 Z-0.867
G1 X48.800 Y3.000 Z-0.867
G1 X48.400 Y3.000 Z-0.867
G1 X42.650 Y3.000 Z-0.867
G1 X42.570 Y3.003 Z-0.867
G1 X42.489 Y3.013 Z-0.867
G1 X42.406 Y3.030 Z-0.867
G1 X42.323 Y3.055 Z-0.867
G1 X42.241 Y3.087 Z-0.867
G1 X42.161 Y3.128 Z-0.867
G1 X42.084 Y3.176 Z-0.867
G1 X42.011 Y3.231 Z-0.867
G1 X41.943 Y3.293 Z-0.867
G1 X41.881 Y3.361 Z-0.867
G1 X41.826 Y3.434 Z-0.867
G1 X41.778 Y3.511 Z-0.867
G1 X41.737 Y3.591 Z-0.867
G1 X41.705 Y3.673 Z-0.867
G1 X41.680 Y3.756 Z-0.867
G1 X41.663 Y3.839 Z-0.867
G1 X41.653 Y3.920 Z-0.867
G1 X41.650 Y4.000 Z-0.867
G1 X41.650 Y8.200 Z-0.867
G1 X41.943 Y8.493 Z-0.867
G1 X41.650 Y8.200 Z-0.867
G1 X38.650 Y8.200 Z-0.867
G1 X38.357 Y8.493 Z-0.867
G1 X38.650 Y8.200 Z-0.867
G1 X38.650 Y4.000 Z-0.867
G1 X38.647 Y3.920 Z-0.867
G1 X38.637 Y3.839 Z-0.867
G1 X38.620 Y3.756 Z-0.867
G1 X38.595 Y3.673 Z-0.867
G1 X38.563 Y3.591 Z-0.867
G1 X38.522 Y3.511 Z-0.867
G1 X38.474 Y3.434 Z-0.867
G1 X38.419 Y3.361 Z-0.867
G1 X38.357 Y3.293 Z-0.867
G1 X38.289 Y3.231 Z-0.867
G1 X38.216 Y3.176 Z-0.867
G1 X38.139 Y3.128 Z-0.867
G1 X38.059 Y3.087 Z-0.867
G1 X37.977 Y3.055 Z-0.867
G1 X37.894 Y3.030 Z-0.867
G1 X37.811 Y3.013 Z-0.867
G1 X37.730 Y3.003 Z-0.867
G1 X37.650 Y3.000 Z-0.867
G1 X31.500 Y3.000 Z-0.867
G1 X31.420 Y3.003 Z-0.867
G1 X31.339 Y3.013 Z-0.867
G1 X31.256 Y3.030 Z-0.867
G1 X31.173 Y3.055 Z-0.867
G1 X31.091 Y3.087 Z-0.867
G1 X31.011 Y3.128 Z-0.867
G1 X30.934 Y3.176 Z-0.867
G1 X30.861 Y3.231 Z-0.867
G1 X30.793 Y3.293 Z-0.867
G1 X30.731 Y3.361 Z-0.867
G1 X30.676 Y3.434 Z-0.867
G1 X30.628 Y3.511 Z-0.867
G1 X30.587 Y3.591 Z-0.867
G1 X30.555 Y3.673 Z-0.867
G1 X30.530 Y3.756 Z-0.867
G1 X30.513 Y3.839 Z-0.867
G1 X30.503 Y3.920 Z-0.867
G1 X30.500 Y4.000 Z-0.867
G1 X30.500 Y8.200 Z-0.867
G1 X30.793 Y8.493 Z-0.867
G1 X30.500 Y8.200 Z-0.867
G1 X27.500 Y8.200 Z-0.867
G1 X27.207 Y8.493 Z-0.867
G1 X27.494 Y8.206 Z-0.867
G1 X27.500 Y8.200 Z-0.867
G1 X27.500 Y4.000 Z-0.867
G1 X27.497 Y3.920 Z-0.867
G1 X27.487 Y3.839 Z-0.867
G1 X27.470 Y3.756 Z-0.867
G1 X27.445 Y3.673 Z-0.867
G1 X27.413 Y3.591 Z-0.867
G1 X27.372 Y3.511 Z-0.867
G1 X27.324 Y3.434 Z-0.867
G1 X27.269 Y3.361 Z-0.867
G1 X27.207 Y3.293 Z-0.867
G1 X27.139 Y3.231 Z-0.867
G1 X27.066 Y3.176 Z-0.867
G1 X26.989 Y3.128 Z-0.867
G1 X26.909 Y3.087 Z-0.867
G1 X26.827 Y3.055 Z-0.867
G1 X26.744 Y3.030 Z-0.867
G1 X26.661 Y3.013 Z-0.867
G1 X26.580 Y3.003 Z-0.867
G1 X26.500 Y3.000 Z-0.867
G1 X20.350 Y3.000 Z-0.867
G1 X20.270 Y3.003 Z-0.867
G1 X20.189 Y3.013 Z-0.867
G1 X20.106 Y3.030 Z-0.867
G1 X20.023 Y3.055 Z-0.867
G1 X19.941 Y3.087 Z-0.867
G1 X19.861 Y3.128 Z-0.867
G1 X19.784 Y3.176 Z-0.867
G1 X19.711 Y3.231 Z-0.867
G1 X19.643 Y3.293 Z-0.867
G1 X19.581 Y3.361 Z-0.867
G1 X19.526 Y3.434 Z-0.867
G1 X19.478 Y3.511 Z-0.867
G1 X19.437 Y3.591 Z-0.867
G1 X19.405 Y3.673 Z-0.867
G1 X19.380 Y3.756 Z-0.867
G1 X19.363 Y3.839 Z-0.867
G1 X19.353 Y3.920 Z-0.867
G1 X19.350 Y4.000 Z-0.867
G1 X19.350 Y8.200 Z-0.867
G1 X19.643 Y8.493 Z-0.867
G1 X19.350 Y8.200 Z-0.867
G1 X16.350 Y8.200 Z-0.867
G1 X16.057 Y8.493 Z-0.867
G1 X16.350 Y8.200 Z-0.867
G1 X16.350 Y4.000 Z-0.867
G1 X16.347 Y3.920 Z-0.867
G1 X16.337 Y3.839 Z-0.867
G1 X16.320 Y3.756 Z-0.867
G1 X16.295 Y3.673 Z-0.867
G1 X16.263 Y3.591 Z-0.867
G1 X16.222 Y3.511 Z-0.867
G1 X16.174 Y3.434 Z-0.867
G1 X16.119 Y3.361 Z-0.867
G1 X16.057 Y3.293 Z-0.867
G1 X15.989 Y3.231 Z-0.867
G1 X15.916 Y3.176 Z-0.867
G1 X15.839 Y3.128 Z-0.867
G1 X15.759 Y3.087 Z-0.867
G1 X15.677 Y3.055 Z-0.867
G1 X15.594 Y3.030 Z-0.867
G1 X15.511 Y3.013 Z-0.867
G1 X15.430 Y3.003 Z-0.867
G1 X15.350 Y3.000 Z-0.867
G1 X12.675 Y3.000 Z-0.867
G1 X6.675 Y3.000 Z-0.867
G1 X4.000 Y3.000 Z-0.867
G1 X3.919 Y3.003 Z-0.867
G1 X3.837 Y3.013 Z-0.867
G1 X3.755 Y3.030 Z-0.867
G1 X3.673 Y3.055 Z-0.867
G1 X3.593 Y3.086 Z-0.867
G1 X3.515 Y3.125 Z-0.867
G1 X3.441 Y3.171 Z-0.867
G1 X3.371 Y3.223 Z-0.867
G1 X3.306 Y3.280 Z-0.867
G1 X3.246 Y3.343 Z-0.867
G1 X3.193 Y3.409 Z-0.867
G1 X3.146 Y3.479 Z-0.867
G1 X3.106 Y3.551 Z-0.867
G1 X3.073 Y3.625 Z-0.867
G1 X3.047 Y3.697 Z-0.867
G1 X3.027 Y3.771 Z-0.867
G1 X3.012 Y3.847 Z-0.867
G1 X3.003 Y3.923 Z-0.867
G1 X3.000 Y4.000 Z-0.867
G1 X3.000 Y9.200 Z-0.867
G1 X3.000 Y9.600 Z-0.867
G1 X3.000 Y15.350 Z-0.867
G1 X3.003 Y15.430 Z-0.867
G1 X3.013 Y15.511 Z-0.867
G1 X3.030 Y15.594 Z-0.867
G1 X3.055 Y15.677 Z-0.867
G1 X3.087 Y15.759 Z-0.867
G1 X3.128 Y15.839 Z-0.867
G1 X3.176 Y15.916 Z-0.867
G1 X3.231 Y15.989 Z-0.867
G1 X3.293 Y16.057 Z-0.867
G1 X3.361 Y16.119 Z-0.867
G1 X3.434 Y16.174 Z-0.867
G1 X3.511 Y16.222 Z-0.867
G1 X3.591 Y16.263 Z-0.867
G1 X3.673 Y16.295 Z-0.867
G1 X3.756 Y16.320 Z-0.867
G1 X3.839 Y16.337 Z-0.867
G1 X3.920 Y16.347 Z-0.867
G1 X4.000 Y16.350 Z-0.867
G1 X8.200 Y16.350 Z-0.867
G1 X8.493 Y16.057 Z-0.867
G1 X8.200 Y16.350 Z-0.867
G1 X8.200 Y19.350 Z-0.867
G1 X8.493 Y19.643 Z-0.867
G1 X8.200 Y19.350 Z-0.867
G1 X4.000 Y19.350 Z-0.867
G1 X3.920 Y19.353 Z-0.867
G1 X3.839 Y19.363 Z-0.867
G1 X3.756 Y19.380 Z-0.867
G1 X3.673 Y19.405 Z-0.867
G1 X3.591 Y19.437 Z-0.867
G1 X3.511 Y19.478 Z-0.867
G1 X3.434 Y19.526 Z-0.867
G1 X3.361 Y19.581 Z-0.867
G1 X3.293 Y19.643 Z-0.867
G1 X3.231 Y19.711 Z-0.867
G1 X3.176 Y19.784 Z-0.867
G1 X3.128 Y19.861 Z-0.867
G1 X3.087 Y19.941 Z-0.867
G1 X3.055 Y20.023 Z-0.867
G1 X3.030 Y20.106 Z-0.867
G1 X3.013 Y20.189 Z-0.867
G1 X3.003 Y20.270 Z-0.867
G1 X3.000 Y20.350 Z-0.867
G1 X3.000 Y26.500 Z-0.867
G1 X3.003 Y26.580 Z-0.867
G1 X3.013 Y26.661 Z-0.867
G1 X3.030 Y26.744 Z-0.867
G1 X3.055 Y26.827 Z-0.867
G1 X3.087 Y26.909 Z-0.867
G1 X3.128 Y26.989 Z-0.867
G1 X3.176 Y27.066 Z-0.867
G1 X3.231 Y27.139 Z-0.867
G1 X3.293 Y27.207 Z-0.867
G1 X3.361 Y27.269 Z-0.867
G1 X3.434 Y27.324 Z-0.867
G1 X3.511 Y27.372 Z-0.867
G1 X3.591 Y27.413 Z-0.867
G1 X3.673 Y27.445 Z-0.867
G1 X3.756 Y27.470 Z-0.867
G1 X3.839 Y27.487 Z-0.867
G1 X3.920 Y27.497 Z-0.867
G1 X4.000 Y27.500 Z-0.867
G1 X8.200 Y27.500 Z-0.867
G1 X8.493 Y27.207 Z-0.867
G1 X8.200 Y27.500 Z-0.867
G1 X8.200 Y30.500 Z-0.867
G1 X8.493 Y30.793 Z-0.867
G1 X8.200 Y30.500 Z-0.867
G1 X4.000 Y30.500 Z-0.867
G1 X3.920 Y30.503 Z-0.867
G1 X3.839 Y30.513 Z-0.867
G1 X3.756 Y30.530 Z-0.867
G1 X3.673 Y30.555 Z-0.867
G1 X3.591 Y30.587 Z-0.867
G1 X3.511 Y30.628 Z-0.867
G1 X3.434 Y30.676 Z-0.867
G1 X3.361 Y30.731 Z-0.867
G1 X3.293 Y30.793 Z-0.867
G1 X3.231 Y30.861 Z-0.867
G1 X3.176 Y30.934 Z-0.867
G1 X3.128 Y31.011 Z-0.867
G1 X3.087 Y31.091 Z-0.867
G1 X3.055 Y31.173 Z-0.867
G1 X3.030 Y31.256 Z-0.867
G1 X3.013 Y31.339 Z-0.867
G1 X3.003 Y31.420 Z-0.867
G1 X3.000 Y31.500 Z-0.867
G1 X3.000 Y37.650 Z-0.867
G1 X3.003 Y37.730 Z-0.867
G1 X3.013 Y37.811 Z-0.867
G1 X3.030 Y37.894 Z-0.867
G1 X3.055 Y37.977 Z-0.867
G1 X3.087 Y38.059 Z-0.867
G1 X3.128 Y38.139 Z-0.867
G1 X3.176 Y38.216 Z-0.867
G1 X3.231 Y38.289 Z-0.867
G1 X3.293 Y38.357 Z-0.867
G1 X3.361 Y38.419 Z-0.867
G1 X3.434 Y38.474 Z-0.867
G1 X3.511 Y38.522 Z-0.867
G1 X3.591 Y38.563 Z-0.867
G1 X3.673 Y38.595 Z-0.867
G1 X3.756 Y38.620 Z-0.867
G1 X3.839 Y38.637 Z-0.867
G1 X3.920 Y38.647 Z-0.867
G1 X4.000 Y38.650 Z-0.867
G1 X5.333 Y38.650 Z-0.867
G1 X8.200 Y38.650 Z-0.867
G1 X8.493 Y38.357 Z-0.867
G1 X8.200 Y38.650 Z-0.867
G1 X8.200 Y41.650 Z-0.867
G1 X8.493 Y41.943 Z-0.867
G1 X8.200 Y41.650 Z-0.867
G1 X4.000 Y41.650 Z-0.867
G1 X3.920 Y41.653 Z-0.867
G1 X3.839 Y41.663 Z-0.867
G1 X3.756 Y41.680 Z-0.867
G1 X3.673 Y41.705 Z-0.867
G1 X3.591 Y41.737 Z-0.867
G1 X3.511 Y41.778 Z-0.867
G1 X3.434 Y41.826 Z-0.867
G1 X3.361 Y41.881 Z-0.867
G1 X3.293 Y41.943 Z-0.867
G1 X3.231 Y42.011 Z-0.867
G1 X3.176 Y42.084 Z-0.867
G1 X3.128 Y42.161 Z-0.867
G1 X3.087 Y42.241 Z-0.867
G1 X3.055 Y42.323 Z-0.867
G1 X3.030 Y42.406 Z-0.867
G1 X3.013 Y42.489 Z-0.867
G1 X3.003 Y42.570 Z-0.867
G1 X3.000 Y42.650 Z-0.867
G1 X3.000 Y45.325 Z-0.867
G1 X3.000 Y51.325 Z-0.867
G1 X3.000 Y54.000 Z-0.867
G1 X3.003 Y54.081 Z-0.867
G1 X3.013 Y54.163 Z-0.867
G1 X3.030 Y54.245 Z-0.867
G1 X3.055 Y54.327 Z-0.867
G1 X3.086 Y54.407 Z-0.867
G1 X3.125 Y54.485 Z-0.867
G1 X3.171 Y54.559 Z-0.867
G1 X3.223 Y54.629 Z-0.867
G1 X3.280 Y54.694 Z-0.867
G1 X3.343 Y54.754 Z-0.867
G1 X3.409 Y54.807 Z-0.867
G1 X3.479 Y54.854 Z-0.867
G1 X3.551 Y54.894 Z-0.867
G1 X3.625 Y54.927 Z-0.867
G1 X3.697 Y54.953 Z-0.867
G1 X3.771 Y54.973 Z-0.867
G1 X3.847 Y54.988 Z-0.867
G1 X3.923 Y54.997 Z-0.867
G1 X4.000 Y55.000 Z-0.867
G1 X9.200 Y55.000 Z-0.867
G1 X9.600 Y55.000 Z-0.867
G1 X15.350 Y55.000 Z-0.867
G1 X15.430 Y54.997 Z-0.867
G1 X15.511 Y54.987 Z-0.867
G1 X15.594 Y54.970 Z-0.867
G1 X15.677 Y54.945 Z-0.867
G1 X15.759 Y54.913 Z-0.867
G1 X15.839 Y54.872 Z-0.867
G1 X15.916 Y54.824 Z-0.867
G1 X15.989 Y54.769 Z-0.867
G1 X16.057 Y54.707 Z-0.867
G1 X16.119 Y54.639 Z-0.867
G1 X16.174 Y54.566 Z-0.867
G1 X16.222 Y54.489 Z-0.867
G1 X16.263 Y54.409 Z-0.867
G1 X16.295 Y54.327 Z-0.867
G1 X16.320 Y54.244 Z-0.867
G1 X16.337 Y54.161 Z-0.867
G1 X16.347 Y54.080 Z-0.867
G1 X16.350 Y54.000 Z-0.867
G1 X16.350 Y52.471 Z-0.867
G1 X16.350 Y49.800 Z-0.890 F250.0
G1 X16.057 Y49.507 Z-0.893
G1 X16.350 Y49.800 Z-0.897
G1 X19.350 Y49.800 Z-0.923
G1 X19.643 Y49.507 Z-0.927
G1 X19.350 Y49.800 Z-0.930
G1 X19.350 Y54.000 Z-0.967
G1 X19.353 Y54.080 Z-0.967
G1 X19.363 Y54.161 Z-0.968
G1 X19.380 Y54.244 Z-0.969
G1 X19.405 Y54.327 Z-0.970
G1 X19.437 Y54.409 Z-0.970
G1 X19.478 Y54.489 Z-0.971
G1 X19.526 Y54.566 Z-0.972
G1 X19.581 Y54.639 Z-0.973
G1 X19.643 Y54.707 Z-0.973
G1 X19.711 Y54.769 Z-0.974
G1 X19.784 Y54.824 Z-0.975
G1 X19.861 Y54.872 Z-0.976
G1 X19.941 Y54.913 Z-0.976
G1 X20.023 Y54.945 Z-0.977
G1 X20.106 Y54.970 Z-0.978
G1 X20.189 Y54.987 Z-0.979
G1 X20.270 Y54.997 Z-0.979
G1 X20.350 Y55.000 Z-0.980
G1 X26.500 Y55.000 Z-1.033
G1 X26.580 Y54.997 Z-1.034
G1 X26.661 Y54.987 Z-1.035
G1 X26.744 Y54.970 Z-1.036
G1 X26.827 Y54.945 Z-1.037
G1 X26.909 Y54.913 Z-1.037
G1 X26.989 Y54.872 Z-1.038
G1 X27.066 Y54.824 Z-1.039
G1 X27.139 Y54.769 Z-1.040
G1 X27.207 Y54.707 Z-1.040
G1 X27.269 Y54.639 Z-1.041
G1 X27.324 Y54.566 Z-1.042
G1 X27.372 Y54.489 Z-1.043
G1 X27.413 Y54.409 Z-1.043
G1 X27.445 Y54.327 Z-1.044
G1 X27.470 Y54.244 Z-1.045
G1 X27.487 Y54.161 Z-1.046
G1 X27.497 Y54.080 Z-1.046
G1 X27.500 Y54.000 Z-1.047
G1 X27.500 Y49.800 Z-1.084
G1 X27.207 Y49.507 Z-1.087
G1 X27.500 Y49.800 Z-1.091
G1 X30.500 Y49.800 Z-1.117
G1 X30.793 Y49.507 Z-1.120
G1 X30.500 Y49.800 Z-1.124
G1 X30.500 Y54.000 Z-1.160
G1 X30.503 Y54.080 Z-1.161
G1 X30.513 Y54.161 Z-1.162
G1 X30.530 Y54.244 Z-1.163
G1 X30.555 Y54.327 Z-1.163
G1 X30.587 Y54.409 Z-1.164
G1 X30.628 Y54.489 Z-1.165
G1 X30.676 Y54.566 Z-1.166
G1 X30.731 Y54.639 Z-1.166
G1 X30.793 Y54.707 Z-1.167
G1 X30.861 Y54.769 Z-1.168
G1 X30.934 Y54.824 Z-1.169
G1 X31.011 Y54.872 Z-1.169
G1 X31.091 Y54.913 Z-1.170
G1 X31.173 Y54.945 Z-1.171
G1 X31.256 Y54.970 Z-1.172
G1 X31.339 Y54.987 Z-1.172
G1 X31.420 Y54.997 Z-1.173
G1 X31.500 Y55.000 Z-1.174
G1 X37.650 Y55.000 Z-1.227
G1 X37.730 Y54.997 Z-1.228
G1 X37.811 Y54.987 Z-1.229
G1 X37.894 Y54.970 Z-1.229
G1 X37.977 Y54.945 Z-1.230
G1 X38.059 Y54.913 Z-1.231
G1 X38.139 Y54.872 Z-1.232
G1 X38.216 Y54.824 Z-1.232
G1 X38.289 Y54.769 Z-1.233
G1 X38.357 Y54.707 Z-1.234
G1 X38.419 Y54.639 Z-1.235
G1 X38.474 Y54.566 Z-1.235
G1 X38.522 Y54.489 Z-1.236
G1 X38.563 Y54.409 Z-1.237
G1 X38.595 Y54.327 Z-1.238
G1 X38.620 Y54.244 Z-1.239
G1 X38.637 Y54.161 Z-1.239
G1 X38.647 Y54.080 Z-1.240
G1 X38.650 Y54.000 Z-1.241
G1 X38.650 Y49.800 Z-1.277
G1 X38.357 Y49.507 Z-1.281
G1 X38.650 Y49.800 Z-1.284
G1 X41.650 Y49.800 Z-1.310
G1 X41.943 Y49.507 Z-1.314
G1 X41.650 Y49.800 Z-1.318
G1 X41.650 Y54.000 Z-1.354
G1 X41.653 Y54.080 Z-1.355
G1 X41.663 Y54.161 Z-1.355
G1 X41.680 Y54.244 Z-1.356
G1 X41.705 Y54.327 Z-1.357
G1 X41.737 Y54.409 Z-1.358
G1 X41.778 Y54.489 Z-1.358
G1 X41.826 Y54.566 Z-1.359
G1 X41.881 Y54.639 Z-1.360
G1 X41.943 Y54.707 Z-1.361
G1 X42.011 Y54.769 Z-1.362
G1 X42.084 Y54.824 Z-1.362
G1 X42.161 Y54.872 Z-1.363
G1 X42.241 Y54.913 Z-1.364
G1 X42.323 Y54.945 Z-1.365
G1 X42.406 Y54.970 Z-1.365
G1 X42.489 Y54.987 Z-1.366
G1 X42.570 Y54.997 Z-1.367
G1 X42.650 Y55.000 Z-1.368
G1 X44.189 Y55.000 Z-1.381
G1 X45.325 Y55.000 Z-1.391
G1 X51.325 Y55.000 Z-1.443
G1 X54.000 Y55.000 Z-1.466
G1 X54.081 Y54.997 Z-1.467
G1 X54.163 Y54.987 Z-1.467
G1 X54.245 Y54.970 Z-1.468
G1 X54.327 Y54.945 Z-1.469
G1 X54.407 Y54.914 Z-1.470
G1 X54.485 Y54.875 Z-1.470
G1 X54.559 Y54.829 Z-1.471
G1 X54.629 Y54.777 Z-1.472
G1 X54.694 Y54.720 Z-1.473
G1 X54.754 Y54.657 Z-1.473
G1 X54.807 Y54.591 Z-1.474
G1 X54.854 Y54.521 Z-1.475
G1 X54.894 Y54.449 Z-1.475
G1 X54.927 Y54.375 Z-1.476
G1 X54.953 Y54.303 Z-1.477
G1 X54.973 Y54.229 Z-1.478
G1 X54.988 Y54.153 Z-1.478
G1 X54.997 Y54.077 Z-1.479
G1 X55.000 Y54.000 Z-1.480
G1 X55.000 Y48.800 Z-1.525
G1 X55.000 Y48.400 Z-1.528
G1 X55.000 Y42.650 Z-1.578
G1 X54.997 Y42.570 Z-1.579
G1 X54.987 Y42.489 Z-1.579
G1 X54.970 Y42.406 Z-1.580
G1 X54.945 Y42.323 Z-1.581
G1 X54.913 Y42.241 Z-1.582
G1 X54.872 Y42.161 Z-1.582
G1 X54.824 Y42.084 Z-1.583
G1 X54.769 Y42.011 Z-1.584
G1 X54.707 Y41.943 Z-1.585
G1 X54.639 Y41.881 Z-1.585
G1 X54.566 Y41.826 Z-1.586
G1 X54.489 Y41.778 Z-1.587
G1 X54.409 Y41.737 Z-1.588
G1 X54.327 Y41.705 Z-1.588
G1 X54.244 Y41.680 Z-1.589
G1 X54.161 Y41.663 Z-1.590
G1 X54.080 Y41.653 Z-1.591
G1 X54.000 Y41.650 Z-1.592
G1 X49.800 Y41.650 Z-1.628
G1 X49.507 Y41.943 Z-1.632
G1 X49.800 Y41.650 Z-1.635
G1 X49.800 Y38.650 Z-1.661
G1 X49.507 Y38.357 Z-1.665
G1 X49.800 Y38.650 Z-1.668
G1 X54.000 Y38.650 Z-1.705
G1 X54.080 Y38.647 Z-1.705
G1 X54.161 Y38.637 Z-1.706
G1 X54.244 Y38.620 Z-1.707
G1 X54.327 Y38.595 Z-1.708
G1 X54.409 Y38.563 Z-1.708
G1 X54.489 Y38.522 Z-1.709
G1 X54.566 Y38.474 Z-1.710
G1 X54.639 Y38.419 Z-1.711
G1 X54.707 Y38.357 Z-1.711
G1 X54.769 Y38.289 Z-1.712
G1 X54.824 Y38.216 Z-1.713
G1 X54.872 Y38.139 Z-1.714
G1 X54.913 Y38.059 Z-1.715
G1 X54.945 Y37.977 Z-1.715
G1 X54.970 Y37.894 Z-1.716
G1 X54.987 Y37.811 Z-1.717
G1 X54.997 Y37.730 Z-1.718
G1 X55.000 Y37.650 Z-1.718
G1 X55.000 Y35.915 Z-1.733
G1 X55.000 Y31.500 Z-1.733 F180.0
G1 X54.997 Y31.420 Z-1.733
G1 X54.987 Y31.339 Z-1.733
G1 X54.970 Y31.256 Z-1.733
G1 X54.945 Y31.173 Z-1.733
G1 X54.913 Y31.091 Z-1.733
G1 X54.872 Y31.011 Z-1.733
G1 X54.824 Y30.934 Z-1.733
G1 X54.769 Y30.861 Z-1.733
G1 X54.707 Y30.793 Z-1.733
G1 X54.639 Y30.731 Z-1.733
G1 X54.566 Y30.676 Z-1.733
G1 X54.489 Y30.628 Z-1.733
G1 X54.409 Y30.587 Z-1.733
G1 X54.327 Y30.555 Z-1.733
G1 X54.244 Y30.530 Z-1.733
G1 X54.161 Y30.513 Z-1.733
G1 X54.080 Y30.503 Z-1.733
G1 X54.000 Y30.500 Z-1.733
G1 X49.800 Y30.500 Z-1.733
G1 X49.507 Y30.793 Z-1.733
G1 X49.800 Y30.500 Z-1.733
G1 X49.800 Y27.500 Z-1.733
G1 X49.507 Y27.207 Z-1.733
G1 X49.800 Y27.500 Z-1.733
G1 X54.000 Y27.500 Z-1.733
G1 X54.080 Y27.497 Z-1.733
G1 X54.161 Y27.487 Z-1.733
G1 X54.244 Y27.470 Z-1.733
G1 X54.327 Y27.445 Z-1.733
G1 X54.409 Y27.413 Z-1.733
G1 X54.489 Y27.372 Z-1.733
G1 X54.566 Y27.324 Z-1.733
G1 X54.639 Y27.269 Z-1.733
G1 X54.707 Y27.207 Z-1.733
G1 X54.769 Y27.139 Z-1.733
G1 X54.824 Y27.066 Z-1.733
G1 X54.872 Y26.989 Z-1.733
G1 X54.913 Y26.909 Z-1.733
G1 X54.945 Y26.827 Z-1.733
G1 X54.970 Y26.744 Z-1.733
G1 X54.987 Y26.661 Z-1.733
G1 X54.997 Y26.580 Z-1.733
G1 X55.000 Y26.500 Z-1.733
G1 X55.000 Y20.350 Z-1.733
G1 X54.997 Y20.270 Z-1.733
G1 X54.987 Y20.189 Z-1.733
G1 X54.970 Y20.106 Z-1.733
G1 X54.945 Y20.023 Z-1.733
G1 X54.913 Y19.941 Z-1.733
G1 X54.872 Y19.861 Z-1.733
G1 X54.824 Y19.784 Z-1.733
G1 X54.769 Y19.711 Z-1.733
G1 X54.707 Y19.643 Z-1.733
G1 X54.639 Y19.581 Z-1.733
G1 X54.566 Y19.526 Z-1.733
G1 X54.489 Y19.478 Z-1.733
G1 X54.409 Y19.437 Z-1.733
G1 X54.327 Y19.405 Z-1.733
G1 X54.244 Y19.380 Z-1.733
G1 X54.161 Y19.363 Z-1.733
G1 X54.080 Y19.353 Z-1.733
G1 X54.000 Y19.350 Z-1.733
G1 X49.800 Y19.350 Z-1.733
G1 X49.507 Y19.643 Z-1.733
G1 X49.800 Y19.350 Z-1.733
G1 X49.800 Y16.350 Z-1.733
G1 X49.507 Y16.057 Z-1.733
G1 X49.800 Y16.350 Z-1.733
G1 X54.000 Y16.350 Z-1.733
G1 X54.080 Y16.347 Z-1.733
G1 X54.161 Y16.337 Z-1.733
G1 X54.244 Y16.320 Z-1.733
G1 X54.327 Y16.295 Z-1.733
G1 X54.409 Y16.263 Z-1.733
G1 X54.489 Y16.222 Z-1.733
G1 X54.566 Y16.174 Z-1.733
G1 X54.639 Y16.119 Z-1.733
G1 X54.707 Y16.057 Z-1.733
G1 X54.769 Y15.989 Z-1.733
G1 X54.824 Y15.916 Z-1.733
G1 X54.872 Y15.839 Z-1.733
G1 X54.913 Y15.759 Z-1.733
G1 X54.945 Y15.677 Z-1.733
G1 X54.970 Y15.594 Z-1.733
G1 X54.987 Y15.511 Z-1.733
G1 X54.997 Y15.430 Z-1.733
G1 X55.000 Y15.350 Z-1.733
G1 X55.000 Y12.675 Z-1.733
G1 X55.000 Y6.675 Z-1.733
G1 X55.000 Y4.000 Z-1.733
G1 X54.997 Y3.919 Z-1.733
G1 X54.987 Y3.837 Z-1.733
G1 X54.970 Y3.755 Z-1.733
G1 X54.945 Y3.673 Z-1.733
G1 X54.914 Y3.593 Z-1.733
G1 X54.875 Y3.515 Z-1.733
G1 X54.829 Y3.441 Z-1.733
G1 X54.777 Y3.371 Z-1.733
G1 X54.720 Y3.306 Z-1.733
G1 X54.657 Y3.246 Z-1.733
G1 X54.591 Y3.193 Z-1.733
G1 X54.521 Y3.146 Z-1.733
G1 X54.449 Y3.106 Z-1.733
G1 X54.375 Y3.073 Z-1.733
G1 X54.303 Y3.047 Z-1.733
G1 X54.229 Y3.027 Z-1.733
G1 X54.153 Y3.012 Z-1.733
G1 X54.077 Y3.003 Z-1.733
G1 X54.000 Y3.000 Z-1.733
G1 X50.547 Y3.000 Z-1.733
G1 X48.800 Y3.000 Z-1.733
G1 X48.400 Y3.000 Z-1.733
G1 X42.650 Y3.000 Z-1.733
G1 X42.570 Y3.003 Z-1.733
G1 X42.489 Y3.013 Z-1.733
G1 X42.406 Y3.030 Z-1.733
G1 X42.323 Y3.055 Z-1.733
G1 X42.241 Y3.087 Z-1.733
G1 X42.161 Y3.128 Z-1.733
G1 X42.084 Y3.176 Z-1.733
G1 X42.011 Y3.231 Z-1.733
G1 X41.943 Y3.293 Z-1.733
G1 X41.881 Y3.361 Z-1.733
G1 X41.826 Y3.434 Z-1.733
G1 X41.778 Y3.511 Z-1.733
G1 X41.737 Y3.591 Z-1.733
G1 X41.705 Y3.673 Z-1.733
G1 X41.680 Y3.756 Z-1.733
G1 X41.663 Y3.839 Z-1.733
G1 X41.653 Y3.920 Z-1.733
G1 X41.650 Y4.000 Z-1.733
G1 X41.650 Y8.200 Z-1.733
G1 X41.943 Y8.493 Z-1.733
G1 X41.650 Y8.200 Z-1.733
G1 X38.650 Y8.200 Z-1.733
G1 X38.357 Y8.493 Z-1.733
G1 X38.650 Y8.200 Z-1.733
G1 X38.650 Y4.000 Z-1.733
G1 X38.647 Y3.920 Z-1.733
G1 X38.637 Y3.839 Z-1.733
G1 X38.620 Y3.756 Z-1.733
G1 X38.595 Y3.673 Z-1.733
G1 X38.563 Y3.591 Z-1.733
G1 X38.522 Y3.511 Z-1.733
G1 X38.474 Y3.434 Z-1.733
G1 X38.419 Y3.361 Z-1.733
G1 X38.357 Y3.293 Z-1.733
G1 X38.289 Y3.231 Z-1.733
G1 X38.216 Y3.176 Z-1.733
G1 X38.139 Y3.128 Z-1.733
G1 X38.059 Y3.087 Z-1.733
G1 X37.977 Y3.055 Z-1.733
G1 X37.894 Y3.030 Z-1.733
G1 X37.811 Y3.013 Z-1.733
G1 X37.730 Y3.003 Z-1.733
G1 X37.650 Y3.000 Z-1.733
G1 X31.500 Y3.000 Z-1.733
G1 X31.420 Y3.003 Z-1.733
G1 X31.339 Y3.013 Z-1.733
G1 X31.256 Y3.030 Z-1.733
G1 X31.173 Y3.055 Z-1.733
G1 X31.091 Y3.087 Z-1.733
G1 X31.011 Y3.128 Z-1.733
G1 X30.934 Y3.176 Z-1.733
G1 X30.861 Y3.231 Z-1.733
G1 X30.793 Y3.293 Z-1.733
G1 X30.731 Y3.361 Z-1.733
G1 X30.676 Y3.434 Z-1.733
G1 X30.628 Y3.511 Z-1.733
G1 X30.587 Y3.591 Z-1.733
G1 X30.555 Y3.673 Z-1.733
G1 X30.530 Y3.756 Z-1.733
G1 X30.513 Y3.839 Z-1.733
G1 X30.503 Y3.920 Z-1.733
G1 X30.500 Y4.000 Z-1.733
G1 X30.500 Y8.200 Z-1.733
G1 X30.793 Y8.493 Z-1.733
G1 X30.500 Y8.200 Z-1.733
G1 X27.500 Y8.200 Z-1.733
G1 X27.207 Y8.493 Z-1.733
G1 X27.494 Y8.206 Z-1.733
G1 X27.500 Y8.200 Z-1.733
G1 X27.500 Y4.000 Z-1.733
G1 X27.497 Y3.920 Z-1.733
G1 X27.487 Y3.839 Z-1.733
G1 X27.470 Y3.756 Z-1.733
G1 X27.445 Y3.673 Z-1.733
G1 X27.413 Y3.591 Z-1.733
G1 X27.372 Y3.511 Z-1.733
G1 X27.324 Y3.434 Z-1.733
G1 X27.269 Y3.361 Z-1.733
G1 X27.207 Y3.293 Z-1.733
G1 X27.139 Y3.231 Z-1.733
G1 X27.066 Y3.176 Z-1.733
G1 X26.989 Y3.128 Z-1.733
G1 X26.909 Y3.087 Z-1.733
G1 X26.827 Y3.055 Z-1.733
G1 X26.744 Y3.030 Z-1.733
G1 X26.661 Y3.013 Z-1.733
G1 X26.580 Y3.003 Z-1.733
G1 X26.500 Y3.000 Z-1.733
G1 X20.350 Y3.000 Z-1.733
G1 X20.270 Y3.003 Z-1.733
G1 X20.189 Y3.013 Z-1.733
G1 X20.106 Y3.030 Z-1.733
G1 X20.023 Y3.055 Z-1.733
G1 X19.941 Y3.087 Z-1.733
G1 X19.861 Y3.128 Z-1.733
G1 X19.784 Y3.176 Z-1.733
G1 X19.711 Y3.231 Z-1.733
G1 X19.643 Y3.293 Z-1.733
G1 X19.581 Y3.361 Z-1.733
G1 X19.526 Y3.434 Z-1.733
G1 X19.478 Y3.511 Z-1.733
G1 X19.437 Y3.591 Z-1.733
G1 X19.405 Y3.673 Z-1.733
G1 X19.380 Y3.756 Z-1.733
G1 X19.363 Y3.839 Z-1.733
G1 X19.353 Y3.920 Z-1.733
G1 X19.350 Y4.000 Z-1.733
G1 X19.350 Y8.200 Z-1.733
G1 X19.643 Y8.493 Z-1.733
G1 X19.350 Y8.200 Z-1.733
G1 X16.350 Y8.200 Z-1.733
G1 X16.057 Y8.493 Z-1.733
G1 X16.350 Y8.200 Z-1.733
G1 X16.350 Y4.000 Z-1.733
G1 X16.347 Y3.920 Z-1.733
G1 X16.337 Y3.839 Z-1.733
G1 X16.320 Y3.756 Z-1.733
G1 X16.295 Y3.673 Z-1.733
G1 X16.263 Y3.591 Z-1.733
G1 X16.222 Y3.511 Z-1.733
G1 X16.174 Y3.434 Z-1.733
G1 X16.119 Y3.361 Z-1.733
G1 X16.057 Y3.293 Z-1.733
G1 X15.989 Y3.231 Z-1.733
G1 X15.916 Y3.176 Z-1.733
G1 X15.839 Y3.128 Z-1.733
G1 X15.759 Y3.087 Z-1.733
G1 X15.677 Y3.055 Z-1.733
G1 X15.594 Y3.030 Z-1.733
G1 X15.511 Y3.013 Z-1.733
G1 X15.430 Y3.003 Z-1.733
G1 X15.350 Y3.000 Z-1.733
G1 X12.675 Y3.000 Z-1.733
G1 X6.675 Y3.000 Z-1.733
G1 X4.000 Y3.000 Z-1.733
G1 X3.919 Y3.003 Z-1.733
G1 X3.837 Y3.013 Z-1.733
G1 X3.755 Y3.030 Z-1.733
G1 X3.673 Y3.055 Z-1.733
G1 X3.593 Y3.086 Z-1.733
G1 X3.515 Y3.125 Z-1.733
G1 X3.441 Y3.171 Z-1.733
G1 X3.371 Y3.223 Z-1.733
G1 X3.306 Y3.280 Z-1.733
G1 X3.246 Y3.343 Z-1.733
G1 X3.193 Y3.409 Z-1.733
G1 X3.146 Y3.479 Z-1.733
G1 X3.106 Y3.551 Z-1.733
G1 X3.073 Y3.625 Z-1.733
G1 X3.047 Y3.697 Z-1.733
G1 X3.027 Y3.771 Z-1.733
G1 X3.012 Y3.847 Z-1.733
G1 X3.003 Y3.923 Z-1.733
G1 X3.000 Y4.000 Z-1.733
G1 X3.000 Y9.200 Z-1.733
G1 X3.000 Y9.600 Z-1.733
G1 X3.000 Y15.350 Z-1.733
G1 X3.003 Y15.430 Z-1.733
G1 X3.013 Y15.511 Z-1.733
G1 X3.030 Y15.594 Z-1.733
G1 X3.055 Y15.677 Z-1.733
G1 X3.087 Y15.759 Z-1.733
G1 X3.128 Y15.839 Z-1.733
G1 X3.176 Y15.916 Z-1.733
G1 X3.231 Y15.989 Z-1.733
G1 X3.293 Y16.057 Z-1.733
G1 X3.361 Y16.119 Z-1.733
G1 X3.434 Y16.174 Z-1.733
G1 X3.511 Y16.222 Z-1.733
G1 X3.591 Y16.263 Z-1.733
G1 X3.673 Y16.295 Z-1.733
G1 X3.756 Y16.320 Z-1.733
G1 X3.839 Y16.337 Z-1.733
G1 X3.920 Y16.347 Z-1.733
G1 X4.000 Y16.350 Z-1.733
G1 X8.200 Y16.350 Z-1.733
G1 X8.493 Y16.057 Z-1.733
G1 X8.200 Y16.350 Z-1.733
G1 X8.200 Y19.350 Z-1.733
G1 X8.493 Y19.643 Z-1.733
G1 X8.200 Y19.350 Z-1.733
G1 X4.000 Y19.350 Z-1.733
G1 X3.920 Y19.353 Z-1.733
G1 X3.839 Y19.363 Z-1.733
G1 X3.756 Y19.380 Z-1.733
G1 X3.673 Y19.405 Z-1.733
G1 X3.591 Y19.437 Z-1.733
G1 X3.511 Y19.478 Z-1.733
G1 X3.434 Y19.526 Z-1.733
G1 X3.361 Y19.581 Z-1.733
G1 X3.293 Y19.643 Z-1.733
G1 X3.231 Y19.711 Z-1.733
G1 X3.176 Y19.784 Z-1.733
G1 X3.128 Y19.861 Z-1.733
G1 X3.087 Y19.941 Z-1.733
G1 X3.055 Y20.023 Z-1.733
G1 X3.030 Y20.106 Z-1.733
G1 X3.013 Y20.189 Z-1.733
G1 X3.003 Y20.270 Z-1.733
G1 X3.000 Y20.350 Z-1.733
G1 X3.000 Y26.500 Z-1.733
G1 X3.003 Y26.580 Z-1.733
G1 X3.013 Y26.661 Z-1.733
G1 X3.030 Y26.744 Z-1.733
G1 X3.055 Y26.827 Z-1.733
G1 X3.087 Y26.909 Z-1.733
G1 X3.128 Y26.989 Z-1.733
G1 X3.176 Y27.066 Z-1.733
G1 X3.231 Y27.139 Z-1.733
G1 X3.293 Y27.207 Z-1.733
G1 X3.361 Y27.269 Z-1.733
G1 X3.434 Y27.324 Z-1.733
G1 X3.511 Y27.372 Z-1.733
G1 X3.591 Y27.413 Z-1.733
G1 X3.673 Y27.445 Z-1.733
G1 X3.756 Y27.470 Z-1.733
G1 X3.839 Y27.487 Z-1.733
G1 X3.920 Y27.497 Z-1.733
G1 X4.000 Y27.500 Z-1.733
G1 X8.200 Y27.500 Z-1.733
G1 X8.493 Y27.207 Z-1.733
G1 X8.200 Y27.500 Z-1.733
G1 X8.200 Y30.500 Z-1.733
G1 X8.493 Y30.793 Z-1.733
G1 X8.200 Y30.500 Z-1.733
G1 X4.000 Y30.500 Z-1.733
G1 X3.920 Y30.503 Z-1.733
G1 X3.839 Y30.513 Z-1.733
G1 X3.756 Y30.530 Z-1.733
G1 X3.673 Y30.555 Z-1.733
G1 X3.591 Y30.587 Z-1.733
G1 X3.511 Y30.628 Z-1.733
G1 X3.434 Y30.676 Z-1.733
G1 X3.361 Y30.731 Z-1.733
G1 X3.293 Y30.793 Z-1.733
G1 X3.231 Y30.861 Z-1.733
G1 X3.176 Y30.934 Z-1.733
G1 X3.128 Y31.011 Z-1.733
G1 X3.087 Y31.091 Z-1.733
G1 X3.055 Y31.173 Z-1.733
G1 X3.030 Y31.256 Z-1.733
G1 X3.013 Y31.339 Z-1.733
G1 X3.003 Y31.420 Z-1.733
G1 X3.000 Y31.500 Z-1.733
G1 X3.000 Y37.650 Z-1.733
G1 X3.003 Y37.730 Z-1.733
G1 X3.013 Y37.811 Z-1.733
G1 X3.030 Y37.894 Z-1.733
G1 X3.055 Y37.977 Z-1.733
G1 X3.087 Y38.059 Z-1.733
G1 X3.128 Y38.139 Z-1.733
G1 X3.176 Y38.216 Z-1.733
G1 X3.231 Y38.289 Z-1.733
G1 X3.293 Y38.357 Z-1.733
G1 X3.361 Y38.419 Z-1.733
G1 X3.434 Y38.474 Z-1.733
G1 X3.511 Y38.522 Z-1.733
G1 X3.591 Y38.563 Z-1.733
G1 X3.673 Y38.595 Z-1.733
G1 X3.756 Y38.620 Z-1.733
G1 X3.839 Y38.637 Z-1.733
G1 X3.920 Y38.647 Z-1.733
G1 X4.000 Y38.650 Z-1.733
G1 X5.333 Y38.650 Z-1.733
G1 X8.200 Y38.650 Z-1.733
G1 X8.493 Y38.357 Z-1.733
G1 X8.200 Y38.650 Z-1.733
G1 X8.200 Y41.650 Z-1.733
G1 X8.493 Y41.943 Z-1.733
G1 X8.200 Y41.650 Z-1.733
G1 X4.000 Y41.650 Z-1.733
G1 X3.920 Y41.653 Z-1.733
G1 X3.839 Y41.663 Z-1.733
G1 X3.756 Y41.680 Z-1.733
G1 X3.673 Y41.705 Z-1.733
G1 X3.591 Y41.737 Z-1.733
G1 X3.511 Y41.778 Z-1.733
G1 X3.434 Y41.826 Z-1.733
G1 X3.361 Y41.881 Z-1.733
G1 X3.293 Y41.943 Z-1.733
G1 X3.231 Y42.011 Z-1.733
G1 X3.176 Y42.084 Z-1.733
G1 X3.128 Y42.161 Z-1.733
G1 X3.087 Y42.241 Z-1.733
G1 X3.055 Y42.323 Z-1.733
G1 X3.030 Y42.406 Z-1.733
G1 X3.013 Y42.489 Z-1.733
G1 X3.003 Y42.570 Z-1.733
G1 X3.000 Y42.650 Z-1.733
G1 X3.000 Y45.325 Z-1.733
G1 X3.000 Y51.325 Z-1.733
G1 X3.000 Y54.000 Z-1.733
G1 X3.003 Y54.081 Z-1.733
G1 X3.013 Y54.163 Z-1.733
G1 X3.030 Y54.245 Z-1.733
G1 X3.055 Y54.327 Z-1.733
G1 X3.086 Y54.407 Z-1.733
G1 X3.125 Y54.485 Z-1.733
G1 X3.171 Y54.559 Z-1.733
G1 X3.223 Y54.629 Z-1.733
G1 X3.280 Y54.694 Z-1.733
G1 X3.343 Y54.754 Z-1.733
G1 X3.409 Y54.807 Z-1.733
G1 X3.479 Y54.854 Z-1.733
G1 X3.551 Y54.894 Z-1.733
G1 X3.625 Y54.927 Z-1.733
G1 X3.697 Y54.953 Z-1.733
G1 X3.771 Y54.973 Z-1.733
G1 X3.847 Y54.988 Z-1.733
G1 X3.923 Y54.997 Z-1.733
G1 X4.000 Y55.000 Z-1.733
G1 X9.200 Y55.000 Z-1.733
G1 X9.600 Y55.000 Z-1.733
G1 X15.350 Y55.000 Z-1.733
G1 X15.430 Y54.997 Z-1.733
G1 X15.511 Y54.987 Z-1.733
G1 X15.594 Y54.970 Z-1.733
G1 X15.677 Y54.945 Z-1.733
G1 X15.759 Y54.913 Z-1.733
G1 X15.839 Y54.872 Z-1.733
G1 X15.916 Y54.824 Z-1.733
G1 X15.989 Y54.769 Z-1.733
G1 X16.057 Y54.707 Z-1.733
G1 X16.119 Y54.639 Z-1.733
G1 X16.174 Y54.566 Z-1.733
G1 X16.222 Y54.489 Z-1.733
G1 X16.263 Y54.409 Z-1.733
G1 X16.295 Y54.327 Z-1.733
G1 X16.320 Y54.244 Z-1.733
G1 X16.337 Y54.161 Z-1.733
G1 X16.347 Y54.080 Z-1.733
G1 X16.350 Y54.000 Z-1.733
G1 X16.350 Y52.471 Z-1.733
G1 X16.350 Y49.800 Z-1.733
G1 X16.057 Y49.507 Z-1.733
G1 X16.350 Y49.800 Z-1.733
G1 X19.350 Y49.800 Z-1.733
G1 X19.643 Y49.507 Z-1.733
G1 X19.350 Y49.800 Z-1.733
G1 X19.350 Y54.000 Z-1.733
G1 X19.353 Y54.080 Z-1.733
G1 X19.363 Y54.161 Z-1.733
G1 X19.380 Y54.244 Z-1.733
G1 X19.405 Y54.327 Z-1.733
G1 X19.437 Y54.409 Z-1.733
G1 X19.478 Y54.489 Z-1.733
G1 X19.526 Y54.566 Z-1.733
G1 X19.581 Y54.639 Z-1.733
G1 X19.643 Y54.707 Z-1.733
G1 X19.711 Y54.769 Z-1.733
G1 X19.784 Y54.824 Z-1.733
G1 X19.861 Y54.872 Z-1.733
G1 X19.941 Y54.913 Z-1.733
G1 X20.023 Y54.945 Z-1.733
G1 X20.106 Y54.970 Z-1.733
G1 X20.189 Y54.987 Z-1.733
G1 X20.270 Y54.997 Z-1.733
G1 X20.350 Y55.000 Z-1.733
G1 X26.500 Y55.000 Z-1.733
G1 X26.580 Y54.997 Z-1.733
G1 X26.661 Y54.987 Z-1.733
G1 X26.744 Y54.970 Z-1.733
G1 X26.827 Y54.945 Z-1.733
G1 X26.909 Y54.913 Z-1.733
G1 X26.989 Y54.872 Z-1.733
G1 X27.066 Y54.824 Z-1.733
G1 X27.139 Y54.769 Z-1.733
G1 X27.207 Y54.707 Z-1.733
G1 X27.269 Y54.639 Z-1.733
G1 X27.324 Y54.566 Z-1.733
G1 X27.372 Y54.489 Z-1.733
G1 X27.413 Y54.409 Z-1.733
G1 X27.445 Y54.327 Z-1.733
G1 X27.470 Y54.244 Z-1.733
G1 X27.487 Y54.161 Z-1.733
G1 X27.497 Y54.080 Z-1.733
G1 X27.500 Y54.000 Z-1.733
G1 X27.500 Y49.800 Z-1.733
G1 X27.207 Y49.507 Z-1.733
G1 X27.500 Y49.800 Z-1.733
G1 X30.500 Y49.800 Z-1.733
G1 X30.793 Y49.507 Z-1.733
G1 X30.500 Y49.800 Z-1.733
G1 X30.500 Y54.000 Z-1.733
G1 X30.503 Y54.080 Z-1.733
G1 X30.513 Y54.161 Z-1.733
G1 X30.530 Y54.244 Z-1.733
G1 X30.555 Y54.327 Z-1.733
G1 X30.587 Y54.409 Z-1.733
G1 X30.628 Y54.489 Z-1.733
G1 X30.676 Y54.566 Z-1.733
G1 X30.731 Y54.639 Z-1.733
G1 X30.793 Y54.707 Z-1.733
G1 X30.861 Y54.769 Z-1.733
G1 X30.934 Y54.824 Z-1.733
G1 X31.011 Y54.872 Z-1.733
G1 X31.091 Y54.913 Z-1.733
G1 X31.173 Y54.945 Z-1.733
G1 X31.256 Y54.970 Z-1.733
G1 X31.339 Y54.987 Z-1.733
G1 X31.420 Y54.997 Z-1.733
G1 X31.500 Y55.000 Z-1.733
G1 X37.650 Y55.000 Z-1.733
G1 X37.730 Y54.997 Z-1.733
G1 X37.811 Y54.987 Z-1.733
G1 X37.894 Y54.970 Z-1.733
G1 X37.977 Y54.945 Z-1.733
G1 X38.059 Y54.913 Z-1.733
G1 X38.139 Y54.872 Z-1.733
G1 X38.216 Y54.824 Z-1.733
G1 X38.289 Y54.769 Z-1.733
G1 X38.357 Y54.707 Z-1.733
G1 X38.419 Y54.639 Z-1.733
G1 X38.474 Y54.566 Z-1.733
G1 X38.522 Y54.489 Z-1.733
G1 X38.563 Y54.409 Z-1.733
G1 X38.595 Y54.327 Z-1.733
G1 X38.620 Y54.244 Z-1.733
G1 X38.637 Y54.161 Z-1.733
G1 X38.647 Y54.080 Z-1.733
G1 X38.650 Y54.000 Z-1.733
G1 X38.650 Y49.800 Z-1.733
G1 X38.357 Y49.507 Z-1.733
G1 X38.650 Y49.800 Z-1.733
G1 X41.650 Y49.800 Z-1.733
G1 X41.943 Y49.507 Z-1.733
G1 X41.650 Y49.800 Z-1.733
G1 X41.650 Y54.000 Z-1.733
G1 X41.653 Y54.080 Z-1.733
G1 X41.663 Y54.161 Z-1.733
G1 X41.680 Y54.244 Z-1.733
G1 X41.705 Y54.327 Z-1.733
G1 X41.737 Y54.409 Z-1.733
G1 X41.778 Y54.489 Z-1.733
G1 X41.826 Y54.566 Z-1.733
G1 X41.881 Y54.639 Z-1.733
G1 X41.943 Y54.707 Z-1.733
G1 X42.011 Y54.769 Z-1.733
G1 X42.084 Y54.824 Z-1.733
G1 X42.161 Y54.872 Z-1.733
G1 X42.241 Y54.913 Z-1.733
G1 X42.323 Y54.945 Z-1.733
G1 X42.406 Y54.970 Z-1.733
G1 X42.489 Y54.987 Z-1.733
G1 X42.570 Y54.997 Z-1.733
G1 X42.650 Y55.000 Z-1.733
G1 X44.189 Y55.000 Z-1.733
G1 X45.325 Y55.000 Z-1.733
G1 X51.325 Y55.000 Z-1.733
G1 X54.000 Y55.000 Z-1.733
G1 X54.081 Y54.997 Z-1.733
G1 X54.163 Y54.987 Z-1.733
G1 X54.245 Y54.970 Z-1.733
G1 X54.327 Y54.945 Z-1.733
G1 X54.407 Y54.914 Z-1.733
G1 X54.485 Y54.875 Z-1.733
G1 X54.559 Y54.829 Z-1.733
G1 X54.629 Y54.777 Z-1.733
G1 X54.694 Y54.720 Z-1.733
G1 X54.754 Y54.657 Z-1.733
G1 X54.807 Y54.591 Z-1.733
G1 X54.854 Y54.521 Z-1.733
G1 X54.894 Y54.449 Z-1.733
G1 X54.927 Y54.375 Z-1.733
G1 X54.953 Y54.303 Z-1.733
G1 X54.973 Y54.229 Z-1.733
G1 X54.988 Y54.153 Z-1.733
G1 X54.997 Y54.077 Z-1.733
G1 X55.000 Y54.000 Z-1.733
G1 X55.000 Y48.800 Z-1.733
G1 X55.000 Y48.400 Z-1.733
G1 X55.000 Y42.650 Z-1.733
G1 X54.997 Y42.570 Z-1.733
G1 X54.987 Y42.489 Z-1.733
G1 X54.970 Y42.406 Z-1.733
G1 X54.945 Y42.323 Z-1.733
G1 X54.913 Y42.241 Z-1.733
G1 X54.872 Y42.161 Z-1.733
G1 X54.824 Y42.084 Z-1.733
G1 X54.769 Y42.011 Z-1.733
G1 X54.707 Y41.943 Z-1.733
G1 X54.639 Y41.881 Z-1.733
G1 X54.566 Y41.826 Z-1.733
G1 X54.489 Y41.778 Z-1.733
G1 X54.409 Y41.737 Z-1.733
G1 X54.327 Y41.705 Z-1.733
G1 X54.244 Y41.680 Z-1.733
G1 X54.161 Y41.663 Z-1.733
G1 X54.080 Y41.653 Z-1.733
G1 X54.000 Y41.650 Z-1.733
G1 X49.800 Y41.650 Z-1.733
G1 X49.507 Y41.943 Z-1.733
G1 X49.800 Y41.650 Z-1.733
G1 X49.800 Y38.650 Z-1.733
G1 X49.507 Y38.357 Z-1.733
G1 X49.800 Y38.650 Z-1.733
G1 X54.000 Y38.650 Z-1.733
G1 X54.080 Y38.647 Z-1.733
G1 X54.161 Y38.637 Z-1.733
G1 X54.244 Y38.620 Z-1.733
G1 X54.327 Y38.595 Z-1.733
G1 X54.409 Y38.563 Z-1.733
G1 X54.489 Y38.522 Z-1.733
G1 X54.566 Y38.474 Z-1.733
G1 X54.639 Y38.419 Z-1.733
G1 X54.707 Y38.357 Z-1.733
G1 X54.769 Y38.289 Z-1.733
G1 X54.824 Y38.216 Z-1.733
G1 X54.872 Y38.139 Z-1.733
G1 X54.913 Y38.059 Z-1.733
G1 X54.945 Y37.977 Z-1.733
G1 X54.970 Y37.894 Z-1.733
G1 X54.987 Y37.811 Z-1.733
G1 X54.997 Y37.730 Z-1.733
G1 X55.000 Y37.650 Z-1.733
G1 X55.000 Y35.915 Z-1.733
G1 X55.000 Y31.500 Z-1.772 F250.0
G1 X54.997 Y31.420 Z-1.772
G1 X54.987 Y31.339 Z-1.773
G1 X54.970 Y31.256 Z-1.774
G1 X54.945 Y31.173 Z-1.775
G1 X54.913 Y31.091 Z-1.775
G1 X54.872 Y31.011 Z-1.776
G1 X54.824 Y30.934 Z-1.777
G1 X54.769 Y30.861 Z-1.778
G1 X54.707 Y30.793 Z-1.778
G1 X54.639 Y30.731 Z-1.779
G1 X54.566 Y30.676 Z-1.780
G1 X54.489 Y30.628 Z-1.781
G1 X54.409 Y30.587 Z-1.781
G1 X54.327 Y30.555 Z-1.782
G1 X54.244 Y30.530 Z-1.783
G1 X54.161 Y30.513 Z-1.784
G1 X54.080 Y30.503 Z-1.784
G1 X54.000 Y30.500 Z-1.785
G1 X49.800 Y30.500 Z-1.822
G1 X49.507 Y30.793 Z-1.825
G1 X49.800 Y30.500 Z-1.829
G1 X49.800 Y27.500 Z-1.855
G1 X49.507 Y27.207 Z-1.858
G1 X49.800 Y27.500 Z-1.862
G1 X54.000 Y27.500 Z-1.898
G1 X54.080 Y27.497 Z-1.899
G1 X54.161 Y27.487 Z-1.900
G1 X54.244 Y27.470 Z-1.901
G1 X54.327 Y27.445 Z-1.901
G1 X54.409 Y27.413 Z-1.902
G1 X54.489 Y27.372 Z-1.903
G1 X54.566 Y27.324 Z-1.904
G1 X54.639 Y27.269 Z-1.904
G1 X54.707 Y27.207 Z-1.905
G1 X54.769 Y27.139 Z-1.906
G1 X54.824 Y27.066 Z-1.907
G1 X54.872 Y26.989 Z-1.907
G1 X54.913 Y26.909 Z-1.908
G1 X54.945 Y26.827 Z-1.909
G1 X54.970 Y26.744 Z-1.910
G1 X54.987 Y26.661 Z-1.910
G1 X54.997 Y26.580 Z-1.911
G1 X55.000 Y26.500 Z-1.912
G1 X55.000 Y20.350 Z-1.965
G1 X54.997 Y20.270 Z-1.966
G1 X54.987 Y20.189 Z-1.967
G1 X54.970 Y20.106 Z-1.968
G1 X54.945 Y20.023 Z-1.968
G1 X54.913 Y19.941 Z-1.969
G1 X54.872 Y19.861 Z-1.970
G1 X54.824 Y19.784 Z-1.971
G1 X54.769 Y19.711 Z-1.971
G1 X54.707 Y19.643 Z-1.972
G1 X54.639 Y19.581 Z-1.973
G1 X54.566 Y19.526 Z-1.974
G1 X54.489 Y19.478 Z-1.974
G1 X54.409 Y19.437 Z-1.975
G1 X54.327 Y19.405 Z-1.976
G1 X54.244 Y19.380 Z-1.977
G1 X54.161 Y19.363 Z-1.977
G1 X54.080 Y19.353 Z-1.978
G1 X54.000 Y19.350 Z-1.979
G1 X49.800 Y19.350 Z-2.015
G1 X49.507 Y19.643 Z-2.019
G1 X49.800 Y19.350 Z-2.022
G1 X49.800 Y16.350 Z-2.048
G1 X49.507 Y16.057 Z-2.052
G1 X49.800 Y16.350 Z-2.056
G1 X54.000 Y16.350 Z-2.092
G1 X54.080 Y16.347 Z-2.093
G1 X54.161 Y16.337 Z-2.094
G1 X54.244 Y16.320 Z-2.094
G1 X54.327 Y16.295 Z-2.095
G1 X54.409 Y16.263 Z-2.096
G1 X54.489 Y16.222 Z-2.097
G1 X54.566 Y16.174 Z-2.097
G1 X54.639 Y16.119 Z-2.098
G1 X54.707 Y16.057 Z-2.099
G1 X54.769 Y15.989 Z-2.100
G1 X54.824 Y15.916 Z-2.100
G1 X54.872 Y15.839 Z-2.101
G1 X54.913 Y15.759 Z-2.102
G1 X54.945 Y15.677 Z-2.103
G1 X54.970 Y15.594 Z-2.103
G1 X54.987 Y15.511 Z-2.104
G1 X54.997 Y15.430 Z-2.105
G1 X55.000 Y15.350 Z-2.106
G1 X55.000 Y12.675 Z-2.129
G1 X55.000 Y6.675 Z-2.181
G1 X55.000 Y4.000 Z-2.204
G1 X54.997 Y3.919 Z-2.205
G1 X54.987 Y3.837 Z-2.206
G1 X54.970 Y3.755 Z-2.206
G1 X54.945 Y3.673 Z-2.207
G1 X54.914 Y3.593 Z-2.208
G1 X54.875 Y3.515 Z-2.208
G1 X54.829 Y3.441 Z-2.209
G1 X54.777 Y3.371 Z-2.210
G1 X54.720 Y3.306 Z-2.211
G1 X54.657 Y3.246 Z-2.211
G1 X54.591 Y3.193 Z-2.212
G1 X54.521 Y3.146 Z-2.213
G1 X54.449 Y3.106 Z-2.214
G1 X54.375 Y3.073 Z-2.214
G1 X54.303 Y3.047 Z-2.215
G1 X54.229 Y3.027 Z-2.216
G1 X54.153 Y3.012 Z-2.216
G1 X54.077 Y3.003 Z-2.217
G1 X54.000 Y3.000 Z-2.218
G1 X50.547 Y3.000 Z-2.248
G1 X48.800 Y3.000 Z-2.263
G1 X48.400 Y3.000 Z-2.266
G1 X42.650 Y3.000 Z-2.316
G1 X42.570 Y3.003 Z-2.317
G1 X42.489 Y3.013 Z-2.318
G1 X42.406 Y3.030 Z-2.318
G1 X42.323 Y3.055 Z-2.319
G1 X42.241 Y3.087 Z-2.320
G1 X42.161 Y3.128 Z-2.321
G1 X42.084 Y3.176 Z-2.321
G1 X42.011 Y3.231 Z-2.322
G1 X41.943 Y3.293 Z-2.323
G1 X41.881 Y3.361 Z-2.324
G1 X41.826 Y3.434 Z-2.324
G1 X41.778 Y3.511 Z-2.325
G1 X41.737 Y3.591 Z-2.326
G1 X41.705 Y3.673 Z-2.327
G1 X41.680 Y3.756 Z-2.327
G1 X41.663 Y3.839 Z-2.328
G1 X41.653 Y3.920 Z-2.329
G1 X41.650 Y4.000 Z-2.330
G1 X41.650 Y8.200 Z-2.366
G1 X41.943 Y8.493 Z-2.370
G1 X41.650 Y8.200 Z-2.373
G1 X38.650 Y8.200 Z-2.399
G1 X38.357 Y8.493 Z-2.403
G1 X38.650 Y8.200 Z-2.406
G1 X38.650 Y4.000 Z-2.443
G1 X38.647 Y3.920 Z-2.444
G1 X38.637 Y3.839 Z-2.444
G1 X38.620 Y3.756 Z-2.445
G1 X38.595 Y3.673 Z-2.446
G1 X38.563 Y3.591 Z-2.447
G1 X38.522 Y3.511 Z-2.447
G1 X38.474 Y3.434 Z-2.448
G1 X38.419 Y3.361 Z-2.449
G1 X38.357 Y3.293 Z-2.450
G1 X38.289 Y3.231 Z-2.450
G1 X38.216 Y3.176 Z-2.451
G1 X38.139 Y3.128 Z-2.452
G1 X38.059 Y3.087 Z-2.453
G1 X37.977 Y3.055 Z-2.453
G1 X37.894 Y3.030 Z-2.454
G1 X37.811 Y3.013 Z-2.455
G1 X37.730 Y3.003 Z-2.456
G1 X37.650 Y3.000 Z-2.456
G1 X31.500 Y3.000 Z-2.510
G1 X31.420 Y3.003 Z-2.510
G1 X31.339 Y3.013 Z-2.511
G1 X31.256 Y3.030 Z-2.512
G1 X31.173 Y3.055 Z-2.513
G1 X31.091 Y3.087 Z-2.513
G1 X31.011 Y3.128 Z-2.514
G1 X30.934 Y3.176 Z-2.515
G1 X30.861 Y3.231 Z-2.516
G1 X30.793 Y3.293 Z-2.517
G1 X30.731 Y3.361 Z-2.517
G1 X30.676 Y3.434 Z-2.518
G1 X30.628 Y3.511 Z-2.519
G1 X30.587 Y3.591 Z-2.520
G1 X30.555 Y3.673 Z-2.520
G1 X30.530 Y3.756 Z-2.521
G1 X30.513 Y3.839 Z-2.522
G1 X30.503 Y3.920 Z-2.523
G1 X30.500 Y4.000 Z-2.523
G1 X30.500 Y8.200 Z-2.560
G1 X30.793 Y8.493 Z-2.563
G1 X30.500 Y8.200 Z-2.567
G1 X27.500 Y8.200 Z-2.593
G1 X27.207 Y8.493 Z-2.596
G1 X27.494 Y8.206 Z-2.600
G1 X27.500 Y8.200 Z-2.600 F180.0
G1 X27.500 Y4.000 Z-2.600
G1 X27.497 Y3.920 Z-2.600
G1 X27.487 Y3.839 Z-2.600
G1 X27.470 Y3.756 Z-2.600
G1 X27.445 Y3.673 Z-2.600
G1 X27.413 Y3.591 Z-2.600
G1 X27.372 Y3.511 Z-2.600
G1 X27.324 Y3.434 Z-2.600
G1 X27.269 Y3.361 Z-2.600
G1 X27.207 Y3.293 Z-2.600
G1 X27.139 Y3.231 Z-2.600
G1 X27.066 Y3.176 Z-2.600
G1 X26.989 Y3.128 Z-2.600
G1 X26.909 Y3.087 Z-2.600
G1 X26.827 Y3.055 Z-2.600
G1 X26.744 Y3.030 Z-2.600
G1 X26.661 Y3.013 Z-2.600
G1 X26.580 Y3.003 Z-2.600
G1 X26.500 Y3.000 Z-2.600
G1 X20.350 Y3.000 Z-2.600
G1 X20.270 Y3.003 Z-2.600
G1 X20.189 Y3.013 Z-2.600
G1 X20.106 Y3.030 Z-2.600
G1 X20.023 Y3.055 Z-2.600
G1 X19.941 Y3.087 Z-2.600
G1 X19.861 Y3.128 Z-2.600
G1 X19.784 Y3.176 Z-2.600
G1 X19.711 Y3.231 Z-2.600
G1 X19.643 Y3.293 Z-2.600
G1 X19.581 Y3.361 Z-2.600
G1 X19.526 Y3.434 Z-2.600
G1 X19.478 Y3.511 Z-2.600
G1 X19.437 Y3.591 Z-2.600
G1 X19.405 Y3.673 Z-2.600
G1 X19.380 Y3.756 Z-2.600
G1 X19.363 Y3.839 Z-2.600
G1 X19.353 Y3.920 Z-2.600
G1 X19.350 Y4.000 Z-2.600
G1 X19.350 Y8.200 Z-2.600
G1 X19.643 Y8.493 Z-2.600
G1 X19.350 Y8.200 Z-2.600
G1 X16.350 Y8.200 Z-2.600
G1 X16.057 Y8.493 Z-2.600
G1 X16.350 Y8.200 Z-2.600
G1 X16.350 Y4.000 Z-2.600
G1 X16.347 Y3.920 Z-2.600
G1 X16.337 Y3.839 Z-2.600
G1 X16.320 Y3.756 Z-2.600
G1 X16.295 Y3.673 Z-2.600
G1 X16.263 Y3.591 Z-2.600
G1 X16.222 Y3.511 Z-2.600
G1 X16.174 Y3.434 Z-2.600
G1 X16.119 Y3.361 Z-2.600
G1 X16.057 Y3.293 Z-2.600
G1 X15.989 Y3.231 Z-2.600
G1 X15.916 Y3.176 Z-2.600
G1 X15.839 Y3.128 Z-2.600
G1 X15.759 Y3.087 Z-2.600
G1 X15.677 Y3.055 Z-2.600
G1 X15.594 Y3.030 Z-2.600
G1 X15.511 Y3.013 Z-2.600
G1 X15.430 Y3.003 Z-2.600
G1 X15.350 Y3.000 Z-2.600
G1 X12.675 Y3.000 Z-2.600
G1 X6.675 Y3.000 Z-2.600
G1 X4.000 Y3.000 Z-2.600
G1 X3.919 Y3.003 Z-2.600
G1 X3.837 Y3.013 Z-2.600
G1 X3.755 Y3.030 Z-2.600
G1 X3.673 Y3.055 Z-2.600
G1 X3.593 Y3.086 Z-2.600
G1 X3.515 Y3.125 Z-2.600
G1 X3.441 Y3.171 Z-2.600
G1 X3.371 Y3.223 Z-2.600
G1 X3.306 Y3.280 Z-2.600
G1 X3.246 Y3.343 Z-2.600
G1 X3.193 Y3.409 Z-2.600
G1 X3.146 Y3.479 Z-2.600
G1 X3.106 Y3.551 Z-2.600
G1 X3.073 Y3.625 Z-2.600
G1 X3.047 Y3.697 Z-2.600
G1 X3.027 Y3.771 Z-2.600
G1 X3.012 Y3.847 Z-2.600
G1 X3.003 Y3.923 Z-2.600
G1 X3.000 Y4.000 Z-2.600
G1 X3.000 Y9.200 Z-2.600
G1 X3.000 Y9.600 Z-2.600
G1 X3.000 Y15.350 Z-2.600
G1 X3.003 Y15.430 Z-2.600
G1 X3.013 Y15.511 Z-2.600
G1 X3.030 Y15.594 Z-2.600
G1 X3.055 Y15.677 Z-2.600
G1 X3.087 Y15.759 Z-2.600
G1 X3.128 Y15.839 Z-2.600
G1 X3.176 Y15.916 Z-2.600
G1 X3.231 Y15.989 Z-2.600
G1 X3.293 Y16.057 Z-2.600
G1 X3.361 Y16.119 Z-2.600
G1 X3.434 Y16.174 Z-2.600
G1 X3.511 Y16.222 Z-2.600
G1 X3.591 Y16.263 Z-2.600
G1 X3.673 Y16.295 Z-2.600
G1 X3.756 Y16.320 Z-2.600
G1 X3.839 Y16.337 Z-2.600
G1 X3.920 Y16.347 Z-2.600
G1 X4.000 Y16.350 Z-2.600
G1 X8.200 Y16.350 Z-2.600
G1 X8.493 Y16.057 Z-2.600
G1 X8.200 Y16.350 Z-2.600
G1 X8.200 Y19.350 Z-2.600
G1 X8.493 Y19.643 Z-2.600
G1 X8.200 Y19.350 Z-2.600
G1 X4.000 Y19.350 Z-2.600
G1 X3.920 Y19.353 Z-2.600
G1 X3.839 Y19.363 Z-2.600
G1 X3.756 Y19.380 Z-2.600
G1 X3.673 Y19.405 Z-2.600
G1 X3.591 Y19.437 Z-2.600
G1 X3.511 Y19.478 Z-2.600
G1 X3.434 Y19.526 Z-2.600
G1 X3.361 Y19.581 Z-2.600
G1 X3.293 Y19.643 Z-2.600
G1 X3.231 Y19.711 Z-2.600
G1 X3.176 Y19.784 Z-2.600
G1 X3.128 Y19.861 Z-2.600
G1 X3.087 Y19.941 Z-2.600
G1 X3.055 Y20.023 Z-2.600
G1 X3.030 Y20.106 Z-2.600
G1 X3.013 Y20.189 Z-2.600
G1 X3.003 Y20.270 Z-2.600
G1 X3.000 Y20.350 Z-2.600
G1 X3.000 Y26.500 Z-2.600
G1 X3.003 Y26.580 Z-2.600
G1 X3.013 Y26.661 Z-2.600
G1 X3.030 Y26.744 Z-2.600
G1 X3.055 Y26.827 Z-2.600
G1 X3.087 Y26.909 Z-2.600
G1 X3.128 Y26.989 Z-2.600
G1 X3.176 Y27.066 Z-2.600
G1 X3.231 Y27.139 Z-2.600
G1 X3.293 Y27.207 Z-2.600
G1 X3.361 Y27.269 Z-2.600
G1 X3.434 Y27.324 Z-2.600
G1 X3.511 Y27.372 Z-2.600
G1 X3.591 Y27.413 Z-2.600
G1 X3.673 Y27.445 Z-2.600
G1 X3.756 Y27.470 Z-2.600
G1 X3.839 Y27.487 Z-2.600
G1 X3.920 Y27.497 Z-2.600
G1 X4.000 Y27.500 Z-2.600
G1 X8.200 Y27.500 Z-2.600
G1 X8.493 Y27.207 Z-2.600
G1 X8.200 Y27.500 Z-2.600
G1 X8.200 Y30.500 Z-2.600
G1 X8.493 Y30.793 Z-2.600
G1 X8.200 Y30.500 Z-2.600
G1 X4.000 Y30.500 Z-2.600
G1 X3.920 Y30.503 Z-2.600
G1 X3.839 Y30.513 Z-2.600
G1 X3.756 Y30.530 Z-2.600
G1 X3.673 Y30.555 Z-2.600
G1 X3.591 Y30.587 Z-2.600
G1 X3.511 Y30.628 Z-2.600
G1 X3.434 Y30.676 Z-2.600
G1 X3.361 Y30.731 Z-2.600
G1 X3.293 Y30.793 Z-2.600
G1 X3.231 Y30.861 Z-2.600
G1 X3.176 Y30.934 Z-2.600
G1 X3.128 Y31.011 Z-2.600
G1 X3.087 Y31.091 Z-2.600
G1 X3.055 Y31.173 Z-2.600
G1 X3.030 Y31.256 Z-2.600
G1 X3.013 Y31.339 Z-2.600
G1 X3.003 Y31.420 Z-2.600
G1 X3.000 Y31.500 Z-2.600
G1 X3.000 Y37.650 Z-2.600
G1 X3.003 Y37.730 Z-2.600
G1 X3.013 Y37.811 Z-2.600
G1 X3.030 Y37.894 Z-2.600
G1 X3.055 Y37.977 Z-2.600
G1 X3.087 Y38.059 Z-2.600
G1 X3.128 Y38.139 Z-2.600
G1 X3.176 Y38.216 Z-2.600
G1 X3.231 Y38.289 Z-2.600
G1 X3.293 Y38.357 Z-2.600
G1 X3.361 Y38.419 Z-2.600
G1 X3.434 Y38.474 Z-2.600
G1 X3.511 Y38.522 Z-2.600
G1 X3.591 Y38.563 Z-2.600
G1 X3.673 Y38.595 Z-2.600
G1 X3.756 Y38.620 Z-2.600
G1 X3.839 Y38.637 Z-2.600
G1 X3.920 Y38.647 Z-2.600
G1 X4.000 Y38.650 Z-2.600
G1 X5.333 Y38.650 Z-2.600
G1 X8.200 Y38.650 Z-2.600
G1 X8.493 Y38.357 Z-2.600
G1 X8.200 Y38.650 Z-2.600
G1 X8.200 Y41.650 Z-2.600
G1 X8.493 Y41.943 Z-2.600
G1 X8.200 Y41.650 Z-2.600
G1 X4.000 Y41.650 Z-2.600
G1 X3.920 Y41.653 Z-2.600
G1 X3.839 Y41.663 Z-2.600
G1 X3.756 Y41.680 Z-2.600
G1 X3.673 Y41.705 Z-2.600
G1 X3.591 Y41.737 Z-2.600
G1 X3.511 Y41.778 Z-2.600
G1 X3.434 Y41.826 Z-2.600
G1 X3.361 Y41.881 Z-2.600
G1 X3.293 Y41.943 Z-2.600
G1 X3.231 Y42.011 Z-2.600
G1 X3.176 Y42.084 Z-2.600
G1 X3.128 Y42.161 Z-2.600
G1 X3.087 Y42.241 Z-2.600
G1 X3.055 Y42.323 Z-2.600
G1 X3.030 Y42.406 Z-2.600
G1 X3.013 Y42.489 Z-2.600
G1 X3.003 Y42.570 Z-2.600
G1 X3.000 Y42.650 Z-2.600
G1 X3.000 Y45.325 Z-2.600
G1 X3.000 Y51.325 Z-2.600
G1 X3.000 Y54.000 Z-2.600
G1 X3.003 Y54.081 Z-2.600
G1 X3.013 Y54.163 Z-2.600
G1 X3.030 Y54.245 Z-2.600
G1 X3.055 Y54.327 Z-2.600
G1 X3.086 Y54.407 Z-2.600
G1 X3.125 Y54.485 Z-2.600
G1 X3.171 Y54.559 Z-2.600
G1 X3.223 Y54.629 Z-2.600
G1 X3.280 Y54.694 Z-2.600
G1 X3.343 Y54.754 Z-2.600
G1 X3.409 Y54.807 Z-2.600
G1 X3.479 Y54.854 Z-2.600
G1 X3.551 Y54.894 Z-2.600
G1 X3.625 Y54.927 Z-2.600
G1 X3.697 Y54.953 Z-2.600
G1 X3.771 Y54.973 Z-2.600
G1 X3.847 Y54.988 Z-2.600
G1 X3.923 Y54.997 Z-2.600
G1 X4.000 Y55.000 Z-2.600
G1 X9.200 Y55.000 Z-2.600
G1 X9.600 Y55.000 Z-2.600
G1 X15.350 Y55.000 Z-2.600
G1 X15.430 Y54.997 Z-2.600
G1 X15.511 Y54.987 Z-2.600
G1 X15.594 Y54.970 Z-2.600
G1 X15.677 Y54.945 Z-2.600
G1 X15.759 Y54.913 Z-2.600
G1 X15.839 Y54.872 Z-2.600
G1 X15.916 Y54.824 Z-2.600
G1 X15.989 Y54.769 Z-2.600
G1 X16.057 Y54.707 Z-2.600
G1 X16.119 Y54.639 Z-2.600
G1 X16.174 Y54.566 Z-2.600
G1 X16.222 Y54.489 Z-2.600
G1 X16.263 Y54.409 Z-2.600
G1 X16.295 Y54.327 Z-2.600
G1 X16.320 Y54.244 Z-2.600
G1 X16.337 Y54.161 Z-2.600
G1 X16.347 Y54.080 Z-2.600
G1 X16.350 Y54.000 Z-2.600
G1 X16.350 Y52.471 Z-2.600
G1 X16.350 Y49.800 Z-2.600
G1 X16.057 Y49.507 Z-2.600
G1 X16.350 Y49.800 Z-2.600
G1 X19.350 Y49.800 Z-2.600
G1 X19.643 Y49.507 Z-2.600
G1 X19.350 Y49.800 Z-2.600
G1 X19.350 Y54.000 Z-2.600
G1 X19.353 Y54.080 Z-2.600
G1 X19.363 Y54.161 Z-2.600
G1 X19.380 Y54.244 Z-2.600
G1 X19.405 Y54.327 Z-2.600
G1 X19.437 Y54.409 Z-2.600
G1 X19.478 Y54.489 Z-2.600
G1 X19.526 Y54.566 Z-2.600
G1 X19.581 Y54.639 Z-2.600
G1 X19.643 Y54.707 Z-2.600
G1 X19.711 Y54.769 Z-2.600
G1 X19.784 Y54.824 Z-2.600
G1 X19.861 Y54.872 Z-2.600
G1 X19.941 Y54.913 Z-2.600
G1 X20.023 Y54.945 Z-2.600
G1 X20.106 Y54.970 Z-2.600
G1 X20.189 Y54.987 Z-2.600
G1 X20.270 Y54.997 Z-2.600
G1 X20.350 Y55.000 Z-2.600
G1 X26.500 Y55.000 Z-2.600
G1 X26.580 Y54.997 Z-2.600
G1 X26.661 Y54.987 Z-2.600
G1 X26.744 Y54.970 Z-2.600
G1 X26.827 Y54.945 Z-2.600
G1 X26.909 Y54.913 Z-2.600
G1 X26.989 Y54.872 Z-2.600
G1 X27.066 Y54.824 Z-2.600
G1 X27.139 Y54.769 Z-2.600
G1 X27.207 Y54.707 Z-2.600
G1 X27.269 Y54.639 Z-2.600
G1 X27.324 Y54.566 Z-2.600
G1 X27.372 Y54.489 Z-2.600
G1 X27.413 Y54.409 Z-2.600
G1 X27.445 Y54.327 Z-2.600
G1 X27.470 Y54.244 Z-2.600
G1 X27.487 Y54.161 Z-2.600
G1 X27.497 Y54.080 Z-2.600
G1 X27.500 Y54.000 Z-2.600
G1 X27.500 Y49.800 Z-2.600
G1 X27.207 Y49.507 Z-2.600
G1 X27.500 Y49.800 Z-2.600
G1 X30.500 Y49.800 Z-2.600
G1 X30.793 Y49.507 Z-2.600
G1 X30.500 Y49.800 Z-2.600
G1 X30.500 Y54.000 Z-2.600
G1 X30.503 Y54.080 Z-2.600
G1 X30.513 Y54.161 Z-2.600
G1 X30.530 Y54.244 Z-2.600
G1 X30.555 Y54.327 Z-2.600
G1 X30.587 Y54.409 Z-2.600
G1 X30.628 Y54.489 Z-2.600
G1 X30.676 Y54.566 Z-2.600
G1 X30.731 Y54.639 Z-2.600
G1 X30.793 Y54.707 Z-2.600
G1 X30.861 Y54.769 Z-2.600
G1 X30.934 Y54.824 Z-2.600
G1 X31.011 Y54.872 Z-2.600
G1 X31.091 Y54.913 Z-2.600
G1 X31.173 Y54.945 Z-2.600
G1 X31.256 Y54.970 Z-2.600
G1 X31.339 Y54.987 Z-2.600
G1 X31.420 Y54.997 Z-2.600
G1 X31.500 Y55.000 Z-2.600
G1 X37.650 Y55.000 Z-2.600
G1 X37.730 Y54.997 Z-2.600
G1 X37.811 Y54.987 Z-2.600
G1 X37.894 Y54.970 Z-2.600
G1 X37.977 Y54.945 Z-2.600
G1 X38.059 Y54.913 Z-2.600
G1 X38.139 Y54.872 Z-2.600
G1 X38.216 Y54.824 Z-2.600
G1 X38.289 Y54.769 Z-2.600
G1 X38.357 Y54.707 Z-2.600
G1 X38.419 Y54.639 Z-2.600
G1 X38.474 Y54.566 Z-2.600
G1 X38.522 Y54.489 Z-2.600
G1 X38.563 Y54.409 Z-2.600
G1 X38.595 Y54.327 Z-2.600
G1 X38.620 Y54.244 Z-2.600
G1 X38.637 Y54.161 Z-2.600
G1 X38.647 Y54.080 Z-2.600
G1 X38.650 Y54.000 Z-2.600
G1 X38.650 Y49.800 Z-2.600
G1 X38.357 Y49.507 Z-2.600
G1 X38.650 Y49.800 Z-2.600
G1 X41.650 Y49.800 Z-2.600
G1 X41.943 Y49.507 Z-2.600
G1 X41.650 Y49.800 Z-2.600
G1 X41.650 Y54.000 Z-2.600
G1 X41.653 Y54.080 Z-2.600
G1 X41.663 Y54.161 Z-2.600
G1 X41.680 Y54.244 Z-2.600
G1 X41.705 Y54.327 Z-2.600
G1 X41.737 Y54.409 Z-2.600
G1 X41.778 Y54.489 Z-2.600
G1 X41.826 Y54.566 Z-2.600
G1 X41.881 Y54.639 Z-2.600
G1 X41.943 Y54.707 Z-2.600
G1 X42.011 Y54.769 Z-2.600
G1 X42.084 Y54.824 Z-2.600
G1 X42.161 Y54.872 Z-2.600
G1 X42.241 Y54.913 Z-2.600
G1 X42.323 Y54.945 Z-2.600
G1 X42.406 Y54.970 Z-2.600
G1 X42.489 Y54.987 Z-2.600
G1 X42.570 Y54.997 Z-2.600
G1 X42.650 Y55.000 Z-2.600
G1 X44.189 Y55.000 Z-2.600
G1 X45.325 Y55.000 Z-2.600
G1 X51.325 Y55.000 Z-2.600
G1 X54.000 Y55.000 Z-2.600
G1 X54.081 Y54.997 Z-2.600
G1 X54.163 Y54.987 Z-2.600
G1 X54.245 Y54.970 Z-2.600
G1 X54.327 Y54.945 Z-2.600
G1 X54.407 Y54.914 Z-2.600
G1 X54.485 Y54.875 Z-2.600
G1 X54.559 Y54.829 Z-2.600
G1 X54.629 Y54.777 Z-2.600
G1 X54.694 Y54.720 Z-2.600
G1 X54.754 Y54.657 Z-2.600
G1 X54.807 Y54.591 Z-2.600
G1 X54.854 Y54.521 Z-2.600
G1 X54.894 Y54.449 Z-2.600
G1 X54.927 Y54.375 Z-2.600
G1 X54.953 Y54.303 Z-2.600
G1 X54.973 Y54.229 Z-2.600
G1 X54.988 Y54.153 Z-2.600
G1 X54.997 Y54.077 Z-2.600
G1 X55.000 Y54.000 Z-2.600
G1 X55.000 Y48.800 Z-2.600
G1 X55.000 Y48.400 Z-2.600
G1 X55.000 Y42.650 Z-2.600
G1 X54.997 Y42.570 Z-2.600
G1 X54.987 Y42.489 Z-2.600
G1 X54.970 Y42.406 Z-2.600
G1 X54.945 Y42.323 Z-2.600
G1 X54.913 Y42.241 Z-2.600
G1 X54.872 Y42.161 Z-2.600
G1 X54.824 Y42.084 Z-2.600
G1 X54.769 Y42.011 Z-2.600
G1 X54.707 Y41.943 Z-2.600
G1 X54.639 Y41.881 Z-2.600
G1 X54.566 Y41.826 Z-2.600
G1 X54.489 Y41.778 Z-2.600
G1 X54.409 Y41.737 Z-2.600
G1 X54.327 Y41.705 Z-2.600
G1 X54.244 Y41.680 Z-2.600
G1 X54.161 Y41.663 Z-2.600
G1 X54.080 Y41.653 Z-2.600
G1 X54.000 Y41.650 Z-2.600
G1 X49.800 Y41.650 Z-2.600
G1 X49.507 Y41.943 Z-2.600
G1 X49.800 Y41.650 Z-2.600
G1 X49.800 Y38.650 Z-2.600
G1 X49.507 Y38.357 Z-2.600
G1 X49.800 Y38.650 Z-2.600
G1 X54.000 Y38.650 Z-2.600
G1 X54.080 Y38.647 Z-2.600
G1 X54.161 Y38.637 Z-2.600
G1 X54.244 Y38.620 Z-2.600
G1 X54.327 Y38.595 Z-2.600
G1 X54.409 Y38.563 Z-2.600
G1 X54.489 Y38.522 Z-2.600
G1 X54.566 Y38.474 Z-2.600
G1 X54.639 Y38.419 Z-2.600
G1 X54.707 Y38.357 Z-2.600
G1 X54.769 Y38.289 Z-2.600
G1 X54.824 Y38.216 Z-2.600
G1 X54.872 Y38.139 Z-2.600
G1 X54.913 Y38.059 Z-2.600
G1 X54.945 Y37.977 Z-2.600
G1 X54.970 Y37.894 Z-2.600
G1 X54.987 Y37.811 Z-2.600
G1 X54.997 Y37.730 Z-2.600
G1 X55.000 Y37.650 Z-2.600
G1 X55.000 Y35.915 Z-2.600
G1 X55.000 Y31.500 Z-2.600
G1 X54.997 Y31.420 Z-2.600
G1 X54.987 Y31.339 Z-2.600
G1 X54.970 Y31.256 Z-2.600
G1 X54.945 Y31.173 Z-2.600
G1 X54.913 Y31.091 Z-2.600
G1 X54.872 Y31.011 Z-2.600
G1 X54.824 Y30.934 Z-2.600
G1 X54.769 Y30.861 Z-2.600
G1 X54.707 Y30.793 Z-2.600
G1 X54.639 Y30.731 Z-2.600
G1 X54.566 Y30.676 Z-2.600
G1 X54.489 Y30.628 Z-2.600
G1 X54.409 Y30.587 Z-2.600
G1 X54.327 Y30.555 Z-2.600
G1 X54.244 Y30.530 Z-2.600
G1 X54.161 Y30.513 Z-2.600
G1 X54.080 Y30.503 Z-2.600
G1 X54.000 Y30.500 Z-2.600
G1 X49.800 Y30.500 Z-2.600
G1 X49.507 Y30.793 Z-2.600
G1 X49.800 Y30.500 Z-2.600
G1 X49.800 Y27.500 Z-2.600
G1 X49.507 Y27.207 Z-2.600
G1 X49.800 Y27.500 Z-2.600
G1 X54.000 Y27.500 Z-2.600
G1 X54.080 Y27.497 Z-2.600
G1 X54.161 Y27.487 Z-2.600
G1 X54.244 Y27.470 Z-2.600
G1 X54.327 Y27.445 Z-2.600
G1 X54.409 Y27.413 Z-2.600
G1 X54.489 Y27.372 Z-2.600
G1 X54.566 Y27.324 Z-2.600
G1 X54.639 Y27.269 Z-2.600
G1 X54.707 Y27.207 Z-2.600
G1 X54.769 Y27.139 Z-2.600
G1 X54.824 Y27.066 Z-2.600
G1 X54.872 Y26.989 Z-2.600
G1 X54.913 Y26.909 Z-2.600
G1 X54.945 Y26.827 Z-2.600
G1 X54.970 Y26.744 Z-2.600
G1 X54.987 Y26.661 Z-2.600
G1 X54.997 Y26.580 Z-2.600
G1 X55.000 Y26.500 Z-2.600
G1 X55.000 Y20.350 Z-2.600
G1 X54.997 Y20.270 Z-2.600
G1 X54.987 Y20.189 Z-2.600
G1 X54.970 Y20.106 Z-2.600
G1 X54.945 Y20.023 Z-2.600
G1 X54.913 Y19.941 Z-2.600
G1 X54.872 Y19.861 Z-2.600
G1 X54.824 Y19.784 Z-2.600
G1 X54.769 Y19.711 Z-2.600
G1 X54.707 Y19.643 Z-2.600
G1 X54.639 Y19.581 Z-2.600
G1 X54.566 Y19.526 Z-2.600
G1 X54.489 Y19.478 Z-2.600
G1 X54.409 Y19.437 Z-2.600
G1 X54.327 Y19.405 Z-2.600
G1 X54.244 Y19.380 Z-2.600
G1 X54.161 Y19.363 Z-2.600
G1 X54.080 Y19.353 Z-2.600
G1 X54.000 Y19.350 Z-2.600
G1 X49.800 Y19.350 Z-2.600
G1 X49.507 Y19.643 Z-2.600
G1 X49.800 Y19.350 Z-2.600
G1 X49.800 Y16.350 Z-2.600
G1 X49.507 Y16.057 Z-2.600
G1 X49.800 Y16.350 Z-2.600
G1 X54.000 Y16.350 Z-2.600
G1 X54.080 Y16.347 Z-2.600
G1 X54.161 Y16.337 Z-2.600
G1 X54.244 Y16.320 Z-2.600
G1 X54.327 Y16.295 Z-2.600
G1 X54.409 Y16.263 Z-2.600
G1 X54.489 Y16.222 Z-2.600
G1 X54.566 Y16.174 Z-2.600
G1 X54.639 Y16.119 Z-2.600
G1 X54.707 Y16.057 Z-2.600
G1 X54.769 Y15.989 Z-2.600
G1 X54.824 Y15.916 Z-2.600
G1 X54.872 Y15.839 Z-2.600
G1 X54.913 Y15.759 Z-2.600
G1 X54.945 Y15.677 Z-2.600
G1 X54.970 Y15.594 Z-2.600
G1 X54.987 Y15.511 Z-2.600
G1 X54.997 Y15.430 Z-2.600
G1 X55.000 Y15.350 Z-2.600
G1 X55.000 Y12.675 Z-2.600
G1 X55.000 Y6.675 Z-2.600
G1 X55.000 Y4.000 Z-2.600
G1 X54.997 Y3.919 Z-2.600
G1 X54.987 Y3.837 Z-2.600
G1 X54.970 Y3.755 Z-2.600
G1 X54.945 Y3.673 Z-2.600
G1 X54.914 Y3.593 Z-2.600
G1 X54.875 Y3.515 Z-2.600
G1 X54.829 Y3.441 Z-2.600
G1 X54.777 Y3.371 Z-2.600
G1 X54.720 Y3.306 Z-2.600
G1 X54.657 Y3.246 Z-2.600
G1 X54.591 Y3.193 Z-2.600
G1 X54.521 Y3.146 Z-2.600
G1 X54.449 Y3.106 Z-2.600
G1 X54.375 Y3.073 Z-2.600
G1 X54.303 Y3.047 Z-2.600
G1 X54.229 Y3.027 Z-2.600
G1 X54.153 Y3.012 Z-2.600
G1 X54.077 Y3.003 Z-2.600
G1 X54.000 Y3.000 Z-2.600
G1 X50.547 Y3.000 Z-2.600
G1 X48.800 Y3.000 Z-2.600
G1 X48.400 Y3.000 Z-2.600
G1 X42.650 Y3.000 Z-2.600
G1 X42.570 Y3.003 Z-2.600
G1 X42.489 Y3.013 Z-2.600
G1 X42.406 Y3.030 Z-2.600
G1 X42.323 Y3.055 Z-2.600
G1 X42.241 Y3.087 Z-2.600
G1 X42.161 Y3.128 Z-2.600
G1 X42.084 Y3.176 Z-2.600
G1 X42.011 Y3.231 Z-2.600
G1 X41.943 Y3.293 Z-2.600
G1 X41.881 Y3.361 Z-2.600
G1 X41.826 Y3.434 Z-2.600
G1 X41.778 Y3.511 Z-2.600
G1 X41.737 Y3.591 Z-2.600
G1 X41.705 Y3.673 Z-2.600
G1 X41.680 Y3.756 Z-2.600
G1 X41.663 Y3.839 Z-2.600
G1 X41.653 Y3.920 Z-2.600
G1 X41.650 Y4.000 Z-2.600
G1 X41.650 Y8.200 Z-2.600
G1 X41.943 Y8.493 Z-2.600
G1 X41.650 Y8.200 Z-2.600
G1 X38.650 Y8.200 Z-2.600
G1 X38.357 Y8.493 Z-2.600
G1 X38.650 Y8.200 Z-2.600
G1 X38.650 Y4.000 Z-2.600
G1 X38.647 Y3.920 Z-2.600
G1 X38.637 Y3.839 Z-2.600
G1 X38.620 Y3.756 Z-2.600
G1 X38.595 Y3.673 Z-2.600
G1 X38.563 Y3.591 Z-2.600
G1 X38.522 Y3.511 Z-2.600
G1 X38.474 Y3.434 Z-2.600
G1 X38.419 Y3.361 Z-2.600
G1 X38.357 Y3.293 Z-2.600
G1 X38.289 Y3.231 Z-2.600
G1 X38.216 Y3.176 Z-2.600
G1 X38.139 Y3.128 Z-2.600
G1 X38.059 Y3.087 Z-2.600
G1 X37.977 Y3.055 Z-2.600
G1 X37.894 Y3.030 Z-2.600
G1 X37.811 Y3.013 Z-2.600
G1 X37.730 Y3.003 Z-2.600
G1 X37.650 Y3.000 Z-2.600
G1 X31.500 Y3.000 Z-2.600
G1 X31.420 Y3.003 Z-2.600
G1 X31.339 Y3.013 Z-2.600
G1 X31.256 Y3.030 Z-2.600
G1 X31.173 Y3.055 Z-2.600
G1 X31.091 Y3.087 Z-2.600
G1 X31.011 Y3.128 Z-2.600
G1 X30.934 Y3.176 Z-2.600
G1 X30.861 Y3.231 Z-2.600
G1 X30.793 Y3.293 Z-2.600
G1 X30.731 Y3.361 Z-2.600
G1 X30.676 Y3.434 Z-2.600
G1 X30.628 Y3.511 Z-2.600
G1 X30.587 Y3.591 Z-2.600
G1 X30.555 Y3.673 Z-2.600
G1 X30.530 Y3.756 Z-2.600
G1 X30.513 Y3.839 Z-2.600
G1 X30.503 Y3.920 Z-2.600
G1 X30.500 Y4.000 Z-2.600
G1 X30.500 Y8.200 Z-2.600
G1 X30.793 Y8.493 Z-2.600
G1 X30.500 Y8.200 Z-2.600
G1 X27.500 Y8.200 Z-2.600
G1 X27.207 Y8.493 Z-2.600
G1 X27.494 Y8.206 Z-2.600
G1 X27.500 Y8.200 Z-2.600 F250.0
G1 X27.500 Y4.000 Z-2.636
G1 X27.497 Y3.920 Z-2.637
G1 X27.487 Y3.839 Z-2.638
G1 X27.470 Y3.756 Z-2.639
G1 X27.445 Y3.673 Z-2.640
G1 X27.413 Y3.591 Z-2.640
G1 X27.372 Y3.511 Z-2.641
G1 X27.324 Y3.434 Z-2.642
G1 X27.269 Y3.361 Z-2.643
G1 X27.207 Y3.293 Z-2.643
G1 X27.139 Y3.231 Z-2.644
G1 X27.066 Y3.176 Z-2.645
G1 X26.989 Y3.128 Z-2.646
G1 X26.909 Y3.087 Z-2.646
G1 X26.827 Y3.055 Z-2.647
G1 X26.744 Y3.030 Z-2.648
G1 X26.661 Y3.013 Z-2.649
G1 X26.580 Y3.003 Z-2.649
G1 X26.500 Y3.000 Z-2.650
G1 X20.350 Y3.000 Z-2.703
G1 X20.270 Y3.003 Z-2.704
G1 X20.189 Y3.013 Z-2.705
G1 X20.106 Y3.030 Z-2.706
G1 X20.023 Y3.055 Z-2.706
G1 X19.941 Y3.087 Z-2.707
G1 X19.861 Y3.128 Z-2.708
G1 X19.784 Y3.176 Z-2.709
G1 X19.711 Y3.231 Z-2.709
G1 X19.643 Y3.293 Z-2.710
G1 X19.581 Y3.361 Z-2.711
G1 X19.526 Y3.434 Z-2.712
G1 X19.478 Y3.511 Z-2.712
G1 X19.437 Y3.591 Z-2.713
G1 X19.405 Y3.673 Z-2.714
G1 X19.380 Y3.756 Z-2.715
G1 X19.363 Y3.839 Z-2.715
G1 X19.353 Y3.920 Z-2.716
G1 X19.350 Y4.000 Z-2.717
G1 X19.350 Y8.200 Z-2.753
G1 X19.643 Y8.493 Z-2.757
G1 X19.350 Y8.200 Z-2.761
G1 X16.350 Y8.200 Z-2.787
G1 X16.057 Y8.493 Z-2.790
G1 X16.350 Y8.200 Z-2.794
G1 X16.350 Y4.000 Z-2.830
G1 X16.347 Y3.920 Z-2.831
G1 X16.337 Y3.839 Z-2.832
G1 X16.320 Y3.756 Z-2.832
G1 X16.295 Y3.673 Z-2.833
G1 X16.263 Y3.591 Z-2.834
G1 X16.222 Y3.511 Z-2.835
G1 X16.174 Y3.434 Z-2.835
G1 X16.119 Y3.361 Z-2.836
G1 X16.057 Y3.293 Z-2.837
G1 X15.989 Y3.231 Z-2.838
G1 X15.916 Y3.176 Z-2.838
G1 X15.839 Y3.128 Z-2.839
G1 X15.759 Y3.087 Z-2.840
G1 X15.677 Y3.055 Z-2.841
G1 X15.594 Y3.030 Z-2.842
G1 X15.511 Y3.013 Z-2.842
G1 X15.430 Y3.003 Z-2.843
G1 X15.350 Y3.000 Z-2.844
G1 X12.675 Y3.000 Z-2.867
G1 X6.675 Y3.000 Z-2.919
G1 X4.000 Y3.000 Z-2.942
G1 X3.919 Y3.003 Z-2.943
G1 X3.837 Y3.013 Z-2.944
G1 X3.755 Y3.030 Z-2.944
G1 X3.673 Y3.055 Z-2.945
G1 X3.593 Y3.086 Z-2.946
G1 X3.515 Y3.125 Z-2.947
G1 X3.441 Y3.171 Z-2.947
G1 X3.371 Y3.223 Z-2.948
G1 X3.306 Y3.280 Z-2.949
G1 X3.246 Y3.343 Z-2.949
G1 X3.193 Y3.409 Z-2.950
G1 X3.146 Y3.479 Z-2.951
G1 X3.106 Y3.551 Z-2.952
G1 X3.073 Y3.625 Z-2.952
G1 X3.047 Y3.697 Z-2.953
G1 X3.027 Y3.771 Z-2.954
G1 X3.012 Y3.847 Z-2.954
G1 X3.003 Y3.923 Z-2.955
G1 X3.000 Y4.000 Z-2.956
G1 X3.000 Y9.200 Z-3.001
G1 X3.000 Y9.600 Z-3.004
G1 X3.000 Y15.350 Z-3.054
G1 X3.003 Y15.430 Z-3.055
G1 X3.013 Y15.511 Z-3.056
G1 X3.030 Y15.594 Z-3.056
G1 X3.055 Y15.677 Z-3.057
G1 X3.087 Y15.759 Z-3.058
G1 X3.128 Y15.839 Z-3.059
G1 X3.176 Y15.916 Z-3.059
G1 X3.231 Y15.989 Z-3.060
G1 X3.293 Y16.057 Z-3.061
G1 X3.361 Y16.119 Z-3.062
G1 X3.434 Y16.174 Z-3.062
G1 X3.511 Y16.222 Z-3.063
G1 X3.591 Y16.263 Z-3.064
G1 X3.673 Y16.295 Z-3.065
G1 X3.756 Y16.320 Z-3.065
G1 X3.839 Y16.337 Z-3.066
G1 X3.920 Y16.347 Z-3.067
G1 X4.000 Y16.350 Z-3.068
G1 X8.200 Y16.350 Z-3.104
G1 X8.493 Y16.057 Z-3.108
G1 X8.200 Y16.350 Z-3.111
G1 X8.200 Y19.350 Z-3.137
G1 X8.493 Y19.643 Z-3.141
G1 X8.200 Y19.350 Z-3.144
G1 X4.000 Y19.350 Z-3.181
G1 X3.920 Y19.353 Z-3.182
G1 X3.839 Y19.363 Z-3.182
G1 X3.756 Y19.380 Z-3.183
G1 X3.673 Y19.405 Z-3.184
G1 X3.591 Y19.437 Z-3.185
G1 X3.511 Y19.478 Z-3.185
G1 X3.434 Y19.526 Z-3.186
G1 X3.361 Y19.581 Z-3.187
G1 X3.293 Y19.643 Z-3.188
G1 X3.231 Y19.711 Z-3.188
G1 X3.176 Y19.784 Z-3.189
G1 X3.128 Y19.861 Z-3.190
G1 X3.087 Y19.941 Z-3.191
G1 X3.055 Y20.023 Z-3.191
G1 X3.030 Y20.106 Z-3.192
G1 X3.013 Y20.189 Z-3.193
G1 X3.003 Y20.270 Z-3.194
G1 X3.000 Y20.350 Z-3.195
G1 X3.000 Y26.500 Z-3.248
G1 X3.003 Y26.580 Z-3.249
G1 X3.013 Y26.661 Z-3.249
G1 X3.030 Y26.744 Z-3.250
G1 X3.055 Y26.827 Z-3.251
G1 X3.087 Y26.909 Z-3.252
G1 X3.128 Y26.989 Z-3.252
G1 X3.176 Y27.066 Z-3.253
G1 X3.231 Y27.139 Z-3.254
G1 X3.293 Y27.207 Z-3.255
G1 X3.361 Y27.269 Z-3.255
G1 X3.434 Y27.324 Z-3.256
G1 X3.511 Y27.372 Z-3.257
G1 X3.591 Y27.413 Z-3.258
G1 X3.673 Y27.445 Z-3.258
G1 X3.756 Y27.470 Z-3.259
G1 X3.839 Y27.487 Z-3.260
G1 X3.920 Y27.497 Z-3.261
G1 X4.000 Y27.500 Z-3.261
G1 X8.200 Y27.500 Z-3.298
G1 X8.493 Y27.207 Z-3.301
G1 X8.200 Y27.500 Z-3.305
G1 X8.200 Y30.500 Z-3.331
G1 X8.493 Y30.793 Z-3.335
G1 X8.200 Y30.500 Z-3.338
G1 X4.000 Y30.500 Z-3.375
G1 X3.920 Y30.503 Z-3.375
G1 X3.839 Y30.513 Z-3.376
G1 X3.756 Y30.530 Z-3.377
G1 X3.673 Y30.555 Z-3.378
G1 X3.591 Y30.587 Z-3.378
G1 X3.511 Y30.628 Z-3.379
G1 X3.434 Y30.676 Z-3.380
G1 X3.361 Y30.731 Z-3.381
G1 X3.293 Y30.793 Z-3.381
G1 X3.231 Y30.861 Z-3.382
G1 X3.176 Y30.934 Z-3.383
G1 X3.128 Y31.011 Z-3.384
G1 X3.087 Y31.091 Z-3.384
G1 X3.055 Y31.173 Z-3.385
G1 X3.030 Y31.256 Z-3.386
G1 X3.013 Y31.339 Z-3.387
G1 X3.003 Y31.420 Z-3.387
G1 X3.000 Y31.500 Z-3.388
G1 X3.000 Y37.650 Z-3.441
G1 X3.003 Y37.730 Z-3.442
G1 X3.013 Y37.811 Z-3.443
G1 X3.030 Y37.894 Z-3.444
G1 X3.055 Y37.977 Z-3.445
G1 X3.087 Y38.059 Z-3.445
G1 X3.128 Y38.139 Z-3.446
G1 X3.176 Y38.216 Z-3.447
G1 X3.231 Y38.289 Z-3.448
G1 X3.293 Y38.357 Z-3.448
G1 X3.361 Y38.419 Z-3.449
G1 X3.434 Y38.474 Z-3.450
G1 X3.511 Y38.522 Z-3.451
G1 X3.591 Y38.563 Z-3.451
G1 X3.673 Y38.595 Z-3.452
G1 X3.756 Y38.620 Z-3.453
G1 X3.839 Y38.637 Z-3.454
G1 X3.920 Y38.647 Z-3.454
G1 X4.000 Y38.650 Z-3.455
G1 X5.333 Y38.650 Z-3.467
G1 X8.200 Y38.650 Z-3.467 F180.0
G1 X8.493 Y38.357 Z-3.467
G1 X8.200 Y38.650 Z-3.467
G1 X8.200 Y41.650 Z-3.467
G1 X8.493 Y41.943 Z-3.467
G1 X8.200 Y41.650 Z-3.467
G1 X4.000 Y41.650 Z-3.467
G1 X3.920 Y41.653 Z-3.467
G1 X3.839 Y41.663 Z-3.467
G1 X3.756 Y41.680 Z-3.467
G1 X3.673 Y41.705 Z-3.467
G1 X3.591 Y41.737 Z-3.467
G1 X3.511 Y41.778 Z-3.467
G1 X3.434 Y41.826 Z-3.467
G1 X3.361 Y41.881 Z-3.467
G1 X3.293 Y41.943 Z-3.467
G1 X3.231 Y42.011 Z-3.467
G1 X3.176 Y42.084 Z-3.467
G1 X3.128 Y42.161 Z-3.467
G1 X3.087 Y42.241 Z-3.467
G1 X3.055 Y42.323 Z-3.467
G1 X3.030 Y42.406 Z-3.467
G1 X3.013 Y42.489 Z-3.467
G1 X3.003 Y42.570 Z-3.467
G1 X3.000 Y42.650 Z-3.467
G1 X3.000 Y45.325 Z-3.467
G1 X3.000 Y51.325 Z-3.467
G1 X3.000 Y54.000 Z-3.467
G1 X3.003 Y54.081 Z-3.467
G1 X3.013 Y54.163 Z-3.467
G1 X3.030 Y54.245 Z-3.467
G1 X3.055 Y54.327 Z-3.467
G1 X3.086 Y54.407 Z-3.467
G1 X3.125 Y54.485 Z-3.467
G1 X3.171 Y54.559 Z-3.467
G1 X3.223 Y54.629 Z-3.467
G1 X3.280 Y54.694 Z-3.467
G1 X3.343 Y54.754 Z-3.467
G1 X3.409 Y54.807 Z-3.467
G1 X3.479 Y54.854 Z-3.467
G1 X3.551 Y54.894 Z-3.467
G1 X3.625 Y54.927 Z-3.467
G1 X3.697 Y54.953 Z-3.467
G1 X3.771 Y54.973 Z-3.467
G1 X3.847 Y54.988 Z-3.467
G1 X3.923 Y54.997 Z-3.467
G1 X4.000 Y55.000 Z-3.467
G1 X9.200 Y55.000 Z-3.467
G1 X9.600 Y55.000 Z-3.467
G1 X15.350 Y55.000 Z-3.467
G1 X15.430 Y54.997 Z-3.467
G1 X15.511 Y54.987 Z-3.467
G1 X15.594 Y54.970 Z-3.467
G1 X15.677 Y54.945 Z-3.467
G1 X15.759 Y54.913 Z-3.467
G1 X15.839 Y54.872 Z-3.467
G1 X15.916 Y54.824 Z-3.467
G1 X15.989 Y54.769 Z-3.467
G1 X16.057 Y54.707 Z-3.467
G1 X16.119 Y54.639 Z-3.467
G1 X16.174 Y54.566 Z-3.467
G1 X16.222 Y54.489 Z-3.467
G1 X16.263 Y54.409 Z-3.467
G1 X16.295 Y54.327 Z-3.467
G1 X16.320 Y54.244 Z-3.467
G1 X16.337 Y54.161 Z-3.467
G1 X16.347 Y54.080 Z-3.467
G1 X16.350 Y54.000 Z-3.467
G1 X16.350 Y52.471 Z-3.467
G1 X16.350 Y49.800 Z-3.467
G1 X16.057 Y49.507 Z-3.467
G1 X16.350 Y49.800 Z-3.467
G1 X19.350 Y49.800 Z-3.467
G1 X19.643 Y49.507 Z-3.467
G1 X19.350 Y49.800 Z-3.467
G1 X19.350 Y54.000 Z-3.467
G1 X19.353 Y54.080 Z-3.467
G1 X19.363 Y54.161 Z-3.467
G1 X19.380 Y54.244 Z-3.467
G1 X19.405 Y54.327 Z-3.467
G1 X19.437 Y54.409 Z-3.467
G1 X19.478 Y54.489 Z-3.467
G1 X19.526 Y54.566 Z-3.467
G1 X19.581 Y54.639 Z-3.467
G1 X19.643 Y54.707 Z-3.467
G1 X19.711 Y54.769 Z-3.467
G1 X19.784 Y54.824 Z-3.467
G1 X19.861 Y54.872 Z-3.467
G1 X19.941 Y54.913 Z-3.467
G1 X20.023 Y54.945 Z-3.467
G1 X20.106 Y54.970 Z-3.467
G1 X20.189 Y54.987 Z-3.467
G1 X20.270 Y54.997 Z-3.467
G1 X20.350 Y55.000 Z-3.467
G1 X26.500 Y55.000 Z-3.467
G1 X26.580 Y54.997 Z-3.467
G1 X26.661 Y54.987 Z-3.467
G1 X26.744 Y54.970 Z-3.467
G1 X26.827 Y54.945 Z-3.467
G1 X26.909 Y54.913 Z-3.467
G1 X26.989 Y54.872 Z-3.467
G1 X27.066 Y54.824 Z-3.467
G1 X27.139 Y54.769 Z-3.467
G1 X27.207 Y54.707 Z-3.467
G1 X27.269 Y54.639 Z-3.467
G1 X27.324 Y54.566 Z-3.467
G1 X27.372 Y54.489 Z-3.467
G1 X27.413 Y54.409 Z-3.467
G1 X27.445 Y54.327 Z-3.467
G1 X27.470 Y54.244 Z-3.467
G1 X27.487 Y54.161 Z-3.467
G1 X27.497 Y54.080 Z-3.467
G1 X27.500 Y54.000 Z-3.467
G1 X27.500 Y49.800 Z-3.467
G1 X27.207 Y49.507 Z-3.467
G1 X27.500 Y49.800 Z-3.467
G1 X30.500 Y49.800 Z-3.467
G1 X30.793 Y49.507 Z-3.467
G1 X30.500 Y49.800 Z-3.467
G1 X30.500 Y54.000 Z-3.467
G1 X30.503 Y54.080 Z-3.467
G1 X30.513 Y54.161 Z-3.467
G1 X30.530 Y54.244 Z-3.467
G1 X30.555 Y54.327 Z-3.467
G1 X30.587 Y54.409 Z-3.467
G1 X30.628 Y54.489 Z-3.467
G1 X30.676 Y54.566 Z-3.467
G1 X30.731 Y54.639 Z-3.467
G1 X30.793 Y54.707 Z-3.467
G1 X30.861 Y54.769 Z-3.467
G1 X30.934 Y54.824 Z-3.467
G1 X31.011 Y54.872 Z-3.467
G1 X31.091 Y54.913 Z-3.467
G1 X31.173 Y54.945 Z-3.467
G1 X31.256 Y54.970 Z-3.467
G1 X31.339 Y54.987 Z-3.467
G1 X31.420 Y54.997 Z-3.467
G1 X31.500 Y55.000 Z-3.467
G1 X37.650 Y55.000 Z-3.467
G1 X37.730 Y54.997 Z-3.467
G1 X37.811 Y54.987 Z-3.467
G1 X37.894 Y54.970 Z-3.467
G1 X37.977 Y54.945 Z-3.467
G1 X38.059 Y54.913 Z-3.467
G1 X38.139 Y54.872 Z-3.467
G1 X38.216 Y54.824 Z-3.467
G1 X38.289 Y54.769 Z-3.467
G1 X38.357 Y54.707 Z-3.467
G1 X38.419 Y54.639 Z-3.467
G1 X38.474 Y54.566 Z-3.467
G1 X38.522 Y54.489 Z-3.467
G1 X38.563 Y54.409 Z-3.467
G1 X38.595 Y54.327 Z-3.467
G1 X38.620 Y54.244 Z-3.467
G1 X38.637 Y54.161 Z-3.467
G1 X38.647 Y54.080 Z-3.467
G1 X38.650 Y54.000 Z-3.467
G1 X38.650 Y49.800 Z-3.467
G1 X38.357 Y49.507 Z-3.467
G1 X38.650 Y49.800 Z-3.467
G1 X41.650 Y49.800 Z-3.467
G1 X41.943 Y49.507 Z-3.467
G1 X41.650 Y49.800 Z-3.467
G1 X41.650 Y54.000 Z-3.467
G1 X41.653 Y54.080 Z-3.467
G1 X41.663 Y54.161 Z-3.467
G1 X41.680 Y54.244 Z-3.467
G1 X41.705 Y54.327 Z-3.467
G1 X41.737 Y54.409 Z-3.467
G1 X41.778 Y54.489 Z-3.467
G1 X41.826 Y54.566 Z-3.467
G1 X41.881 Y54.639 Z-3.467
G1 X41.943 Y54.707 Z-3.467
G1 X42.011 Y54.769 Z-3.467
G1 X42.084 Y54.824 Z-3.467
G1 X42.161 Y54.872 Z-3.467
G1 X42.241 Y54.913 Z-3.467
G1 X42.323 Y54.945 Z-3.467
G1 X42.406 Y54.970 Z-3.467
G1 X42.489 Y54.987 Z-3.467
G1 X42.570 Y54.997 Z-3.467
G1 X42.650 Y55.000 Z-3.467
G1 X44.189 Y55.000 Z-3.467
G1 X45.325 Y55.000 Z-3.467
G1 X51.325 Y55.000 Z-3.467
G1 X54.000 Y55.000 Z-3.467
G1 X54.081 Y54.997 Z-3.467
G1 X54.163 Y54.987 Z-3.467
G1 X54.245 Y54.970 Z-3.467
G1 X54.327 Y54.945 Z-3.467
G1 X54.407 Y54.914 Z-3.467
G1 X54.485 Y54.875 Z-3.467
G1 X54.559 Y54.829 Z-3.467
G1 X54.629 Y54.777 Z-3.467
G1 X54.694 Y54.720 Z-3.467
G1 X54.754 Y54.657 Z-3.467
G1 X54.807 Y54.591 Z-3.467
G1 X54.854 Y54.521 Z-3.467
G1 X54.894 Y54.449 Z-3.467
G1 X54.927 Y54.375 Z-3.467
G1 X54.953 Y54.303 Z-3.467
G1 X54.973 Y54.229 Z-3.467
G1 X54.988 Y54.153 Z-3.467
G1 X54.997 Y54.077 Z-3.467
G1 X55.000 Y54.000 Z-3.467
G1 X55.000 Y48.800 Z-3.467
G1 X55.000 Y48.400 Z-3.467
G1 X55.000 Y42.650 Z-3.467
G1 X54.997 Y42.570 Z-3.467
G1 X54.987 Y42.489 Z-3.467
G1 X54.970 Y42.406 Z-3.467
G1 X54.945 Y42.323 Z-3.467
G1 X54.913 Y42.241 Z-3.467
G1 X54.872 Y42.161 Z-3.467
G1 X54.824 Y42.084 Z-3.467
G1 X54.769 Y42.011 Z-3.467
G1 X54.707 Y41.943 Z-3.467
G1 X54.639 Y41.881 Z-3.467
G1 X54.566 Y41.826 Z-3.467
G1 X54.489 Y41.778 Z-3.467
G1 X54.409 Y41.737 Z-3.467
G1 X54.327 Y41.705 Z-3.467
G1 X54.244 Y41.680 Z-3.467
G1 X54.161 Y41.663 Z-3.467
G1 X54.080 Y41.653 Z-3.467
G1 X54.000 Y41.650 Z-3.467
G1 X49.800 Y41.650 Z-3.467
G1 X49.507 Y41.943 Z-3.467
G1 X49.800 Y41.650 Z-3.467
G1 X49.800 Y38.650 Z-3.467
G1 X49.507 Y38.357 Z-3.467
G1 X49.800 Y38.650 Z-3.467
G1 X54.000 Y38.650 Z-3.467
G1 X54.080 Y38.647 Z-3.467
G1 X54.161 Y38.637 Z-3.467
G1 X54.244 Y38.620 Z-3.467
G1 X54.327 Y38.595 Z-3.467
G1 X54.409 Y38.563 Z-3.467
G1 X54.489 Y38.522 Z-3.467
G1 X54.566 Y38.474 Z-3.467
G1 X54.639 Y38.419 Z-3.467
G1 X54.707 Y38.357 Z-3.467
G1 X54.769 Y38.289 Z-3.467
G1 X54.824 Y38.216 Z-3.467
G1 X54.872 Y38.139 Z-3.467
G1 X54.913 Y38.059 Z-3.467
G1 X54.945 Y37.977 Z-3.467
G1 X54.970 Y37.894 Z-3.467
G1 X54.987 Y37.811 Z-3.467
G1 X54.997 Y37.730 Z-3.467
G1 X55.000 Y37.650 Z-3.467
G1 X55.000 Y35.915 Z-3.467
G1 X55.000 Y31.500 Z-3.467
G1 X54.997 Y31.420 Z-3.467
G1 X54.987 Y31.339 Z-3.467
G1 X54.970 Y31.256 Z-3.467
G1 X54.945 Y31.173 Z-3.467
G1 X54.913 Y31.091 Z-3.467
G1 X54.872 Y31.011 Z-3.467
G1 X54.824 Y30.934 Z-3.467
G1 X54.769 Y30.861 Z-3.467
G1 X54.707 Y30.793 Z-3.467
G1 X54.639 Y30.731 Z-3.467
G1 X54.566 Y30.676 Z-3.467
G1 X54.489 Y30.628 Z-3.467
G1 X54.409 Y30.587 Z-3.467
G1 X54.327 Y30.555 Z-3.467
G1 X54.244 Y30.530 Z-3.467
G1 X54.161 Y30.513 Z-3.467
G1 X54.080 Y30.503 Z-3.467
G1 X54.000 Y30.500 Z-3.467
G1 X49.800 Y30.500 Z-3.467
G1 X49.507 Y30.793 Z-3.467
G1 X49.800 Y30.500 Z-3.467
G1 X49.800 Y27.500 Z-3.467
G1 X49.507 Y27.207 Z-3.467
G1 X49.800 Y27.500 Z-3.467
G1 X54.000 Y27.500 Z-3.467
G1 X54.080 Y27.497 Z-3.467
G1 X54.161 Y27.487 Z-3.467
G1 X54.244 Y27.470 Z-3.467
G1 X54.327 Y27.445 Z-3.467
G1 X54.409 Y27.413 Z-3.467
G1 X54.489 Y27.372 Z-3.467
G1 X54.566 Y27.324 Z-3.467
G1 X54.639 Y27.269 Z-3.467
G1 X54.707 Y27.207 Z-3.467
G1 X54.769 Y27.139 Z-3.467
G1 X54.824 Y27.066 Z-3.467
G1 X54.872 Y26.989 Z-3.467
G1 X54.913 Y26.909 Z-3.467
G1 X54.945 Y26.827 Z-3.467
G1 X54.970 Y26.744 Z-3.467
G1 X54.987 Y26.661 Z-3.467
G1 X54.997 Y26.580 Z-3.467
G1 X55.000 Y26.500 Z-3.467
G1 X55.000 Y20.350 Z-3.467
G1 X54.997 Y20.270 Z-3.467
G1 X54.987 Y20.189 Z-3.467
G1 X54.970 Y20.106 Z-3.467
G1 X54.945 Y20.023 Z-3.467
G1 X54.913 Y19.941 Z-3.467
G1 X54.872 Y19.861 Z-3.467
G1 X54.824 Y19.784 Z-3.467
G1 X54.769 Y19.711 Z-3.467
G1 X54.707 Y19.643 Z-3.467
G1 X54.639 Y19.581 Z-3.467
G1 X54.566 Y19.526 Z-3.467
G1 X54.489 Y19.478 Z-3.467
G1 X54.409 Y19.437 Z-3.467
G1 X54.327 Y19.405 Z-3.467
G1 X54.244 Y19.380 Z-3.467
G1 X54.161 Y19.363 Z-3.467
G1 X54.080 Y19.353 Z-3.467
G1 X54.000 Y19.350 Z-3.467
G1 X49.800 Y19.350 Z-3.467
G1 X49.507 Y19.643 Z-3.467
G1 X49.800 Y19.350 Z-3.467
G1 X49.800 Y16.350 Z-3.467
G1 X49.507 Y16.057 Z-3.467
G1 X49.800 Y16.350 Z-3.467
G1 X54.000 Y16.350 Z-3.467
G1 X54.080 Y16.347 Z-3.467
G1 X54.161 Y16.337 Z-3.467
G1 X54.244 Y16.320 Z-3.467
G1 X54.327 Y16.295 Z-3.467
G1 X54.409 Y16.263 Z-3.467
G1 X54.489 Y16.222 Z-3.467
G1 X54.566 Y16.174 Z-3.467
G1 X54.639 Y16.119 Z-3.467
G1 X54.707 Y16.057 Z-3.467
G1 X54.769 Y15.989 Z-3.467
G1 X54.824 Y15.916 Z-3.467
G1 X54.872 Y15.839 Z-3.467
G1 X54.913 Y15.759 Z-3.467
G1 X54.945 Y15.677 Z-3.467
G1 X54.970 Y15.594 Z-3.467
G1 X54.987 Y15.511 Z-3.467
G1 X54.997 Y15.430 Z-3.467
G1 X55.000 Y15.350 Z-3.467
G1 X55.000 Y12.675 Z-3.467
G1 X55.000 Y6.675 Z-3.467
G1 X55.000 Y4.000 Z-3.467
G1 X54.997 Y3.919 Z-3.467
G1 X54.987 Y3.837 Z-3.467
G1 X54.970 Y3.755 Z-3.467
G1 X54.945 Y3.673 Z-3.467
G1 X54.914 Y3.593 Z-3.467
G1 X54.875 Y3.515 Z-3.467
G1 X54.829 Y3.441 Z-3.467
G1 X54.777 Y3.371 Z-3.467
G1 X54.720 Y3.306 Z-3.467
G1 X54.657 Y3.246 Z-3.467
G1 X54.591 Y3.193 Z-3.467
G1 X54.521 Y3.146 Z-3.467
G1 X54.449 Y3.106 Z-3.467
G1 X54.375 Y3.073 Z-3.467
G1 X54.303 Y3.047 Z-3.467
G1 X54.229 Y3.027 Z-3.467
G1 X54.153 Y3.012 Z-3.467
G1 X54.077 Y3.003 Z-3.467
G1 X54.000 Y3.000 Z-3.467
G1 X50.547 Y3.000 Z-3.467
G1 X48.800 Y3.000 Z-3.467
G1 X48.400 Y3.000 Z-3.467
G1 X42.650 Y3.000 Z-3.467
G1 X42.570 Y3.003 Z-3.467
G1 X42.489 Y3.013 Z-3.467
G1 X42.406 Y3.030 Z-3.467
G1 X42.323 Y3.055 Z-3.467
G1 X42.241 Y3.087 Z-3.467
G1 X42.161 Y3.128 Z-3.467
G1 X42.084 Y3.176 Z-3.467
G1 X42.011 Y3.231 Z-3.467
G1 X41.943 Y3.293 Z-3.467
G1 X41.881 Y3.361 Z-3.467
G1 X41.826 Y3.434 Z-3.467
G1 X41.778 Y3.511 Z-3.467
G1 X41.737 Y3.591 Z-3.467
G1 X41.705 Y3.673 Z-3.467
G1 X41.680 Y3.756 Z-3.467
G1 X41.663 Y3.839 Z-3.467
G1 X41.653 Y3.920 Z-3.467
G1 X41.650 Y4.000 Z-3.467
G1 X41.650 Y8.200 Z-3.467
G1 X41.943 Y8.493 Z-3.467
G1 X41.650 Y8.200 Z-3.467
G1 X38.650 Y8.200 Z-3.467
G1 X38.357 Y8.493 Z-3.467
G1 X38.650 Y8.200 Z-3.467
G1 X38.650 Y4.000 Z-3.467
G1 X38.647 Y3.920 Z-3.467
G1 X38.637 Y3.839 Z-3.467
G1 X38.620 Y3.756 Z-3.467
G1 X38.595 Y3.673 Z-3.467
G1 X38.563 Y3.591 Z-3.467
G1 X38.522 Y3.511 Z-3.467
G1 X38.474 Y3.434 Z-3.467
G1 X38.419 Y3.361 Z-3.467
G1 X38.357 Y3.293 Z-3.467
G1 X38.289 Y3.231 Z-3.467
G1 X38.216 Y3.176 Z-3.467
G1 X38.139 Y3.128 Z-3.467
G1 X38.059 Y3.087 Z-3.467
G1 X37.977 Y3.055 Z-3.467
G1 X37.894 Y3.030 Z-3.467
G1 X37.811 Y3.013 Z-3.467
G1 X37.730 Y3.003 Z-3.467
G1 X37.650 Y3.000 Z-3.467
G1 X31.500 Y3.000 Z-3.467
G1 X31.420 Y3.003 Z-3.467
G1 X31.339 Y3.013 Z-3.467
G1 X31.256 Y3.030 Z-3.467
G1 X31.173 Y3.055 Z-3.467
G1 X31.091 Y3.087 Z-3.467
G1 X31.011 Y3.128 Z-3.467
G1 X30.934 Y3.176 Z-3.467
G1 X30.861 Y3.231 Z-3.467
G1 X30.793 Y3.293 Z-3.467
G1 X30.731 Y3.361 Z-3.467
G1 X30.676 Y3.434 Z-3.467
G1 X30.628 Y3.511 Z-3.467
G1 X30.587 Y3.591 Z-3.467
G1 X30.555 Y3.673 Z-3.467
G1 X30.530 Y3.756 Z-3.467
G1 X30.513 Y3.839 Z-3.467
G1 X30.503 Y3.920 Z-3.467
G1 X30.500 Y4.000 Z-3.467
G1 X30.500 Y8.200 Z-3.467
G1 X30.793 Y8.493 Z-3.467
G1 X30.500 Y8.200 Z-3.467
G1 X27.500 Y8.200 Z-3.467
G1 X27.207 Y8.493 Z-3.467
G1 X27.494 Y8.206 Z-3.467
G1 X27.500 Y8.200 Z-3.467
G1 X27.500 Y4.000 Z-3.467
G1 X27.497 Y3.920 Z-3.467
G1 X27.487 Y3.839 Z-3.467
G1 X27.470 Y3.756 Z-3.467
G1 X27.445 Y3.673 Z-3.467
G1 X27.413 Y3.591 Z-3.467
G1 X27.372 Y3.511 Z-3.467
G1 X27.324 Y3.434 Z-3.467
G1 X27.269 Y3.361 Z-3.467
G1 X27.207 Y3.293 Z-3.467
G1 X27.139 Y3.231 Z-3.467
G1 X27.066 Y3.176 Z-3.467
G1 X26.989 Y3.128 Z-3.467
G1 X26.909 Y3.087 Z-3.467
G1 X26.827 Y3.055 Z-3.467
G1 X26.744 Y3.030 Z-3.467
G1 X26.661 Y3.013 Z-3.467
G1 X26.580 Y3.003 Z-3.467
G1 X26.500 Y3.000 Z-3.467
G1 X20.350 Y3.000 Z-3.467
G1 X20.270 Y3.003 Z-3.467
G1 X20.189 Y3.013 Z-3.467
G1 X20.106 Y3.030 Z-3.467
G1 X20.023 Y3.055 Z-3.467
G1 X19.941 Y3.087 Z-3.467
G1 X19.861 Y3.128 Z-3.467
G1 X19.784 Y3.176 Z-3.467
G1 X19.711 Y3.231 Z-3.467
G1 X19.643 Y3.293 Z-3.467
G1 X19.581 Y3.361 Z-3.467
G1 X19.526 Y3.434 Z-3.467
G1 X19.478 Y3.511 Z-3.467
G1 X19.437 Y3.591 Z-3.467
G1 X19.405 Y3.673 Z-3.467
G1 X19.380 Y3.756 Z-3.467
G1 X19.363 Y3.839 Z-3.467
G1 X19.353 Y3.920 Z-3.467
G1 X19.350 Y4.000 Z-3.467
G1 X19.350 Y8.200 Z-3.467
G1 X19.643 Y8.493 Z-3.467
G1 X19.350 Y8.200 Z-3.467
G1 X16.350 Y8.200 Z-3.467
G1 X16.057 Y8.493 Z-3.467
G1 X16.350 Y8.200 Z-3.467
G1 X16.350 Y4.000 Z-3.467
G1 X16.347 Y3.920 Z-3.467
G1 X16.337 Y3.839 Z-3.467
G1 X16.320 Y3.756 Z-3.467
G1 X16.295 Y3.673 Z-3.467
G1 X16.263 Y3.591 Z-3.467
G1 X16.222 Y3.511 Z-3.467
G1 X16.174 Y3.434 Z-3.467
G1 X16.119 Y3.361 Z-3.467
G1 X16.057 Y3.293 Z-3.467
G1 X15.989 Y3.231 Z-3.467
G1 X15.916 Y3.176 Z-3.467
G1 X15.839 Y3.128 Z-3.467
G1 X15.759 Y3.087 Z-3.467
G1 X15.677 Y3.055 Z-3.467
G1 X15.594 Y3.030 Z-3.467
G1 X15.511 Y3.013 Z-3.467
G1 X15.430 Y3.003 Z-3.467
G1 X15.350 Y3.000 Z-3.467
G1 X12.675 Y3.000 Z-3.467
G1 X6.675 Y3.000 Z-3.467
G1 X4.000 Y3.000 Z-3.467
G1 X3.919 Y3.003 Z-3.467
G1 X3.837 Y3.013 Z-3.467
G1 X3.755 Y3.030 Z-3.467
G1 X3.673 Y3.055 Z-3.467
G1 X3.593 Y3.086 Z-3.467
G1 X3.515 Y3.125 Z-3.467
G1 X3.441 Y3.171 Z-3.467
G1 X3.371 Y3.223 Z-3.467
G1 X3.306 Y3.280 Z-3.467
G1 X3.246 Y3.343 Z-3.467
G1 X3.193 Y3.409 Z-3.467
G1 X3.146 Y3.479 Z-3.467
G1 X3.106 Y3.551 Z-3.467
G1 X3.073 Y3.625 Z-3.467
G1 X3.047 Y3.697 Z-3.467
G1 X3.027 Y3.771 Z-3.467
G1 X3.012 Y3.847 Z-3.467
G1 X3.003 Y3.923 Z-3.467
G1 X3.000 Y4.000 Z-3.467
G1 X3.000 Y9.200 Z-3.467
G1 X3.000 Y9.600 Z-3.467
G1 X3.000 Y15.350 Z-3.467
G1 X3.003 Y15.430 Z-3.467
G1 X3.013 Y15.511 Z-3.467
G1 X3.030 Y15.594 Z-3.467
G1 X3.055 Y15.677 Z-3.467
G1 X3.087 Y15.759 Z-3.467
G1 X3.128 Y15.839 Z-3.467
G1 X3.176 Y15.916 Z-3.467
G1 X3.231 Y15.989 Z-3.467
G1 X3.293 Y16.057 Z-3.467
G1 X3.361 Y16.119 Z-3.467
G1 X3.434 Y16.174 Z-3.467
G1 X3.511 Y16.222 Z-3.467
G1 X3.591 Y16.263 Z-3.467
G1 X3.673 Y16.295 Z-3.467
G1 X3.756 Y16.320 Z-3.467
G1 X3.839 Y16.337 Z-3.467
G1 X3.920 Y16.347 Z-3.467
G1 X4.000 Y16.350 Z-3.467
G1 X8.200 Y16.350 Z-3.467
G1 X8.493 Y16.057 Z-3.467
G1 X8.200 Y16.350 Z-3.467
G1 X8.200 Y19.350 Z-3.467
G1 X8.493 Y19.643 Z-3.467
G1 X8.200 Y19.350 Z-3.467
G1 X4.000 Y19.350 Z-3.467
G1 X3.920 Y19.353 Z-3.467
G1 X3.839 Y19.363 Z-3.467
G1 X3.756 Y19.380 Z-3.467
G1 X3.673 Y19.405 Z-3.467
G1 X3.591 Y19.437 Z-3.467
G1 X3.511 Y19.478 Z-3.467
G1 X3.434 Y19.526 Z-3.467
G1 X3.361 Y19.581 Z-3.467
G1 X3.293 Y19.643 Z-3.467
G1 X3.231 Y19.711 Z-3.467
G1 X3.176 Y19.784 Z-3.467
G1 X3.128 Y19.861 Z-3.467
G1 X3.087 Y19.941 Z-3.467
G1 X3.055 Y20.023 Z-3.467
G1 X3.030 Y20.106 Z-3.467
G1 X3.013 Y20.189 Z-3.467
G1 X3.003 Y20.270 Z-3.467
G1 X3.000 Y20.350 Z-3.467
G1 X3.000 Y26.500 Z-3.467
G1 X3.003 Y26.580 Z-3.467
G1 X3.013 Y26.661 Z-3.467
G1 X3.030 Y26.744 Z-3.467
G1 X3.055 Y26.827 Z-3.467
G1 X3.087 Y26.909 Z-3.467
G1 X3.128 Y26.989 Z-3.467
G1 X3.176 Y27.066 Z-3.467
G1 X3.231 Y27.139 Z-3.467
G1 X3.293 Y27.207 Z-3.467
G1 X3.361 Y27.269 Z-3.467
G1 X3.434 Y27.324 Z-3.467
G1 X3.511 Y27.372 Z-3.467
G1 X3.591 Y27.413 Z-3.467
G1 X3.673 Y27.445 Z-3.467
G1 X3.756 Y27.470 Z-3.467
G1 X3.839 Y27.487 Z-3.467
G1 X3.920 Y27.497 Z-3.467
G1 X4.000 Y27.500 Z-3.467
G1 X8.200 Y27.500 Z-3.467
G1 X8.493 Y27.207 Z-3.467
G1 X8.200 Y27.500 Z-3.467
G1 X8.200 Y30.500 Z-3.467
G1 X8.493 Y30.793 Z-3.467
G1 X8.200 Y30.500 Z-3.467
G1 X4.000 Y30.500 Z-3.467
G1 X3.920 Y30.503 Z-3.467
G1 X3.839 Y30.513 Z-3.467
G1 X3.756 Y30.530 Z-3.467
G1 X3.673 Y30.555 Z-3.467
G1 X3.591 Y30.587 Z-3.467
G1 X3.511 Y30.628 Z-3.467
G1 X3.434 Y30.676 Z-3.467
G1 X3.361 Y30.731 Z-3.467
G1 X3.293 Y30.793 Z-3.467
G1 X3.231 Y30.861 Z-3.467
G1 X3.176 Y30.934 Z-3.467
G1 X3.128 Y31.011 Z-3.467
G1 X3.087 Y31.091 Z-3.467
G1 X3.055 Y31.173 Z-3.467
G1 X3.030 Y31.256 Z-3.467
G1 X3.013 Y31.339 Z-3.467
G1 X3.003 Y31.420 Z-3.467
G1 X3.000 Y31.500 Z-3.467
G1 X3.000 Y37.650 Z-3.467
G1 X3.003 Y37.730 Z-3.467
G1 X3.013 Y37.811 Z-3.467
G1 X3.030 Y37.894 Z-3.467
G1 X3.055 Y37.977 Z-3.467
G1 X3.087 Y38.059 Z-3.467
G1 X3.128 Y38.139 Z-3.467
G1 X3.176 Y38.216 Z-3.467
G1 X3.231 Y38.289 Z-3.467
G1 X3.293 Y38.357 Z-3.467
G1 X3.361 Y38.419 Z-3.467
G1 X3.434 Y38.474 Z-3.467
G1 X3.511 Y38.522 Z-3.467
G1 X3.591 Y38.563 Z-3.467
G1 X3.673 Y38.595 Z-3.467
G1 X3.756 Y38.620 Z-3.467
G1 X3.839 Y38.637 Z-3.467
G1 X3.920 Y38.647 Z-3.467
G1 X4.000 Y38.650 Z-3.467
G1 X5.333 Y38.650 Z-3.467
G1 X8.200 Y38.650 Z-3.492 F250.0
G1 X8.493 Y38.357 Z-3.495
G1 X8.200 Y38.650 Z-3.499
G1 X8.200 Y41.650 Z-3.525
G1 X8.493 Y41.943 Z-3.528
G1 X8.200 Y41.650 Z-3.532
G1 X4.000 Y41.650 Z-3.568
G1 X3.920 Y41.653 Z-3.569
G1 X3.839 Y41.663 Z-3.570
G1 X3.756 Y41.680 Z-3.571
G1 X3.673 Y41.705 Z-3.571
G1 X3.591 Y41.737 Z-3.572
G1 X3.511 Y41.778 Z-3.573
G1 X3.434 Y41.826 Z-3.574
G1 X3.361 Y41.881 Z-3.574
G1 X3.293 Y41.943 Z-3.575
G1 X3.231 Y42.011 Z-3.576
G1 X3.176 Y42.084 Z-3.577
G1 X3.128 Y42.161 Z-3.577
G1 X3.087 Y42.241 Z-3.578
G1 X3.055 Y42.323 Z-3.579
G1 X3.030 Y42.406 Z-3.580
G1 X3.013 Y42.489 Z-3.580
G1 X3.003 Y42.570 Z-3.581
G1 X3.000 Y42.650 Z-3.582
G1 X3.000 Y45.325 Z-3.605
G1 X3.000 Y51.325 Z-3.657
G1 X3.000 Y54.000 Z-3.680
G1 X3.003 Y54.081 Z-3.681
G1 X3.013 Y54.163 Z-3.682
G1 X3.030 Y54.245 Z-3.682
G1 X3.055 Y54.327 Z-3.683
G1 X3.086 Y54.407 Z-3.684
G1 X3.125 Y54.485 Z-3.685
G1 X3.171 Y54.559 Z-3.685
G1 X3.223 Y54.629 Z-3.686
G1 X3.280 Y54.694 Z-3.687
G1 X3.343 Y54.754 Z-3.688
G1 X3.409 Y54.807 Z-3.688
G1 X3.479 Y54.854 Z-3.689
G1 X3.551 Y54.894 Z-3.690
G1 X3.625 Y54.927 Z-3.691
G1 X3.697 Y54.953 Z-3.691
G1 X3.771 Y54.973 Z-3.692
G1 X3.847 Y54.988 Z-3.693
G1 X3.923 Y54.997 Z-3.693
G1 X4.000 Y55.000 Z-3.694
G1 X9.200 Y55.000 Z-3.739
G1 X9.600 Y55.000 Z-3.742
G1 X15.350 Y55.000 Z-3.792
G1 X15.430 Y54.997 Z-3.793
G1 X15.511 Y54.987 Z-3.794
G1 X15.594 Y54.970 Z-3.795
G1 X15.677 Y54.945 Z-3.795
G1 X15.759 Y54.913 Z-3.796
G1 X15.839 Y54.872 Z-3.797
G1 X15.916 Y54.824 Z-3.798
G1 X15.989 Y54.769 Z-3.798
G1 X16.057 Y54.707 Z-3.799
G1 X16.119 Y54.639 Z-3.800
G1 X16.174 Y54.566 Z-3.801
G1 X16.222 Y54.489 Z-3.801
G1 X16.263 Y54.409 Z-3.802
G1 X16.295 Y54.327 Z-3.803
G1 X16.320 Y54.244 Z-3.804
G1 X16.337 Y54.161 Z-3.804
G1 X16.347 Y54.080 Z-3.805
G1 X16.350 Y54.000 Z-3.806
G1 X16.350 Y52.471 Z-3.819
G1 X16.350 Y49.800 Z-3.842
G1 X16.057 Y49.507 Z-3.846
G1 X16.350 Y49.800 Z-3.849
G1 X19.350 Y49.800 Z-3.875
G1 X19.643 Y49.507 Z-3.879
G1 X19.350 Y49.800 Z-3.883
G1 X19.350 Y54.000 Z-3.919
G1 X19.353 Y54.080 Z-3.920
G1 X19.363 Y54.161 Z-3.921
G1 X19.380 Y54.244 Z-3.921
G1 X19.405 Y54.327 Z-3.922
G1 X19.437 Y54.409 Z-3.923
G1 X19.478 Y54.489 Z-3.924
G1 X19.526 Y54.566 Z-3.924
G1 X19.581 Y54.639 Z-3.925
G1 X19.643 Y54.707 Z-3.926
G1 X19.711 Y54.769 Z-3.927
G1 X19.784 Y54.824 Z-3.927
G1 X19.861 Y54.872 Z-3.928
G1 X19.941 Y54.913 Z-3.929
G1 X20.023 Y54.945 Z-3.930
G1 X20.106 Y54.970 Z-3.930
G1 X20.189 Y54.987 Z-3.931
G1 X20.270 Y54.997 Z-3.932
G1 X20.350 Y55.000 Z-3.933
G1 X26.500 Y55.000 Z-3.986
G1 X26.580 Y54.997 Z-3.987
G1 X26.661 Y54.987 Z-3.987
G1 X26.744 Y54.970 Z-3.988
G1 X26.827 Y54.945 Z-3.989
G1 X26.909 Y54.913 Z-3.990
G1 X26.989 Y54.872 Z-3.990
G1 X27.066 Y54.824 Z-3.991
G1 X27.139 Y54.769 Z-3.992
G1 X27.207 Y54.707 Z-3.993
G1 X27.269 Y54.639 Z-3.993
G1 X27.324 Y54.566 Z-3.994
G1 X27.372 Y54.489 Z-3.995
G1 X27.413 Y54.409 Z-3.996
G1 X27.445 Y54.327 Z-3.997
G1 X27.470 Y54.244 Z-3.997
G1 X27.487 Y54.161 Z-3.998
G1 X27.497 Y54.080 Z-3.999
G1 X27.500 Y54.000 Z-4.000
G1 X27.500 Y49.800 Z-4.036
G1 X27.207 Y49.507 Z-4.040
G1 X27.500 Y49.800 Z-4.043
G1 X30.500 Y49.800 Z-4.069
G1 X30.793 Y49.507 Z-4.073
G1 X30.500 Y49.800 Z-4.076
G1 X30.500 Y54.000 Z-4.113
G1 X30.503 Y54.080 Z-4.113
G1 X30.513 Y54.161 Z-4.114
G1 X30.530 Y54.244 Z-4.115
G1 X30.555 Y54.327 Z-4.116
G1 X30.587 Y54.409 Z-4.116
G1 X30.628 Y54.489 Z-4.117
G1 X30.676 Y54.566 Z-4.118
G1 X30.731 Y54.639 Z-4.119
G1 X30.793 Y54.707 Z-4.119
G1 X30.861 Y54.769 Z-4.120
G1 X30.934 Y54.824 Z-4.121
G1 X31.011 Y54.872 Z-4.122
G1 X31.091 Y54.913 Z-4.123
G1 X31.173 Y54.945 Z-4.123
G1 X31.256 Y54.970 Z-4.124
G1 X31.339 Y54.987 Z-4.125
G1 X31.420 Y54.997 Z-4.126
G1 X31.500 Y55.000 Z-4.126
G1 X37.650 Y55.000 Z-4.180
G1 X37.730 Y54.997 Z-4.180
G1 X37.811 Y54.987 Z-4.181
G1 X37.894 Y54.970 Z-4.182
G1 X37.977 Y54.945 Z-4.183
G1 X38.059 Y54.913 Z-4.183
G1 X38.139 Y54.872 Z-4.184
G1 X38.216 Y54.824 Z-4.185
G1 X38.289 Y54.769 Z-4.186
G1 X38.357 Y54.707 Z-4.186
G1 X38.419 Y54.639 Z-4.187
G1 X38.474 Y54.566 Z-4.188
G1 X38.522 Y54.489 Z-4.189
G1 X38.563 Y54.409 Z-4.189
G1 X38.595 Y54.327 Z-4.190
G1 X38.620 Y54.244 Z-4.191
G1 X38.637 Y54.161 Z-4.192
G1 X38.647 Y54.080 Z-4.192
G1 X38.650 Y54.000 Z-4.193
G1 X38.650 Y49.800 Z-4.230
G1 X38.357 Y49.507 Z-4.233
G1 X38.650 Y49.800 Z-4.237
G1 X41.650 Y49.800 Z-4.263
G1 X41.943 Y49.507 Z-4.266
G1 X41.650 Y49.800 Z-4.270
G1 X41.650 Y54.000 Z-4.306
G1 X41.653 Y54.080 Z-4.307
G1 X41.663 Y54.161 Z-4.308
G1 X41.680 Y54.244 Z-4.309
G1 X41.705 Y54.327 Z-4.309
G1 X41.737 Y54.409 Z-4.310
G1 X41.778 Y54.489 Z-4.311
G1 X41.826 Y54.566 Z-4.312
G1 X41.881 Y54.639 Z-4.312
G1 X41.943 Y54.707 Z-4.313
G1 X42.011 Y54.769 Z-4.314
G1 X42.084 Y54.824 Z-4.315
G1 X42.161 Y54.872 Z-4.315
G1 X42.241 Y54.913 Z-4.316
G1 X42.323 Y54.945 Z-4.317
G1 X42.406 Y54.970 Z-4.318
G1 X42.489 Y54.987 Z-4.318
G1 X42.570 Y54.997 Z-4.319
G1 X42.650 Y55.000 Z-4.320
G1 X44.189 Y55.000 Z-4.333
G1 X45.325 Y55.000 Z-4.333 F180.0
G1 X45.325 Y55.000 Z-4.200
G1 X51.325 Y55.000 Z-4.200
G1 X51.325 Y55.000 Z-4.333 F250.0
G1 X54.000 Y55.000 Z-4.333 F180.0
G1 X54.081 Y54.997 Z-4.333
G1 X54.163 Y54.987 Z-4.333
G1 X54.245 Y54.970 Z-4.333
G1 X54.327 Y54.945 Z-4.333
G1 X54.407 Y54.914 Z-4.333
G1 X54.485 Y54.875 Z-4.333
G1 X54.559 Y54.829 Z-4.333
G1 X54.629 Y54.777 Z-4.333
G1 X54.694 Y54.720 Z-4.333
G1 X54.754 Y54.657 Z-4.333
G1 X54.807 Y54.591 Z-4.333
G1 X54.854 Y54.521 Z-4.333
G1 X54.894 Y54.449 Z-4.333
G1 X54.927 Y54.375 Z-4.333
G1 X54.927 Y54.375 Z-4.200
G1 X54.953 Y54.303 Z-4.200
G1 X54.973 Y54.229 Z-4.200
G1 X54.988 Y54.153 Z-4.200
G1 X54.997 Y54.077 Z-4.200
G1 X55.000 Y54.000 Z-4.200
G1 X55.000 Y48.800 Z-4.200
G1 X55.000 Y48.400 Z-4.200
G1 X55.000 Y48.400 Z-4.333 F250.0
G1 X55.000 Y42.650 Z-4.333 F180.0
G1 X54.997 Y42.570 Z-4.333
G1 X54.987 Y42.489 Z-4.333
G1 X54.970 Y42.406 Z-4.333
G1 X54.945 Y42.323 Z-4.333
G1 X54.913 Y42.241 Z-4.333
G1 X54.872 Y42.161 Z-4.333
G1 X54.824 Y42.084 Z-4.333
G1 X54.769 Y42.011 Z-4.333
G1 X54.707 Y41.943 Z-4.333
G1 X54.639 Y41.881 Z-4.333
G1 X54.566 Y41.826 Z-4.333
G1 X54.489 Y41.778 Z-4.333
G1 X54.409 Y41.737 Z-4.333
G1 X54.327 Y41.705 Z-4.333
G1 X54.244 Y41.680 Z-4.333
G1 X54.161 Y41.663 Z-4.333
G1 X54.080 Y41.653 Z-4.333
G1 X54.000 Y41.650 Z-4.333
G1 X49.800 Y41.650 Z-4.333
G1 X49.507 Y41.943 Z-4.333
G1 X49.800 Y41.650 Z-4.333
G1 X49.800 Y38.650 Z-4.333
G1 X49.507 Y38.357 Z-4.333
G1 X49.800 Y38.650 Z-4.333
G1 X54.000 Y38.650 Z-4.333
G1 X54.080 Y38.647 Z-4.333
G1 X54.161 Y38.637 Z-4.333
G1 X54.244 Y38.620 Z-4.333
G1 X54.327 Y38.595 Z-4.333
G1 X54.409 Y38.563 Z-4.333
G1 X54.489 Y38.522 Z-4.333
G1 X54.566 Y38.474 Z-4.333
G1 X54.639 Y38.419 Z-4.333
G1 X54.707 Y38.357 Z-4.333
G1 X54.769 Y38.289 Z-4.333
G1 X54.824 Y38.216 Z-4.333
G1 X54.872 Y38.139 Z-4.333
G1 X54.913 Y38.059 Z-4.333
G1 X54.945 Y37.977 Z-4.333
G1 X54.970 Y37.894 Z-4.333
G1 X54.987 Y37.811 Z-4.333
G1 X54.997 Y37.730 Z-4.333
G1 X55.000 Y37.650 Z-4.333
G1 X55.000 Y35.915 Z-4.333
G1 X55.000 Y31.500 Z-4.333
G1 X54.997 Y31.420 Z-4.333
G1 X54.987 Y31.339 Z-4.333
G1 X54.970 Y31.256 Z-4.333
G1 X54.945 Y31.173 Z-4.333
G1 X54.913 Y31.091 Z-4.333
G1 X54.872 Y31.011 Z-4.333
G1 X54.824 Y30.934 Z-4.333
G1 X54.769 Y30.861 Z-4.333
G1 X54.707 Y30.793 Z-4.333
G1 X54.639 Y30.731 Z-4.333
G1 X54.566 Y30.676 Z-4.333
G1 X54.489 Y30.628 Z-4.333
G1 X54.409 Y30.587 Z-4.333
G1 X54.327 Y30.555 Z-4.333
G1 X54.244 Y30.530 Z-4.333
G1 X54.161 Y30.513 Z-4.333
G1 X54.080 Y30.503 Z-4.333
G1 X54.000 Y30.500 Z-4.333
G1 X49.800 Y30.500 Z-4.333
G1 X49.507 Y30.793 Z-4.333
G1 X49.800 Y30.500 Z-4.333
G1 X49.800 Y27.500 Z-4.333
G1 X49.507 Y27.207 Z-4.333
G1 X49.800 Y27.500 Z-4.333
G1 X54.000 Y27.500 Z-4.333
G1 X54.080 Y27.497 Z-4.333
G1 X54.161 Y27.487 Z-4.333
G1 X54.244 Y27.470 Z-4.333
G1 X54.327 Y27.445 Z-4.333
G1 X54.409 Y27.413 Z-4.333
G1 X54.489 Y27.372 Z-4.333
G1 X54.566 Y27.324 Z-4.333
G1 X54.639 Y27.269 Z-4.333
G1 X54.707 Y27.207 Z-4.333
G1 X54.769 Y27.139 Z-4.333
G1 X54.824 Y27.066 Z-4.333
G1 X54.872 Y26.989 Z-4.333
G1 X54.913 Y26.909 Z-4.333
G1 X54.945 Y26.827 Z-4.333
G1 X54.970 Y26.744 Z-4.333
G1 X54.987 Y26.661 Z-4.333
G1 X54.997 Y26.580 Z-4.333
G1 X55.000 Y26.500 Z-4.333
G1 X55.000 Y20.350 Z-4.333
G1 X54.997 Y20.270 Z-4.333
G1 X54.987 Y20.189 Z-4.333
G1 X54.970 Y20.106 Z-4.333
G1 X54.945 Y20.023 Z-4.333
G1 X54.913 Y19.941 Z-4.333
G1 X54.872 Y19.861 Z-4.333
G1 X54.824 Y19.784 Z-4.333
G1 X54.769 Y19.711 Z-4.333
G1 X54.707 Y19.643 Z-4.333
G1 X54.639 Y19.581 Z-4.333
G1 X54.566 Y19.526 Z-4.333
G1 X54.489 Y19.478 Z-4.333
G1 X54.409 Y19.437 Z-4.333
G1 X54.327 Y19.405 Z-4.333
G1 X54.244 Y19.380 Z-4.333
G1 X54.161 Y19.363 Z-4.333
G1 X54.080 Y19.353 Z-4.333
G1 X54.000 Y19.350 Z-4.333
G1 X49.800 Y19.350 Z-4.333
G1 X49.507 Y19.643 Z-4.333
G1 X49.800 Y19.350 Z-4.333
G1 X49.800 Y16.350 Z-4.333
G1 X49.507 Y16.057 Z-4.333
G1 X49.800 Y16.350 Z-4.333
G1 X54.000 Y16.350 Z-4.333
G1 X54.080 Y16.347 Z-4.333
G1 X54.161 Y16.337 Z-4.333
G1 X54.244 Y16.320 Z-4.333
G1 X54.327 Y16.295 Z-4.333
G1 X54.409 Y16.263 Z-4.333
G1 X54.489 Y16.222 Z-4.333
G1 X54.566 Y16.174 Z-4.333
G1 X54.639 Y16.119 Z-4.333
G1 X54.707 Y16.057 Z-4.333
G1 X54.769 Y15.989 Z-4.333
G1 X54.824 Y15.916 Z-4.333
G1 X54.872 Y15.839 Z-4.333
G1 X54.913 Y15.759 Z-4.333
G1 X54.945 Y15.677 Z-4.333
G1 X54.970 Y15.594 Z-4.333
G1 X54.987 Y15.511 Z-4.333
G1 X54.997 Y15.430 Z-4.333
G1 X55.000 Y15.350 Z-4.333
G1 X55.000 Y12.675 Z-4.333
G1 X55.000 Y12.675 Z-4.200
G1 X55.000 Y6.675 Z-4.200
G1 X55.000 Y6.675 Z-4.333 F250.0
G1 X55.000 Y4.000 Z-4.333 F180.0
G1 X54.997 Y3.919 Z-4.333
G1 X54.987 Y3.837 Z-4.333
G1 X54.970 Y3.755 Z-4.333
G1 X54.945 Y3.673 Z-4.333
G1 X54.914 Y3.593 Z-4.333
G1 X54.875 Y3.515 Z-4.333
G1 X54.829 Y3.441 Z-4.333
G1 X54.777 Y3.371 Z-4.333
G1 X54.720 Y3.306 Z-4.333
G1 X54.657 Y3.246 Z-4.333
G1 X54.591 Y3.193 Z-4.333
G1 X54.521 Y3.146 Z-4.333
G1 X54.449 Y3.106 Z-4.333
G1 X54.375 Y3.073 Z-4.333
G1 X54.375 Y3.073 Z-4.200
G1 X54.303 Y3.047 Z-4.200
G1 X54.229 Y3.027 Z-4.200
G1 X54.153 Y3.012 Z-4.200
G1 X54.077 Y3.003 Z-4.200
G1 X54.000 Y3.000 Z-4.200
G1 X50.547 Y3.000 Z-4.200
G1 X48.800 Y3.000 Z-4.200
G1 X48.400 Y3.000 Z-4.200
G1 X48.400 Y3.000 Z-4.333 F250.0
G1 X42.650 Y3.000 Z-4.333 F180.0
G1 X42.570 Y3.003 Z-4.333
G1 X42.489 Y3.013 Z-4.333
G1 X42.406 Y3.030 Z-4.333
G1 X42.323 Y3.055 Z-4.333
G1 X42.241 Y3.087 Z-4.333
G1 X42.161 Y3.128 Z-4.333
G1 X42.084 Y3.176 Z-4.333
G1 X42.011 Y3.231 Z-4.333
G1 X41.943 Y3.293 Z-4.333
G1 X41.881 Y3.361 Z-4.333
G1 X41.826 Y3.434 Z-4.333
G1 X41.778 Y3.511 Z-4.333
G1 X41.737 Y3.591 Z-4.333
G1 X41.705 Y3.673 Z-4.333
G1 X41.680 Y3.756 Z-4.333
G1 X41.663 Y3.839 Z-4.333
G1 X41.653 Y3.920 Z-4.333
G1 X41.650 Y4.000 Z-4.333
G1 X41.650 Y8.200 Z-4.333
G1 X41.943 Y8.493 Z-4.333
G1 X41.650 Y8.200 Z-4.333
G1 X38.650 Y8.200 Z-4.333
G1 X38.357 Y8.493 Z-4.333
G1 X38.650 Y8.200 Z-4.333
G1 X38.650 Y4.000 Z-4.333
G1 X38.647 Y3.920 Z-4.333
G1 X38.637 Y3.839 Z-4.333
G1 X38.620 Y3.756 Z-4.333
G1 X38.595 Y3.673 Z-4.333
G1 X38.563 Y3.591 Z-4.333
G1 X38.522 Y3.511 Z-4.333
G1 X38.474 Y3.434 Z-4.333
G1 X38.419 Y3.361 Z-4.333
G1 X38.357 Y3.293 Z-4.333
G1 X38.289 Y3.231 Z-4.333
G1 X38.216 Y3.176 Z-4.333
G1 X38.139 Y3.128 Z-4.333
G1 X38.059 Y3.087 Z-4.333
G1 X37.977 Y3.055 Z-4.333
G1 X37.894 Y3.030 Z-4.333
G1 X37.811 Y3.013 Z-4.333
G1 X37.730 Y3.003 Z-4.333
G1 X37.650 Y3.000 Z-4.333
G1 X31.500 Y3.000 Z-4.333
G1 X31.420 Y3.003 Z-4.333
G1 X31.339 Y3.013 Z-4.333
G1 X31.256 Y3.030 Z-4.333
G1 X31.173 Y3.055 Z-4.333
G1 X31.091 Y3.087 Z-4.333
G1 X31.011 Y3.128 Z-4.333
G1 X30.934 Y3.176 Z-4.333
G1 X30.861 Y3.231 Z-4.333
G1 X30.793 Y3.293 Z-4.333
G1 X30.731 Y3.361 Z-4.333
G1 X30.676 Y3.434 Z-4.333
G1 X30.628 Y3.511 Z-4.333
G1 X30.587 Y3.591 Z-4.333
G1 X30.555 Y3.673 Z-4.333
G1 X30.530 Y3.756 Z-4.333
G1 X30.513 Y3.839 Z-4.333
G1 X30.503 Y3.920 Z-4.333
G1 X30.500 Y4.000 Z-4.333
G1 X30.500 Y8.200 Z-4.333
G1 X30.793 Y8.493 Z-4.333
G1 X30.500 Y8.200 Z-4.333
G1 X27.500 Y8.200 Z-4.333
G1 X27.207 Y8.493 Z-4.333
G1 X27.494 Y8.206 Z-4.333
G1 X27.500 Y8.200 Z-4.333
G1 X27.500 Y4.000 Z-4.333
G1 X27.497 Y3.920 Z-4.333
G1 X27.487 Y3.839 Z-4.333
G1 X27.470 Y3.756 Z-4.333
G1 X27.445 Y3.673 Z-4.333
G1 X27.413 Y3.591 Z-4.333
G1 X27.372 Y3.511 Z-4.333
G1 X27.324 Y3.434 Z-4.333
G1 X27.269 Y3.361 Z-4.333
G1 X27.207 Y3.293 Z-4.333
G1 X27.139 Y3.231 Z-4.333
G1 X27.066 Y3.176 Z-4.333
G1 X26.989 Y3.128 Z-4.333
G1 X26.909 Y3.087 Z-4.333
G1 X26.827 Y3.055 Z-4.333
G1 X26.744 Y3.030 Z-4.333
G1 X26.661 Y3.013 Z-4.333
G1 X26.580 Y3.003 Z-4.333
G1 X26.500 Y3.000 Z-4.333
G1 X20.350 Y3.000 Z-4.333
G1 X20.270 Y3.003 Z-4.333
G1 X20.189 Y3.013 Z-4.333
G1 X20.106 Y3.030 Z-4.333
G1 X20.023 Y3.055 Z-4.333
G1 X19.941 Y3.087 Z-4.333
G1 X19.861 Y3.128 Z-4.333
G1 X19.784 Y3.176 Z-4.333
G1 X19.711 Y3.231 Z-4.333
G1 X19.643 Y3.293 Z-4.333
G1 X19.581 Y3.361 Z-4.333
G1 X19.526 Y3.434 Z-4.333
G1 X19.478 Y3.511 Z-4.333
G1 X19.437 Y3.591 Z-4.333
G1 X19.405 Y3.673 Z-4.333
G1 X19.380 Y3.756 Z-4.333
G1 X19.363 Y3.839 Z-4.333
G1 X19.353 Y3.920 Z-4.333
G1 X19.350 Y4.000 Z-4.333
G1 X19.350 Y8.200 Z-4.333
G1 X19.643 Y8.493 Z-4.333
G1 X19.350 Y8.200 Z-4.333
G1 X16.350 Y8.200 Z-4.333
G1 X16.057 Y8.493 Z-4.333
G1 X16.350 Y8.200 Z-4.333
G1 X16.350 Y4.000 Z-4.333
G1 X16.347 Y3.920 Z-4.333
G1 X16.337 Y3.839 Z-4.333
G1 X16.320 Y3.756 Z-4.333
G1 X16.295 Y3.673 Z-4.333
G1 X16.263 Y3.591 Z-4.333
G1 X16.222 Y3.511 Z-4.333
G1 X16.174 Y3.434 Z-4.333
G1 X16.119 Y3.361 Z-4.333
G1 X16.057 Y3.293 Z-4.333
G1 X15.989 Y3.231 Z-4.333
G1 X15.916 Y3.176 Z-4.333
G1 X15.839 Y3.128 Z-4.333
G1 X15.759 Y3.087 Z-4.333
G1 X15.677 Y3.055 Z-4.333
G1 X15.594 Y3.030 Z-4.333
G1 X15.511 Y3.013 Z-4.333
G1 X15.430 Y3.003 Z-4.333
G1 X15.350 Y3.000 Z-4.333
G1 X12.675 Y3.000 Z-4.333
