(VECTRIC POST REVISION)
(AE8C5706166A14C0DE23454C54EBD95B)
%
G21
G40
G94
G97
G64
G90
T1 M6
M8
M3 S12000
G0 X3.182 Y3.625
G0 Z6.000
G1 X3.182 Y3.625 Z0.000 F250.0
G1 X3.153 Y3.696 Z-0.001
G1 X3.130 Y3.770 Z-0.001
G1 X3.113 Y3.846 Z-0.002
G1 X3.103 Y3.923 Z-0.003
G1 X3.100 Y4.000 Z-0.003
G1 X3.100 Y9.200 Z-0.048
G1 X3.100 Y9.600 Z-0.052
G1 X3.100 Y15.350 Z-0.102
G1 X3.103 Y15.426 Z-0.102
G1 X3.113 Y15.504 Z-0.103
G1 X3.131 Y15.583 Z-0.104
G1 X3.156 Y15.662 Z-0.105
G1 X3.189 Y15.739 Z-0.105
G1 X3.229 Y15.815 Z-0.106
G1 X3.278 Y15.887 Z-0.107
G1 X3.333 Y15.955 Z-0.107
G1 X3.395 Y16.017 Z-0.108
G1 X3.463 Y16.072 Z-0.109
G1 X3.535 Y16.121 Z-0.110
G1 X3.611 Y16.161 Z-0.110
G1 X3.688 Y16.194 Z-0.111
G1 X3.767 Y16.219 Z-0.112
G1 X3.846 Y16.237 Z-0.113
G1 X3.924 Y16.247 Z-0.113
G1 X4.000 Y16.250 Z-0.114
G1 X8.300 Y16.250 Z-0.151
G1 X8.564 Y15.986 Z-0.154
G1 X8.300 Y16.250 Z-0.158
G1 X8.300 Y19.450 Z-0.185
G1 X8.564 Y19.714 Z-0.189
G1 X8.300 Y19.450 Z-0.192
G1 X4.000 Y19.450 Z-0.229
G1 X3.924 Y19.453 Z-0.230
G1 X3.846 Y19.463 Z-0.231
G1 X3.767 Y19.481 Z-0.231
G1 X3.688 Y19.506 Z-0.232
G1 X3.611 Y19.539 Z-0.233
G1 X3.535 Y19.579 Z-0.233
G1 X3.463 Y19.628 Z-0.234
G1 X3.395 Y19.683 Z-0.235
G1 X3.333 Y19.745 Z-0.236
G1 X3.278 Y19.813 Z-0.236
G1 X3.229 Y19.885 Z-0.237
G1 X3.189 Y19.961 Z-0.238
G1 X3.156 Y20.038 Z-0.239
G1 X3.131 Y20.117 Z-0.239
G1 X3.113 Y20.196 Z-0.240
G1 X3.103 Y20.274 Z-0.241
G1 X3.100 Y20.350 Z-0.241
G1 X3.100 Y26.500 Z-0.295
G1 X3.103 Y26.576 Z-0.295
G1 X3.113 Y26.654 Z-0.296
G1 X3.131 Y26.733 Z-0.297
G1 X3.156 Y26.812 Z-0.298
G1 X3.189 Y26.889 Z-0.298
G1 X3.229 Y26.965 Z-0.299
G1 X3.278 Y27.037 Z-0.300
G1 X3.333 Y27.105 Z-0.300
G1 X3.395 Y27.167 Z-0.301
G1 X3.463 Y27.222 Z-0.302
G1 X3.535 Y27.271 Z-0.303
G1 X3.611 Y27.311 Z-0.303
G1 X3.688 Y27.344 Z-0.304
G1 X3.767 Y27.369 Z-0.305
G1 X3.846 Y27.387 Z-0.306
G1 X3.924 Y27.397 Z-0.306
G1 X4.000 Y27.400 Z-0.307
G1 X8.300 Y27.400 Z-0.344
G1 X8.564 Y27.136 Z-0.347
G1 X8.300 Y27.400 Z-0.351
G1 X8.300 Y30.600 Z-0.378
G1 X8.564 Y30.864 Z-0.382
G1 X8.300 Y30.600 Z-0.385
G1 X4.000 Y30.600 Z-0.422
G1 X3.924 Y30.603 Z-0.423
G1 X3.846 Y30.613 Z-0.424
G1 X3.767 Y30.631 Z-0.424
G1 X3.688 Y30.656 Z-0.425
G1 X3.611 Y30.689 Z-0.426
G1 X3.535 Y30.729 Z-0.426
G1 X3.463 Y30.778 Z-0.427
G1 X3.395 Y30.833 Z-0.428
G1 X3.333 Y30.895 Z-0.429
G1 X3.278 Y30.963 Z-0.429
G1 X3.229 Y31.035 Z-0.430
G1 X3.189 Y31.111 Z-0.431
G1 X3.156 Y31.188 Z-0.432
G1 X3.131 Y31.267 Z-0.432
G1 X3.113 Y31.346 Z-0.433
G1 X3.103 Y31.424 Z-0.434
G1 X3.100 Y31.500 Z-0.434
G1 X3.100 Y37.650 Z-0.488
G1 X3.103 Y37.726 Z-0.488
G1 X3.113 Y37.804 Z-0.489
G1 X3.131 Y37.883 Z-0.490
G1 X3.156 Y37.962 Z-0.491
G1 X3.189 Y38.039 Z-0.491
G1 X3.229 Y38.115 Z-0.492
G1 X3.278 Y38.187 Z-0.493
G1 X3.333 Y38.255 Z-0.493
G1 X3.395 Y38.317 Z-0.494
G1 X3.463 Y38.372 Z-0.495
G1 X3.535 Y38.421 Z-0.496
G1 X3.611 Y38.461 Z-0.496
G1 X3.688 Y38.494 Z-0.497
G1 X3.767 Y38.519 Z-0.498
G1 X3.846 Y38.537 Z-0.499
G1 X3.924 Y38.547 Z-0.499
G1 X4.000 Y38.550 Z-0.500
G1 X7.234 Y38.550 Z-0.528
G1 X8.300 Y38.550 Z-0.537
G1 X8.564 Y38.286 Z-0.540
G1 X8.300 Y38.550 Z-0.544
G1 X8.300 Y41.750 Z-0.571
G1 X8.564 Y42.014 Z-0.575
G1 X8.300 Y41.750 Z-0.578
G1 X4.000 Y41.750 Z-0.615
G1 X3.924 Y41.753 Z-0.616
G1 X3.846 Y41.763 Z-0.617
G1 X3.767 Y41.781 Z-0.617
G1 X3.688 Y41.806 Z-0.618
G1 X3.611 Y41.839 Z-0.619
G1 X3.535 Y41.879 Z-0.619
G1 X3.463 Y41.928 Z-0.620
G1 X3.395 Y41.983 Z-0.621
G1 X3.333 Y42.045 Z-0.622
G1 X3.278 Y42.113 Z-0.622
G1 X3.229 Y42.185 Z-0.623
G1 X3.189 Y42.261 Z-0.624
G1 X3.156 Y42.338 Z-0.625
G1 X3.131 Y42.417 Z-0.625
G1 X3.113 Y42.496 Z-0.626
G1 X3.103 Y42.574 Z-0.627
G1 X3.100 Y42.650 Z-0.627
G1 X3.100 Y45.325 Z-0.651
G1 X3.100 Y51.325 Z-0.703
G1 X3.100 Y54.000 Z-0.726
G1 X3.103 Y54.076 Z-0.726
G1 X3.113 Y54.152 Z-0.727
G1 X3.130 Y54.229 Z-0.728
G1 X3.153 Y54.305 Z-0.729
G1 X3.184 Y54.380 Z-0.729
G1 X3.221 Y54.451 Z-0.730
G1 X3.265 Y54.520 Z-0.731
G1 X3.315 Y54.584 Z-0.731
G1 X3.370 Y54.643 Z-0.732
G1 X3.429 Y54.696 Z-0.733
G1 X3.492 Y54.743 Z-0.733
G1 X3.558 Y54.784 Z-0.734
G1 X3.625 Y54.818 Z-0.735
G1 X3.696 Y54.847 Z-0.735
G1 X3.770 Y54.870 Z-0.736
G1 X3.846 Y54.887 Z-0.737
G1 X3.923 Y54.897 Z-0.737
G1 X4.000 Y54.900 Z-0.738
G1 X9.200 Y54.900 Z-0.783
G1 X9.600 Y54.900 Z-0.787
G1 X15.350 Y54.900 Z-0.836
G1 X15.426 Y54.897 Z-0.837
G1 X15.504 Y54.887 Z-0.838
G1 X15.583 Y54.869 Z-0.839
G1 X15.662 Y54.844 Z-0.839
G1 X15.739 Y54.811 Z-0.840
G1 X15.815 Y54.771 Z-0.841
G1 X15.887 Y54.722 Z-0.841
G1 X15.955 Y54.667 Z-0.842
G1 X16.017 Y54.605 Z-0.843
G1 X16.072 Y54.537 Z-0.844
G1 X16.121 Y54.465 Z-0.844
G1 X16.161 Y54.389 Z-0.845
G1 X16.194 Y54.312 Z-0.846
G1 X16.219 Y54.233 Z-0.846
G1 X16.237 Y54.154 Z-0.847
G1 X16.247 Y54.076 Z-0.848
G1 X16.250 Y54.000 Z-0.849
G1 X16.250 Y51.920 Z-0.867
G1 X16.250 Y49.700 Z-0.867 F180.0
G1 X15.986 Y49.436 Z-0.867
G1 X16.250 Y49.700 Z-0.867
G1 X19.450 Y49.700 Z-0.867
G1 X19.714 Y49.436 Z-0.867
G1 X19.450 Y49.700 Z-0.867
G1 X19.450 Y54.000 Z-0.867
G1 X19.453 Y54.076 Z-0.867
G1 X19.463 Y54.154 Z-0.867
G1 X19.481 Y54.233 Z-0.867
G1 X19.506 Y54.312 Z-0.867
G1 X19.539 Y54.389 Z-0.867
G1 X19.579 Y54.465 Z-0.867
G1 X19.628 Y54.537 Z-0.867
G1 X19.683 Y54.605 Z-0.867
G1 X19.745 Y54.667 Z-0.867
G1 X19.813 Y54.722 Z-0.867
G1 X19.885 Y54.771 Z-0.867
G1 X19.961 Y54.811 Z-0.867
G1 X20.038 Y54.844 Z-0.867
G1 X20.117 Y54.869 Z-0.867
G1 X20.196 Y54.887 Z-0.867
G1 X20.274 Y54.897 Z-0.867
G1 X20.350 Y54.900 Z-0.867
G1 X26.500 Y54.900 Z-0.867
G1 X26.576 Y54.897 Z-0.867
G1 X26.654 Y54.887 Z-0.867
G1 X26.733 Y54.869 Z-0.867
G1 X26.812 Y54.844 Z-0.867
G1 X26.889 Y54.811 Z-0.867
G1 X26.965 Y54.771 Z-0.867
G1 X27.037 Y54.722 Z-0.867
G1 X27.105 Y54.667 Z-0.867
G1 X27.167 Y54.605 Z-0.867
G1 X27.222 Y54.537 Z-0.867
G1 X27.271 Y54.465 Z-0.867
G1 X27.311 Y54.389 Z-0.867
G1 X27.344 Y54.312 Z-0.867
G1 X27.369 Y54.233 Z-0.867
G1 X27.387 Y54.154 Z-0.867
G1 X27.397 Y54.076 Z-0.867
G1 X27.400 Y54.000 Z-0.867
G1 X27.400 Y49.700 Z-0.867
G1 X27.136 Y49.436 Z-0.867
G1 X27.400 Y49.700 Z-0.867
G1 X30.600 Y49.700 Z-0.867
G1 X30.864 Y49.436 Z-0.867
G1 X30.600 Y49.700 Z-0.867
G1 X30.600 Y54.000 Z-0.867
G1 X30.603 Y54.076 Z-0.867
G1 X30.613 Y54.154 Z-0.867
G1 X30.631 Y54.233 Z-0.867
G1 X30.656 Y54.312 Z-0.867
G1 X30.689 Y54.389 Z-0.867
G1 X30.729 Y54.465 Z-0.867
G1 X30.778 Y54.537 Z-0.867
G1 X30.833 Y54.605 Z-0.867
G1 X30.895 Y54.667 Z-0.867
G1 X30.963 Y54.722 Z-0.867
G1 X31.035 Y54.771 Z-0.867
G1 X31.111 Y54.811 Z-0.867
G1 X31.188 Y54.844 Z-0.867
G1 X31.267 Y54.869 Z-0.867
G1 X31.346 Y54.887 Z-0.867
G1 X31.424 Y54.897 Z-0.867
G1 X31.500 Y54.900 Z-0.867
G1 X37.650 Y54.900 Z-0.867
G1 X37.726 Y54.897 Z-0.867
G1 X37.804 Y54.887 Z-0.867
G1 X37.883 Y54.869 Z-0.867
G1 X37.962 Y54.844 Z-0.867
G1 X38.039 Y54.811 Z-0.867
G1 X38.115 Y54.771 Z-0.867
G1 X38.187 Y54.722 Z-0.867
G1 X38.255 Y54.667 Z-0.867
G1 X38.317 Y54.605 Z-0.867
G1 X38.372 Y54.537 Z-0.867
G1 X38.421 Y54.465 Z-0.867
G1 X38.461 Y54.389 Z-0.867
G1 X38.494 Y54.312 Z-0.867
G1 X38.519 Y54.233 Z-0.867
G1 X38.537 Y54.154 Z-0.867
G1 X38.547 Y54.076 Z-0.867
G1 X38.550 Y54.000 Z-0.867
G1 X38.550 Y49.700 Z-0.867
G1 X38.286 Y49.436 Z-0.867
G1 X38.550 Y49.700 Z-0.867
G1 X41.750 Y49.700 Z-0.867
G1 X42.014 Y49.436 Z-0.867
G1 X41.750 Y49.700 Z-0.867
G1 X41.750 Y54.000 Z-0.867
G1 X41.753 Y54.076 Z-0.867
G1 X41.763 Y54.154 Z-0.867
G1 X41.781 Y54.233 Z-0.867
G1 X41.806 Y54.312 Z-0.867
G1 X41.839 Y54.389 Z-0.867
G1 X41.879 Y54.465 Z-0.867
G1 X41.928 Y54.537 Z-0.867
G1 X41.983 Y54.605 Z-0.867
G1 X42.045 Y54.667 Z-0.867
G1 X42.113 Y54.722 Z-0.867
G1 X42.185 Y54.771 Z-0.867
G1 X42.261 Y54.811 Z-0.867
G1 X42.338 Y54.844 Z-0.867
G1 X42.417 Y54.869 Z-0.867
G1 X42.496 Y54.887 Z-0.867
G1 X42.574 Y54.897 Z-0.867
G1 X42.650 Y54.900 Z-0.867
G1 X45.325 Y54.900 Z-0.867
G1 X46.410 Y54.900 Z-0.867
G1 X51.325 Y54.900 Z-0.867
G1 X54.000 Y54.900 Z-0.867
G1 X54.076 Y54.897 Z-0.867
G1 X54.152 Y54.887 Z-0.867
G1 X54.229 Y54.870 Z-0.867
G1 X54.305 Y54.847 Z-0.867
G1 X54.380 Y54.816 Z-0.867
G1 X54.451 Y54.779 Z-0.867
G1 X54.520 Y54.735 Z-0.867
G1 X54.584 Y54.685 Z-0.867
G1 X54.643 Y54.630 Z-0.867
G1 X54.696 Y54.571 Z-0.867
G1 X54.743 Y54.508 Z-0.867
G1 X54.784 Y54.442 Z-0.867
G1 X54.818 Y54.375 Z-0.867
G1 X54.847 Y54.304 Z-0.867
G1 X54.870 Y54.230 Z-0.867
G1 X54.887 Y54.154 Z-0.867
G1 X54.897 Y54.077 Z-0.867
G1 X54.900 Y54.000 Z-0.867
G1 X54.900 Y48.800 Z-0.867
G1 X54.900 Y48.400 Z-0.867
G1 X54.900 Y42.650 Z-0.867
G1 X54.897 Y42.574 Z-0.867
G1 X54.887 Y42.496 Z-0.867
G1 X54.869 Y42.417 Z-0.867
G1 X54.844 Y42.338 Z-0.867
G1 X54.811 Y42.261 Z-0.867
G1 X54.771 Y42.185 Z-0.867
G1 X54.722 Y42.113 Z-0.867
G1 X54.667 Y42.045 Z-0.867
G1 X54.605 Y41.983 Z-0.867
G1 X54.537 Y41.928 Z-0.867
G1 X54.465 Y41.879 Z-0.867
G1 X54.389 Y41.839 Z-0.867
G1 X54.312 Y41.806 Z-0.867
G1 X54.233 Y41.781 Z-0.867
G1 X54.154 Y41.763 Z-0.867
G1 X54.076 Y41.753 Z-0.867
G1 X54.000 Y41.750 Z-0.867
G1 X49.700 Y41.750 Z-0.867
G1 X49.436 Y42.014 Z-0.867
G1 X49.700 Y41.750 Z-0.867
G1 X49.700 Y38.550 Z-0.867
G1 X49.436 Y38.286 Z-0.867
G1 X49.700 Y38.550 Z-0.867
G1 X54.000 Y38.550 Z-0.867
G1 X54.076 Y38.547 Z-0.867
G1 X54.154 Y38.537 Z-0.867
G1 X54.233 Y38.519 Z-0.867
G1 X54.312 Y38.494 Z-0.867
G1 X54.389 Y38.461 Z-0.867
G1 X54.465 Y38.421 Z-0.867
G1 X54.537 Y38.372 Z-0.867
G1 X54.605 Y38.317 Z-0.867
G1 X54.667 Y38.255 Z-0.867
G1 X54.722 Y38.187 Z-0.867
G1 X54.771 Y38.115 Z-0.867
G1 X54.811 Y38.039 Z-0.867
G1 X54.844 Y37.962 Z-0.867
G1 X54.869 Y37.883 Z-0.867
G1 X54.887 Y37.804 Z-0.867
G1 X54.897 Y37.726 Z-0.867
G1 X54.900 Y37.650 Z-0.867
G1 X54.900 Y35.044 Z-0.867
G1 X54.900 Y31.500 Z-0.867
G1 X54.897 Y31.424 Z-0.867
G1 X54.887 Y31.346 Z-0.867
G1 X54.869 Y31.267 Z-0.867
G1 X54.844 Y31.188 Z-0.867
G1 X54.811 Y31.111 Z-0.867
G1 X54.771 Y31.035 Z-0.867
G1 X54.722 Y30.963 Z-0.867
G1 X54.667 Y30.895 Z-0.867
G1 X54.605 Y30.833 Z-0.867
G1 X54.537 Y30.778 Z-0.867
G1 X54.465 Y30.729 Z-0.867
G1 X54.389 Y30.689 Z-0.867
G1 X54.312 Y30.656 Z-0.867
G1 X54.233 Y30.631 Z-0.867
G1 X54.154 Y30.613 Z-0.867
G1 X54.076 Y30.603 Z-0.867
G1 X54.000 Y30.600 Z-0.867
G1 X49.700 Y30.600 Z-0.867
G1 X49.436 Y30.864 Z-0.867
G1 X49.700 Y30.600 Z-0.867
G1 X49.700 Y27.400 Z-0.867
G1 X49.436 Y27.136 Z-0.867
G1 X49.700 Y27.400 Z-0.867
G1 X54.000 Y27.400 Z-0.867
G1 X54.076 Y27.397 Z-0.867
G1 X54.154 Y27.387 Z-0.867
G1 X54.233 Y27.369 Z-0.867
G1 X54.312 Y27.344 Z-0.867
G1 X54.389 Y27.311 Z-0.867
G1 X54.465 Y27.271 Z-0.867
G1 X54.537 Y27.222 Z-0.867
G1 X54.605 Y27.167 Z-0.867
G1 X54.667 Y27.105 Z-0.867
G1 X54.722 Y27.037 Z-0.867
G1 X54.771 Y26.965 Z-0.867
G1 X54.811 Y26.889 Z-0.867
G1 X54.844 Y26.812 Z-0.867
G1 X54.869 Y26.733 Z-0.867
G1 X54.887 Y26.654 Z-0.867
G1 X54.897 Y26.576 Z-0.867
G1 X54.900 Y26.500 Z-0.867
G1 X54.900 Y20.350 Z-0.867
G1 X54.897 Y20.274 Z-0.867
G1 X54.887 Y20.196 Z-0.867
G1 X54.869 Y20.117 Z-0.867
G1 X54.844 Y20.038 Z-0.867
G1 X54.811 Y19.961 Z-0.867
G1 X54.771 Y19.885 Z-0.867
G1 X54.722 Y19.813 Z-0.867
G1 X54.667 Y19.745 Z-0.867
G1 X54.605 Y19.683 Z-0.867
G1 X54.537 Y19.628 Z-0.867
G1 X54.465 Y19.579 Z-0.867
G1 X54.389 Y19.539 Z-0.867
G1 X54.312 Y19.506 Z-0.867
G1 X54.233 Y19.481 Z-0.867
G1 X54.154 Y19.463 Z-0.867
G1 X54.076 Y19.453 Z-0.867
G1 X54.000 Y19.450 Z-0.867
G1 X49.700 Y19.450 Z-0.867
G1 X49.436 Y19.714 Z-0.867
G1 X49.700 Y19.450 Z-0.867
G1 X49.700 Y16.250 Z-0.867
G1 X49.436 Y15.986 Z-0.867
G1 X49.700 Y16.250 Z-0.867
G1 X54.000 Y16.250 Z-0.867
G1 X54.076 Y16.247 Z-0.867
G1 X54.154 Y16.237 Z-0.867
G1 X54.233 Y16.219 Z-0.867
G1 X54.312 Y16.194 Z-0.867
G1 X54.389 Y16.161 Z-0.867
G1 X54.465 Y16.121 Z-0.867
G1 X54.537 Y16.072 Z-0.867
G1 X54.605 Y16.017 Z-0.867
G1 X54.667 Y15.955 Z-0.867
G1 X54.722 Y15.887 Z-0.867
G1 X54.771 Y15.815 Z-0.867
G1 X54.811 Y15.739 Z-0.867
G1 X54.844 Y15.662 Z-0.867
G1 X54.869 Y15.583 Z-0.867
G1 X54.887 Y15.504 Z-0.867
G1 X54.897 Y15.426 Z-0.867
G1 X54.900 Y15.350 Z-0.867
G1 X54.900 Y12.675 Z-0.867
G1 X54.900 Y6.675 Z-0.867
G1 X54.900 Y4.000 Z-0.867
G1 X54.897 Y3.924 Z-0.867
G1 X54.887 Y3.848 Z-0.867
G1 X54.870 Y3.771 Z-0.867
G1 X54.847 Y3.695 Z-0.867
G1 X54.816 Y3.620 Z-0.867
G1 X54.779 Y3.549 Z-0.867
G1 X54.735 Y3.480 Z-0.867
G1 X54.685 Y3.416 Z-0.867
G1 X54.630 Y3.357 Z-0.867
G1 X54.571 Y3.304 Z-0.867
G1 X54.508 Y3.257 Z-0.867
G1 X54.442 Y3.216 Z-0.867
G1 X54.375 Y3.182 Z-0.867
G1 X54.304 Y3.153 Z-0.867
G1 X54.230 Y3.130 Z-0.867
G1 X54.154 Y3.113 Z-0.867
G1 X54.077 Y3.103 Z-0.867
G1 X54.000 Y3.100 Z-0.867
G1 X48.800 Y3.100 Z-0.867
G1 X48.400 Y3.100 Z-0.867
G1 X42.650 Y3.100 Z-0.867
G1 X42.574 Y3.103 Z-0.867
G1 X42.496 Y3.113 Z-0.867
G1 X42.417 Y3.131 Z-0.867
G1 X42.338 Y3.156 Z-0.867
G1 X42.261 Y3.189 Z-0.867
G1 X42.185 Y3.229 Z-0.867
G1 X42.113 Y3.278 Z-0.867
G1 X42.045 Y3.333 Z-0.867
G1 X41.983 Y3.395 Z-0.867
G1 X41.928 Y3.463 Z-0.867
G1 X41.879 Y3.535 Z-0.867
G1 X41.839 Y3.611 Z-0.867
G1 X41.806 Y3.688 Z-0.867
G1 X41.781 Y3.767 Z-0.867
G1 X41.763 Y3.846 Z-0.867
G1 X41.753 Y3.924 Z-0.867
G1 X41.750 Y4.000 Z-0.867
G1 X41.750 Y8.300 Z-0.867
G1 X42.014 Y8.564 Z-0.867
G1 X41.750 Y8.300 Z-0.867
G1 X38.550 Y8.300 Z-0.867
G1 X38.286 Y8.564 Z-0.867
G1 X38.550 Y8.300 Z-0.867
G1 X38.550 Y4.000 Z-0.867
G1 X38.547 Y3.924 Z-0.867
G1 X38.537 Y3.846 Z-0.867
G1 X38.519 Y3.767 Z-0.867
G1 X38.494 Y3.688 Z-0.867
G1 X38.461 Y3.611 Z-0.867
G1 X38.421 Y3.535 Z-0.867
G1 X38.372 Y3.463 Z-0.867
G1 X38.317 Y3.395 Z-0.867
G1 X38.255 Y3.333 Z-0.867
G1 X38.187 Y3.278 Z-0.867
G1 X38.115 Y3.229 Z-0.867
G1 X38.039 Y3.189 Z-0.867
G1 X37.962 Y3.156 Z-0.867
G1 X37.883 Y3.131 Z-0.867
G1 X37.804 Y3.113 Z-0.867
G1 X37.726 Y3.103 Z-0.867
G1 X37.650 Y3.100 Z-0.867
G1 X31.500 Y3.100 Z-0.867
G1 X31.424 Y3.103 Z-0.867
G1 X31.346 Y3.113 Z-0.867
G1 X31.267 Y3.131 Z-0.867
G1 X31.188 Y3.156 Z-0.867
G1 X31.111 Y3.189 Z-0.867
G1 X31.035 Y3.229 Z-0.867
G1 X30.963 Y3.278 Z-0.867
G1 X30.895 Y3.333 Z-0.867
G1 X30.833 Y3.395 Z-0.867
G1 X30.778 Y3.463 Z-0.867
G1 X30.729 Y3.535 Z-0.867
G1 X30.689 Y3.611 Z-0.867
G1 X30.656 Y3.688 Z-0.867
G1 X30.631 Y3.767 Z-0.867
G1 X30.613 Y3.846 Z-0.867
G1 X30.603 Y3.924 Z-0.867
G1 X30.600 Y4.000 Z-0.867
G1 X30.600 Y8.300 Z-0.867
G1 X30.864 Y8.564 Z-0.867
G1 X30.600 Y8.300 Z-0.867
G1 X27.400 Y8.300 Z-0.867
G1 X27.136 Y8.564 Z-0.867
G1 X27.400 Y8.300 Z-0.867
G1 X27.400 Y7.019 Z-0.867
G1 X27.400 Y4.000 Z-0.867
G1 X27.397 Y3.924 Z-0.867
G1 X27.387 Y3.846 Z-0.867
G1 X27.369 Y3.767 Z-0.867
G1 X27.344 Y3.688 Z-0.867
G1 X27.311 Y3.611 Z-0.867
G1 X27.271 Y3.535 Z-0.867
G1 X27.222 Y3.463 Z-0.867
G1 X27.167 Y3.395 Z-0.867
G1 X27.105 Y3.333 Z-0.867
G1 X27.037 Y3.278 Z-0.867
G1 X26.965 Y3.229 Z-0.867
G1 X26.889 Y3.189 Z-0.867
G1 X26.812 Y3.156 Z-0.867
G1 X26.733 Y3.131 Z-0.867
G1 X26.654 Y3.113 Z-0.867
G1 X26.576 Y3.103 Z-0.867
G1 X26.500 Y3.100 Z-0.867
G1 X20.350 Y3.100 Z-0.867
G1 X20.274 Y3.103 Z-0.867
G1 X20.196 Y3.113 Z-0.867
G1 X20.117 Y3.131 Z-0.867
G1 X20.038 Y3.156 Z-0.867
G1 X19.961 Y3.189 Z-0.867
G1 X19.885 Y3.229 Z-0.867
G1 X19.813 Y3.278 Z-0.867
G1 X19.745 Y3.333 Z-0.867
G1 X19.683 Y3.395 Z-0.867
G1 X19.628 Y3.463 Z-0.867
G1 X19.579 Y3.535 Z-0.867
G1 X19.539 Y3.611 Z-0.867
G1 X19.506 Y3.688 Z-0.867
G1 X19.481 Y3.767 Z-0.867
G1 X19.463 Y3.846 Z-0.867
G1 X19.453 Y3.924 Z-0.867
G1 X19.450 Y4.000 Z-0.867
G1 X19.450 Y8.300 Z-0.867
G1 X19.714 Y8.564 Z-0.867
G1 X19.450 Y8.300 Z-0.867
G1 X16.250 Y8.300 Z-0.867
G1 X15.986 Y8.564 Z-0.867
G1 X16.250 Y8.300 Z-0.867
G1 X16.250 Y4.000 Z-0.867
G1 X16.247 Y3.924 Z-0.867
G1 X16.237 Y3.846 Z-0.867
G1 X16.219 Y3.767 Z-0.867
G1 X16.194 Y3.688 Z-0.867
G1 X16.161 Y3.611 Z-0.867
G1 X16.121 Y3.535 Z-0.867
G1 X16.072 Y3.463 Z-0.867
G1 X16.017 Y3.395 Z-0.867
G1 X15.955 Y3.333 Z-0.867
G1 X15.887 Y3.278 Z-0.867
G1 X15.815 Y3.229 Z-0.867
G1 X15.739 Y3.189 Z-0.867
G1 X15.662 Y3.156 Z-0.867
G1 X15.583 Y3.131 Z-0.867
G1 X15.504 Y3.113 Z-0.867
G1 X15.426 Y3.103 Z-0.867
G1 X15.350 Y3.100 Z-0.867
G1 X12.675 Y3.100 Z-0.867
G1 X6.675 Y3.100 Z-0.867
G1 X4.000 Y3.100 Z-0.867
G1 X3.924 Y3.103 Z-0.867
G1 X3.848 Y3.113 Z-0.867
G1 X3.771 Y3.130 Z-0.867
G1 X3.695 Y3.153 Z-0.867
G1 X3.620 Y3.184 Z-0.867
G1 X3.549 Y3.221 Z-0.867
G1 X3.480 Y3.265 Z-0.867
G1 X3.416 Y3.315 Z-0.867
G1 X3.357 Y3.370 Z-0.867
G1 X3.304 Y3.429 Z-0.867
G1 X3.257 Y3.492 Z-0.867
G1 X3.216 Y3.558 Z-0.867
G1 X3.182 Y3.625 Z-0.867
G1 X3.153 Y3.696 Z-0.867
G1 X3.130 Y3.770 Z-0.867
G1 X3.113 Y3.846 Z-0.867
G1 X3.103 Y3.923 Z-0.867
G1 X3.100 Y4.000 Z-0.867
G1 X3.100 Y9.200 Z-0.867
G1 X3.100 Y9.600 Z-0.867
G1 X3.100 Y15.350 Z-0.867
G1 X3.103 Y15.426 Z-0.867
G1 X3.113 Y15.504 Z-0.867
G1 X3.131 Y15.583 Z-0.867
G1 X3.156 Y15.662 Z-0.867
G1 X3.189 Y15.739 Z-0.867
G1 X3.229 Y15.815 Z-0.867
G1 X3.278 Y15.887 Z-0.867
G1 X3.333 Y15.955 Z-0.867
G1 X3.395 Y16.017 Z-0.867
G1 X3.463 Y16.072 Z-0.867
G1 X3.535 Y16.121 Z-0.867
G1 X3.611 Y16.161 Z-0.867
G1 X3.688 Y16.194 Z-0.867
G1 X3.767 Y16.219 Z-0.867
G1 X3.846 Y16.237 Z-0.867
G1 X3.924 Y16.247 Z-0.867
G1 X4.000 Y16.250 Z-0.867
G1 X8.300 Y16.250 Z-0.867
G1 X8.564 Y15.986 Z-0.867
G1 X8.300 Y16.250 Z-0.867
G1 X8.300 Y19.450 Z-0.867
G1 X8.564 Y19.714 Z-0.867
G1 X8.300 Y19.450 Z-0.867
G1 X4.000 Y19.450 Z-0.867
G1 X3.924 Y19.453 Z-0.867
G1 X3.846 Y19.463 Z-0.867
G1 X3.767 Y19.481 Z-0.867
G1 X3.688 Y19.506 Z-0.867
G1 X3.611 Y19.539 Z-0.867
G1 X3.535 Y19.579 Z-0.867
G1 X3.463 Y19.628 Z-0.867
G1 X3.395 Y19.683 Z-0.867
G1 X3.333 Y19.745 Z-0.867
G1 X3.278 Y19.813 Z-0.867
G1 X3.229 Y19.885 Z-0.867
G1 X3.189 Y19.961 Z-0.867
G1 X3.156 Y20.038 Z-0.867
G1 X3.131 Y20.117 Z-0.867
G1 X3.113 Y20.196 Z-0.867
G1 X3.103 Y20.274 Z-0.867
G1 X3.100 Y20.350 Z-0.867
G1 X3.100 Y26.500 Z-0.867
G1 X3.103 Y26.576 Z-0.867
G1 X3.113 Y26.654 Z-0.867
G1 X3.131 Y26.733 Z-0.867
G1 X3.156 Y26.812 Z-0.867
G1 X3.189 Y26.889 Z-0.867
G1 X3.229 Y26.965 Z-0.867
G1 X3.278 Y27.037 Z-0.867
G1 X3.333 Y27.105 Z-0.867
G1 X3.395 Y27.167 Z-0.867
G1 X3.463 Y27.222 Z-0.867
G1 X3.535 Y27.271 Z-0.867
G1 X3.611 Y27.311 Z-0.867
G1 X3.688 Y27.344 Z-0.867
G1 X3.767 Y27.369 Z-0.867
G1 X3.846 Y27.387 Z-0.867
G1 X3.924 Y27.397 Z-0.867
G1 X4.000 Y27.400 Z-0.867
G1 X8.300 Y27.400 Z-0.867
G1 X8.564 Y27.136 Z-0.867
G1 X8.300 Y27.400 Z-0.867
G1 X8.300 Y30.600 Z-0.867
G1 X8.564 Y30.864 Z-0.867
G1 X8.300 Y30.600 Z-0.867
G1 X4.000 Y30.600 Z-0.867
G1 X3.924 Y30.603 Z-0.867
G1 X3.846 Y30.613 Z-0.867
G1 X3.767 Y30.631 Z-0.867
G1 X3.688 Y30.656 Z-0.867
G1 X3.611 Y30.689 Z-0.867
G1 X3.535 Y30.729 Z-0.867
G1 X3.463 Y30.778 Z-0.867
G1 X3.395 Y30.833 Z-0.867
G1 X3.333 Y30.895 Z-0.867
G1 X3.278 Y30.963 Z-0.867
G1 X3.229 Y31.035 Z-0.867
G1 X3.189 Y31.111 Z-0.867
G1 X3.156 Y31.188 Z-0.867
G1 X3.131 Y31.267 Z-0.867
G1 X3.113 Y31.346 Z-0.867
G1 X3.103 Y31.424 Z-0.867
G1 X3.100 Y31.500 Z-0.867
G1 X3.100 Y37.650 Z-0.867
G1 X3.103 Y37.726 Z-0.867
G1 X3.113 Y37.804 Z-0.867
G1 X3.131 Y37.883 Z-0.867
G1 X3.156 Y37.962 Z-0.867
G1 X3.189 Y38.039 Z-0.867
G1 X3.229 Y38.115 Z-0.867
G1 X3.278 Y38.187 Z-0.867
G1 X3.333 Y38.255 Z-0.867
G1 X3.395 Y38.317 Z-0.867
G1 X3.463 Y38.372 Z-0.867
G1 X3.535 Y38.421 Z-0.867
G1 X3.611 Y38.461 Z-0.867
G1 X3.688 Y38.494 Z-0.867
G1 X3.767 Y38.519 Z-0.867
G1 X3.846 Y38.537 Z-0.867
G1 X3.924 Y38.547 Z-0.867
G1 X4.000 Y38.550 Z-0.867
G1 X7.234 Y38.550 Z-0.867
G1 X8.300 Y38.550 Z-0.867
G1 X8.564 Y38.286 Z-0.867
G1 X8.300 Y38.550 Z-0.867
G1 X8.300 Y41.750 Z-0.867
G1 X8.564 Y42.014 Z-0.867
G1 X8.300 Y41.750 Z-0.867
G1 X4.000 Y41.750 Z-0.867
G1 X3.924 Y41.753 Z-0.867
G1 X3.846 Y41.763 Z-0.867
G1 X3.767 Y41.781 Z-0.867
G1 X3.688 Y41.806 Z-0.867
G1 X3.611 Y41.839 Z-0.867
G1 X3.535 Y41.879 Z-0.867
G1 X3.463 Y41.928 Z-0.867
G1 X3.395 Y41.983 Z-0.867
G1 X3.333 Y42.045 Z-0.867
G1 X3.278 Y42.113 Z-0.867
G1 X3.229 Y42.185 Z-0.867
G1 X3.189 Y42.261 Z-0.867
G1 X3.156 Y42.338 Z-0.867
G1 X3.131 Y42.417 Z-0.867
G1 X3.113 Y42.496 Z-0.867
G1 X3.103 Y42.574 Z-0.867
G1 X3.100 Y42.650 Z-0.867
G1 X3.100 Y45.325 Z-0.867
G1 X3.100 Y51.325 Z-0.867
G1 X3.100 Y54.000 Z-0.867
G1 X3.103 Y54.076 Z-0.867
G1 X3.113 Y54.152 Z-0.867
G1 X3.130 Y54.229 Z-0.867
G1 X3.153 Y54.305 Z-0.867
G1 X3.184 Y54.380 Z-0.867
G1 X3.221 Y54.451 Z-0.867
G1 X3.265 Y54.520 Z-0.867
G1 X3.315 Y54.584 Z-0.867
G1 X3.370 Y54.643 Z-0.867
G1 X3.429 Y54.696 Z-0.867
G1 X3.492 Y54.743 Z-0.867
G1 X3.558 Y54.784 Z-0.867
G1 X3.625 Y54.818 Z-0.867
G1 X3.696 Y54.847 Z-0.867
G1 X3.770 Y54.870 Z-0.867
G1 X3.846 Y54.887 Z-0.867
G1 X3.923 Y54.897 Z-0.867
G1 X4.000 Y54.900 Z-0.867
G1 X9.200 Y54.900 Z-0.867
G1 X9.600 Y54.900 Z-0.867
G1 X15.350 Y54.900 Z-0.867
G1 X15.426 Y54.897 Z-0.867
G1 X15.504 Y54.887 Z-0.867
G1 X15.583 Y54.869 Z-0.867
G1 X15.662 Y54.844 Z-0.867
G1 X15.739 Y54.811 Z-0.867
G1 X15.815 Y54.771 Z-0.867
G1 X15.887 Y54.722 Z-0.867
G1 X15.955 Y54.667 Z-0.867
G1 X16.017 Y54.605 Z-0.867
G1 X16.072 Y54.537 Z-0.867
G1 X16.121 Y54.465 Z-0.867
G1 X16.161 Y54.389 Z-0.867
G1 X16.194 Y54.312 Z-0.867
G1 X16.219 Y54.233 Z-0.867
G1 X16.237 Y54.154 Z-0.867
G1 X16.247 Y54.076 Z-0.867
G1 X16.250 Y54.000 Z-0.867
G1 X16.250 Y51.920 Z-0.867
G1 X16.250 Y49.700 Z-0.886 F250.0
G1 X15.986 Y49.436 Z-0.889
G1 X16.250 Y49.700 Z-0.892
G1 X19.450 Y49.700 Z-0.920
G1 X19.714 Y49.436 Z-0.923
G1 X19.450 Y49.700 Z-0.927
G1 X19.450 Y54.000 Z-0.964
G1 X19.453 Y54.076 Z-0.965
G1 X19.463 Y54.154 Z-0.965
G1 X19.481 Y54.233 Z-0.966
G1 X19.506 Y54.312 Z-0.967
G1 X19.539 Y54.389 Z-0.967
G1 X19.579 Y54.465 Z-0.968
G1 X19.628 Y54.537 Z-0.969
G1 X19.683 Y54.605 Z-0.970
G1 X19.745 Y54.667 Z-0.970
G1 X19.813 Y54.722 Z-0.971
G1 X19.885 Y54.771 Z-0.972
G1 X19.961 Y54.811 Z-0.972
G1 X20.038 Y54.844 Z-0.973
G1 X20.117 Y54.869 Z-0.974
G1 X20.196 Y54.887 Z-0.975
G1 X20.274 Y54.897 Z-0.975
G1 X20.350 Y54.900 Z-0.976
G1 X26.500 Y54.900 Z-1.029
G1 X26.576 Y54.897 Z-1.030
G1 X26.654 Y54.887 Z-1.031
G1 X26.733 Y54.869 Z-1.032
G1 X26.812 Y54.844 Z-1.032
G1 X26.889 Y54.811 Z-1.033
G1 X26.965 Y54.771 Z-1.034
G1 X27.037 Y54.722 Z-1.034
G1 X27.105 Y54.667 Z-1.035
G1 X27.167 Y54.605 Z-1.036
G1 X27.222 Y54.537 Z-1.037
G1 X27.271 Y54.465 Z-1.037
G1 X27.311 Y54.389 Z-1.038
G1 X27.344 Y54.312 Z-1.039
G1 X27.369 Y54.233 Z-1.039
G1 X27.387 Y54.154 Z-1.040
G1 X27.397 Y54.076 Z-1.041
G1 X27.400 Y54.000 Z-1.042
G1 X27.400 Y49.700 Z-1.079
G1 X27.136 Y49.436 Z-1.082
G1 X27.400 Y49.700 Z-1.085
G1 X30.600 Y49.700 Z-1.113
G1 X30.864 Y49.436 Z-1.116
G1 X30.600 Y49.700 Z-1.120
G1 X30.600 Y54.000 Z-1.157
G1 X30.603 Y54.076 Z-1.158
G1 X30.613 Y54.154 Z-1.158
G1 X30.631 Y54.233 Z-1.159
G1 X30.656 Y54.312 Z-1.160
G1 X30.689 Y54.389 Z-1.160
G1 X30.729 Y54.465 Z-1.161
G1 X30.778 Y54.537 Z-1.162
G1 X30.833 Y54.605 Z-1.163
G1 X30.895 Y54.667 Z-1.163
G1 X30.963 Y54.722 Z-1.164
G1 X31.035 Y54.771 Z-1.165
G1 X31.111 Y54.811 Z-1.165
G1 X31.188 Y54.844 Z-1.166
G1 X31.267 Y54.869 Z-1.167
G1 X31.346 Y54.887 Z-1.168
G1 X31.424 Y54.897 Z-1.168
G1 X31.500 Y54.900 Z-1.169
G1 X37.650 Y54.900 Z-1.222
G1 X37.726 Y54.897 Z-1.223
G1 X37.804 Y54.887 Z-1.224
G1 X37.883 Y54.869 Z-1.225
G1 X37.962 Y54.844 Z-1.225
G1 X38.039 Y54.811 Z-1.226
G1 X38.115 Y54.771 Z-1.227
G1 X38.187 Y54.722 Z-1.227
G1 X38.255 Y54.667 Z-1.228
G1 X38.317 Y54.605 Z-1.229
G1 X38.372 Y54.537 Z-1.230
G1 X38.421 Y54.465 Z-1.230
G1 X38.461 Y54.389 Z-1.231
G1 X38.494 Y54.312 Z-1.232
G1 X38.519 Y54.233 Z-1.232
G1 X38.537 Y54.154 Z-1.233
G1 X38.547 Y54.076 Z-1.234
G1 X38.550 Y54.000 Z-1.235
G1 X38.550 Y49.700 Z-1.272
G1 X38.286 Y49.436 Z-1.275
G1 X38.550 Y49.700 Z-1.278
G1 X41.750 Y49.700 Z-1.306
G1 X42.014 Y49.436 Z-1.309
G1 X41.750 Y49.700 Z-1.313
G1 X41.750 Y54.000 Z-1.350
G1 X41.753 Y54.076 Z-1.351
G1 X41.763 Y54.154 Z-1.351
G1 X41.781 Y54.233 Z-1.352
G1 X41.806 Y54.312 Z-1.353
G1 X41.839 Y54.389 Z-1.353
G1 X41.879 Y54.465 Z-1.354
G1 X41.928 Y54.537 Z-1.355
G1 X41.983 Y54.605 Z-1.356
G1 X42.045 Y54.667 Z-1.356
G1 X42.113 Y54.722 Z-1.357
G1 X42.185 Y54.771 Z-1.358
G1 X42.261 Y54.811 Z-1.358
G1 X42.338 Y54.844 Z-1.359
G1 X42.417 Y54.869 Z-1.360
G1 X42.496 Y54.887 Z-1.361
G1 X42.574 Y54.897 Z-1.361
G1 X42.650 Y54.900 Z-1.362
G1 X45.325 Y54.900 Z-1.385
G1 X46.410 Y54.900 Z-1.395
G1 X51.325 Y54.900 Z-1.437
G1 X54.000 Y54.900 Z-1.460
G1 X54.076 Y54.897 Z-1.461
G1 X54.152 Y54.887 Z-1.462
G1 X54.229 Y54.870 Z-1.462
G1 X54.305 Y54.847 Z-1.463
G1 X54.380 Y54.816 Z-1.464
G1 X54.451 Y54.779 Z-1.465
G1 X54.520 Y54.735 Z-1.465
G1 X54.584 Y54.685 Z-1.466
G1 X54.643 Y54.630 Z-1.467
G1 X54.696 Y54.571 Z-1.467
G1 X54.743 Y54.508 Z-1.468
G1 X54.784 Y54.442 Z-1.469
G1 X54.818 Y54.375 Z-1.469
G1 X54.847 Y54.304 Z-1.470
G1 X54.870 Y54.230 Z-1.471
G1 X54.887 Y54.154 Z-1.471
G1 X54.897 Y54.077 Z-1.472
G1 X54.900 Y54.000 Z-1.473
G1 X54.900 Y48.800 Z-1.518
G1 X54.900 Y48.400 Z-1.521
G1 X54.900 Y42.650 Z-1.571
G1 X54.897 Y42.574 Z-1.572
G1 X54.887 Y42.496 Z-1.572
G1 X54.869 Y42.417 Z-1.573
G1 X54.844 Y42.338 Z-1.574
G1 X54.811 Y42.261 Z-1.575
G1 X54.771 Y42.185 Z-1.575
G1 X54.722 Y42.113 Z-1.576
G1 X54.667 Y42.045 Z-1.577
G1 X54.605 Y41.983 Z-1.578
G1 X54.537 Y41.928 Z-1.578
G1 X54.465 Y41.879 Z-1.579
G1 X54.389 Y41.839 Z-1.580
G1 X54.312 Y41.806 Z-1.580
G1 X54.233 Y41.781 Z-1.581
G1 X54.154 Y41.763 Z-1.582
G1 X54.076 Y41.753 Z-1.583
G1 X54.000 Y41.750 Z-1.583
G1 X49.700 Y41.750 Z-1.621
G1 X49.436 Y42.014 Z-1.624
G1 X49.700 Y41.750 Z-1.627
G1 X49.700 Y38.550 Z-1.655
G1 X49.436 Y38.286 Z-1.658
G1 X49.700 Y38.550 Z-1.661
G1 X54.000 Y38.550 Z-1.698
G1 X54.076 Y38.547 Z-1.699
G1 X54.154 Y38.537 Z-1.700
G1 X54.233 Y38.519 Z-1.701
G1 X54.312 Y38.494 Z-1.701
G1 X54.389 Y38.461 Z-1.702
G1 X54.465 Y38.421 Z-1.703
G1 X54.537 Y38.372 Z-1.704
G1 X54.605 Y38.317 Z-1.704
G1 X54.667 Y38.255 Z-1.705
G1 X54.722 Y38.187 Z-1.706
G1 X54.771 Y38.115 Z-1.706
G1 X54.811 Y38.039 Z-1.707
G1 X54.844 Y37.962 Z-1.708
G1 X54.869 Y37.883 Z-1.709
G1 X54.887 Y37.804 Z-1.709
G1 X54.897 Y37.726 Z-1.710
G1 X54.900 Y37.650 Z-1.711
G1 X54.900 Y35.044 Z-1.733
G1 X54.900 Y31.500 Z-1.733 F180.0
G1 X54.897 Y31.424 Z-1.733
G1 X54.887 Y31.346 Z-1.733
G1 X54.869 Y31.267 Z-1.733
G1 X54.844 Y31.188 Z-1.733
G1 X54.811 Y31.111 Z-1.733
G1 X54.771 Y31.035 Z-1.733
G1 X54.722 Y30.963 Z-1.733
G1 X54.667 Y30.895 Z-1.733
G1 X54.605 Y30.833 Z-1.733
G1 X54.537 Y30.778 Z-1.733
G1 X54.465 Y30.729 Z-1.733
G1 X54.389 Y30.689 Z-1.733
G1 X54.312 Y30.656 Z-1.733
G1 X54.233 Y30.631 Z-1.733
G1 X54.154 Y30.613 Z-1.733
G1 X54.076 Y30.603 Z-1.733
G1 X54.000 Y30.600 Z-1.733
G1 X49.700 Y30.600 Z-1.733
G1 X49.436 Y30.864 Z-1.733
G1 X49.700 Y30.600 Z-1.733
G1 X49.700 Y27.400 Z-1.733
G1 X49.436 Y27.136 Z-1.733
G1 X49.700 Y27.400 Z-1.733
G1 X54.000 Y27.400 Z-1.733
G1 X54.076 Y27.397 Z-1.733
G1 X54.154 Y27.387 Z-1.733
G1 X54.233 Y27.369 Z-1.733
G1 X54.312 Y27.344 Z-1.733
G1 X54.389 Y27.311 Z-1.733
G1 X54.465 Y27.271 Z-1.733
G1 X54.537 Y27.222 Z-1.733
G1 X54.605 Y27.167 Z-1.733
G1 X54.667 Y27.105 Z-1.733
G1 X54.722 Y27.037 Z-1.733
G1 X54.771 Y26.965 Z-1.733
G1 X54.811 Y26.889 Z-1.733
G1 X54.844 Y26.812 Z-1.733
G1 X54.869 Y26.733 Z-1.733
G1 X54.887 Y26.654 Z-1.733
G1 X54.897 Y26.576 Z-1.733
G1 X54.900 Y26.500 Z-1.733
G1 X54.900 Y20.350 Z-1.733
G1 X54.897 Y20.274 Z-1.733
G1 X54.887 Y20.196 Z-1.733
G1 X54.869 Y20.117 Z-1.733
G1 X54.844 Y20.038 Z-1.733
G1 X54.811 Y19.961 Z-1.733
G1 X54.771 Y19.885 Z-1.733
G1 X54.722 Y19.813 Z-1.733
G1 X54.667 Y19.745 Z-1.733
G1 X54.605 Y19.683 Z-1.733
G1 X54.537 Y19.628 Z-1.733
G1 X54.465 Y19.579 Z-1.733
G1 X54.389 Y19.539 Z-1.733
G1 X54.312 Y19.506 Z-1.733
G1 X54.233 Y19.481 Z-1.733
G1 X54.154 Y19.463 Z-1.733
G1 X54.076 Y19.453 Z-1.733
G1 X54.000 Y19.450 Z-1.733
G1 X49.700 Y19.450 Z-1.733
G1 X49.436 Y19.714 Z-1.733
G1 X49.700 Y19.450 Z-1.733
G1 X49.700 Y16.250 Z-1.733
G1 X49.436 Y15.986 Z-1.733
G1 X49.700 Y16.250 Z-1.733
G1 X54.000 Y16.250 Z-1.733
G1 X54.076 Y16.247 Z-1.733
G1 X54.154 Y16.237 Z-1.733
G1 X54.233 Y16.219 Z-1.733
G1 X54.312 Y16.194 Z-1.733
G1 X54.389 Y16.161 Z-1.733
G1 X54.465 Y16.121 Z-1.733
G1 X54.537 Y16.072 Z-1.733
G1 X54.605 Y16.017 Z-1.733
G1 X54.667 Y15.955 Z-1.733
G1 X54.722 Y15.887 Z-1.733
G1 X54.771 Y15.815 Z-1.733
G1 X54.811 Y15.739 Z-1.733
G1 X54.844 Y15.662 Z-1.733
G1 X54.869 Y15.583 Z-1.733
G1 X54.887 Y15.504 Z-1.733
G1 X54.897 Y15.426 Z-1.733
G1 X54.900 Y15.350 Z-1.733
G1 X54.900 Y12.675 Z-1.733
G1 X54.900 Y6.675 Z-1.733
G1 X54.900 Y4.000 Z-1.733
G1 X54.897 Y3.924 Z-1.733
G1 X54.887 Y3.848 Z-1.733
G1 X54.870 Y3.771 Z-1.733
G1 X54.847 Y3.695 Z-1.733
G1 X54.816 Y3.620 Z-1.733
G1 X54.779 Y3.549 Z-1.733
G1 X54.735 Y3.480 Z-1.733
G1 X54.685 Y3.416 Z-1.733
G1 X54.630 Y3.357 Z-1.733
G1 X54.571 Y3.304 Z-1.733
G1 X54.508 Y3.257 Z-1.733
G1 X54.442 Y3.216 Z-1.733
G1 X54.375 Y3.182 Z-1.733
G1 X54.304 Y3.153 Z-1.733
G1 X54.230 Y3.130 Z-1.733
G1 X54.154 Y3.113 Z-1.733
G1 X54.077 Y3.103 Z-1.733
G1 X54.000 Y3.100 Z-1.733
G1 X48.800 Y3.100 Z-1.733
G1 X48.400 Y3.100 Z-1.733
G1 X42.650 Y3.100 Z-1.733
G1 X42.574 Y3.103 Z-1.733
G1 X42.496 Y3.113 Z-1.733
G1 X42.417 Y3.131 Z-1.733
G1 X42.338 Y3.156 Z-1.733
G1 X42.261 Y3.189 Z-1.733
G1 X42.185 Y3.229 Z-1.733
G1 X42.113 Y3.278 Z-1.733
G1 X42.045 Y3.333 Z-1.733
G1 X41.983 Y3.395 Z-1.733
G1 X41.928 Y3.463 Z-1.733
G1 X41.879 Y3.535 Z-1.733
G1 X41.839 Y3.611 Z-1.733
G1 X41.806 Y3.688 Z-1.733
G1 X41.781 Y3.767 Z-1.733
G1 X41.763 Y3.846 Z-1.733
G1 X41.753 Y3.924 Z-1.733
G1 X41.750 Y4.000 Z-1.733
G1 X41.750 Y8.300 Z-1.733
G1 X42.014 Y8.564 Z-1.733
G1 X41.750 Y8.300 Z-1.733
G1 X38.550 Y8.300 Z-1.733
G1 X38.286 Y8.564 Z-1.733
G1 X38.550 Y8.300 Z-1.733
G1 X38.550 Y4.000 Z-1.733
G1 X38.547 Y3.924 Z-1.733
G1 X38.537 Y3.846 Z-1.733
G1 X38.519 Y3.767 Z-1.733
G1 X38.494 Y3.688 Z-1.733
G1 X38.461 Y3.611 Z-1.733
G1 X38.421 Y3.535 Z-1.733
G1 X38.372 Y3.463 Z-1.733
G1 X38.317 Y3.395 Z-1.733
G1 X38.255 Y3.333 Z-1.733
G1 X38.187 Y3.278 Z-1.733
G1 X38.115 Y3.229 Z-1.733
G1 X38.039 Y3.189 Z-1.733
G1 X37.962 Y3.156 Z-1.733
G1 X37.883 Y3.131 Z-1.733
G1 X37.804 Y3.113 Z-1.733
G1 X37.726 Y3.103 Z-1.733
G1 X37.650 Y3.100 Z-1.733
G1 X31.500 Y3.100 Z-1.733
G1 X31.424 Y3.103 Z-1.733
G1 X31.346 Y3.113 Z-1.733
G1 X31.267 Y3.131 Z-1.733
G1 X31.188 Y3.156 Z-1.733
G1 X31.111 Y3.189 Z-1.733
G1 X31.035 Y3.229 Z-1.733
G1 X30.963 Y3.278 Z-1.733
G1 X30.895 Y3.333 Z-1.733
G1 X30.833 Y3.395 Z-1.733
G1 X30.778 Y3.463 Z-1.733
G1 X30.729 Y3.535 Z-1.733
G1 X30.689 Y3.611 Z-1.733
G1 X30.656 Y3.688 Z-1.733
G1 X30.631 Y3.767 Z-1.733
G1 X30.613 Y3.846 Z-1.733
G1 X30.603 Y3.924 Z-1.733
G1 X30.600 Y4.000 Z-1.733
G1 X30.600 Y8.300 Z-1.733
G1 X30.864 Y8.564 Z-1.733
G1 X30.600 Y8.300 Z-1.733
G1 X27.400 Y8.300 Z-1.733
G1 X27.136 Y8.564 Z-1.733
G1 X27.400 Y8.300 Z-1.733
G1 X27.400 Y7.019 Z-1.733
G1 X27.400 Y4.000 Z-1.733
G1 X27.397 Y3.924 Z-1.733
G1 X27.387 Y3.846 Z-1.733
G1 X27.369 Y3.767 Z-1.733
G1 X27.344 Y3.688 Z-1.733
G1 X27.311 Y3.611 Z-1.733
G1 X27.271 Y3.535 Z-1.733
G1 X27.222 Y3.463 Z-1.733
G1 X27.167 Y3.395 Z-1.733
G1 X27.105 Y3.333 Z-1.733
G1 X27.037 Y3.278 Z-1.733
G1 X26.965 Y3.229 Z-1.733
G1 X26.889 Y3.189 Z-1.733
G1 X26.812 Y3.156 Z-1.733
G1 X26.733 Y3.131 Z-1.733
G1 X26.654 Y3.113 Z-1.733
G1 X26.576 Y3.103 Z-1.733
G1 X26.500 Y3.100 Z-1.733
G1 X20.350 Y3.100 Z-1.733
G1 X20.274 Y3.103 Z-1.733
G1 X20.196 Y3.113 Z-1.733
G1 X20.117 Y3.131 Z-1.733
G1 X20.038 Y3.156 Z-1.733
G1 X19.961 Y3.189 Z-1.733
G1 X19.885 Y3.229 Z-1.733
G1 X19.813 Y3.278 Z-1.733
G1 X19.745 Y3.333 Z-1.733
G1 X19.683 Y3.395 Z-1.733
G1 X19.628 Y3.463 Z-1.733
G1 X19.579 Y3.535 Z-1.733
G1 X19.539 Y3.611 Z-1.733
G1 X19.506 Y3.688 Z-1.733
G1 X19.481 Y3.767 Z-1.733
G1 X19.463 Y3.846 Z-1.733
G1 X19.453 Y3.924 Z-1.733
G1 X19.450 Y4.000 Z-1.733
G1 X19.450 Y8.300 Z-1.733
G1 X19.714 Y8.564 Z-1.733
G1 X19.450 Y8.300 Z-1.733
G1 X16.250 Y8.300 Z-1.733
G1 X15.986 Y8.564 Z-1.733
G1 X16.250 Y8.300 Z-1.733
G1 X16.250 Y4.000 Z-1.733
G1 X16.247 Y3.924 Z-1.733
G1 X16.237 Y3.846 Z-1.733
G1 X16.219 Y3.767 Z-1.733
G1 X16.194 Y3.688 Z-1.733
G1 X16.161 Y3.611 Z-1.733
G1 X16.121 Y3.535 Z-1.733
G1 X16.072 Y3.463 Z-1.733
G1 X16.017 Y3.395 Z-1.733
G1 X15.955 Y3.333 Z-1.733
G1 X15.887 Y3.278 Z-1.733
G1 X15.815 Y3.229 Z-1.733
G1 X15.739 Y3.189 Z-1.733
G1 X15.662 Y3.156 Z-1.733
G1 X15.583 Y3.131 Z-1.733
G1 X15.504 Y3.113 Z-1.733
G1 X15.426 Y3.103 Z-1.733
G1 X15.350 Y3.100 Z-1.733
G1 X12.675 Y3.100 Z-1.733
G1 X6.675 Y3.100 Z-1.733
G1 X4.000 Y3.100 Z-1.733
G1 X3.924 Y3.103 Z-1.733
G1 X3.848 Y3.113 Z-1.733
G1 X3.771 Y3.130 Z-1.733
G1 X3.695 Y3.153 Z-1.733
G1 X3.620 Y3.184 Z-1.733
G1 X3.549 Y3.221 Z-1.733
G1 X3.480 Y3.265 Z-1.733
G1 X3.416 Y3.315 Z-1.733
G1 X3.357 Y3.370 Z-1.733
G1 X3.304 Y3.429 Z-1.733
G1 X3.257 Y3.492 Z-1.733
G1 X3.216 Y3.558 Z-1.733
G1 X3.182 Y3.625 Z-1.733
G1 X3.153 Y3.696 Z-1.733
G1 X3.130 Y3.770 Z-1.733
G1 X3.113 Y3.846 Z-1.733
G1 X3.103 Y3.923 Z-1.733
G1 X3.100 Y4.000 Z-1.733
G1 X3.100 Y9.200 Z-1.733
G1 X3.100 Y9.600 Z-1.733
G1 X3.100 Y15.350 Z-1.733
G1 X3.103 Y15.426 Z-1.733
G1 X3.113 Y15.504 Z-1.733
G1 X3.131 Y15.583 Z-1.733
G1 X3.156 Y15.662 Z-1.733
G1 X3.189 Y15.739 Z-1.733
G1 X3.229 Y15.815 Z-1.733
G1 X3.278 Y15.887 Z-1.733
G1 X3.333 Y15.955 Z-1.733
G1 X3.395 Y16.017 Z-1.733
G1 X3.463 Y16.072 Z-1.733
G1 X3.535 Y16.121 Z-1.733
G1 X3.611 Y16.161 Z-1.733
G1 X3.688 Y16.194 Z-1.733
G1 X3.767 Y16.219 Z-1.733
G1 X3.846 Y16.237 Z-1.733
G1 X3.924 Y16.247 Z-1.733
G1 X4.000 Y16.250 Z-1.733
G1 X8.300 Y16.250 Z-1.733
G1 X8.564 Y15.986 Z-1.733
G1 X8.300 Y16.250 Z-1.733
G1 X8.300 Y19.450 Z-1.733
G1 X8.564 Y19.714 Z-1.733
G1 X8.300 Y19.450 Z-1.733
G1 X4.000 Y19.450 Z-1.733
G1 X3.924 Y19.453 Z-1.733
G1 X3.846 Y19.463 Z-1.733
G1 X3.767 Y19.481 Z-1.733
G1 X3.688 Y19.506 Z-1.733
G1 X3.611 Y19.539 Z-1.733
G1 X3.535 Y19.579 Z-1.733
G1 X3.463 Y19.628 Z-1.733
G1 X3.395 Y19.683 Z-1.733
G1 X3.333 Y19.745 Z-1.733
G1 X3.278 Y19.813 Z-1.733
G1 X3.229 Y19.885 Z-1.733
G1 X3.189 Y19.961 Z-1.733
G1 X3.156 Y20.038 Z-1.733
G1 X3.131 Y20.117 Z-1.733
G1 X3.113 Y20.196 Z-1.733
G1 X3.103 Y20.274 Z-1.733
G1 X3.100 Y20.350 Z-1.733
G1 X3.100 Y26.500 Z-1.733
G1 X3.103 Y26.576 Z-1.733
G1 X3.113 Y26.654 Z-1.733
G1 X3.131 Y26.733 Z-1.733
G1 X3.156 Y26.812 Z-1.733
G1 X3.189 Y26.889 Z-1.733
G1 X3.229 Y26.965 Z-1.733
G1 X3.278 Y27.037 Z-1.733
G1 X3.333 Y27.105 Z-1.733
G1 X3.395 Y27.167 Z-1.733
G1 X3.463 Y27.222 Z-1.733
G1 X3.535 Y27.271 Z-1.733
G1 X3.611 Y27.311 Z-1.733
G1 X3.688 Y27.344 Z-1.733
G1 X3.767 Y27.369 Z-1.733
G1 X3.846 Y27.387 Z-1.733
G1 X3.924 Y27.397 Z-1.733
G1 X4.000 Y27.400 Z-1.733
G1 X8.300 Y27.400 Z-1.733
G1 X8.564 Y27.136 Z-1.733
G1 X8.300 Y27.400 Z-1.733
G1 X8.300 Y30.600 Z-1.733
G1 X8.564 Y30.864 Z-1.733
G1 X8.300 Y30.600 Z-1.733
G1 X4.000 Y30.600 Z-1.733
G1 X3.924 Y30.603 Z-1.733
G1 X3.846 Y30.613 Z-1.733
G1 X3.767 Y30.631 Z-1.733
G1 X3.688 Y30.656 Z-1.733
G1 X3.611 Y30.689 Z-1.733
G1 X3.535 Y30.729 Z-1.733
G1 X3.463 Y30.778 Z-1.733
G1 X3.395 Y30.833 Z-1.733
G1 X3.333 Y30.895 Z-1.733
G1 X3.278 Y30.963 Z-1.733
G1 X3.229 Y31.035 Z-1.733
G1 X3.189 Y31.111 Z-1.733
G1 X3.156 Y31.188 Z-1.733
G1 X3.131 Y31.267 Z-1.733
G1 X3.113 Y31.346 Z-1.733
G1 X3.103 Y31.424 Z-1.733
G1 X3.100 Y31.500 Z-1.733
G1 X3.100 Y37.650 Z-1.733
G1 X3.103 Y37.726 Z-1.733
G1 X3.113 Y37.804 Z-1.733
G1 X3.131 Y37.883 Z-1.733
G1 X3.156 Y37.962 Z-1.733
G1 X3.189 Y38.039 Z-1.733
G1 X3.229 Y38.115 Z-1.733
G1 X3.278 Y38.187 Z-1.733
G1 X3.333 Y38.255 Z-1.733
G1 X3.395 Y38.317 Z-1.733
G1 X3.463 Y38.372 Z-1.733
G1 X3.535 Y38.421 Z-1.733
G1 X3.611 Y38.461 Z-1.733
G1 X3.688 Y38.494 Z-1.733
G1 X3.767 Y38.519 Z-1.733
G1 X3.846 Y38.537 Z-1.733
G1 X3.924 Y38.547 Z-1.733
G1 X4.000 Y38.550 Z-1.733
G1 X7.234 Y38.550 Z-1.733
G1 X8.300 Y38.550 Z-1.733
G1 X8.564 Y38.286 Z-1.733
G1 X8.300 Y38.550 Z-1.733
G1 X8.300 Y41.750 Z-1.733
G1 X8.564 Y42.014 Z-1.733
G1 X8.300 Y41.750 Z-1.733
G1 X4.000 Y41.750 Z-1.733
G1 X3.924 Y41.753 Z-1.733
G1 X3.846 Y41.763 Z-1.733
G1 X3.767 Y41.781 Z-1.733
G1 X3.688 Y41.806 Z-1.733
G1 X3.611 Y41.839 Z-1.733
G1 X3.535 Y41.879 Z-1.733
G1 X3.463 Y41.928 Z-1.733
G1 X3.395 Y41.983 Z-1.733
G1 X3.333 Y42.045 Z-1.733
G1 X3.278 Y42.113 Z-1.733
G1 X3.229 Y42.185 Z-1.733
G1 X3.189 Y42.261 Z-1.733
G1 X3.156 Y42.338 Z-1.733
G1 X3.131 Y42.417 Z-1.733
G1 X3.113 Y42.496 Z-1.733
G1 X3.103 Y42.574 Z-1.733
G1 X3.100 Y42.650 Z-1.733
G1 X3.100 Y45.325 Z-1.733
G1 X3.100 Y51.325 Z-1.733
G1 X3.100 Y54.000 Z-1.733
G1 X3.103 Y54.076 Z-1.733
G1 X3.113 Y54.152 Z-1.733
G1 X3.130 Y54.229 Z-1.733
G1 X3.153 Y54.305 Z-1.733
G1 X3.184 Y54.380 Z-1.733
G1 X3.221 Y54.451 Z-1.733
G1 X3.265 Y54.520 Z-1.733
G1 X3.315 Y54.584 Z-1.733
G1 X3.370 Y54.643 Z-1.733
G1 X3.429 Y54.696 Z-1.733
G1 X3.492 Y54.743 Z-1.733
G1 X3.558 Y54.784 Z-1.733
G1 X3.625 Y54.818 Z-1.733
G1 X3.696 Y54.847 Z-1.733
G1 X3.770 Y54.870 Z-1.733
G1 X3.846 Y54.887 Z-1.733
G1 X3.923 Y54.897 Z-1.733
G1 X4.000 Y54.900 Z-1.733
G1 X9.200 Y54.900 Z-1.733
G1 X9.600 Y54.900 Z-1.733
G1 X15.350 Y54.900 Z-1.733
G1 X15.426 Y54.897 Z-1.733
G1 X15.504 Y54.887 Z-1.733
G1 X15.583 Y54.869 Z-1.733
G1 X15.662 Y54.844 Z-1.733
G1 X15.739 Y54.811 Z-1.733
G1 X15.815 Y54.771 Z-1.733
G1 X15.887 Y54.722 Z-1.733
G1 X15.955 Y54.667 Z-1.733
G1 X16.017 Y54.605 Z-1.733
G1 X16.072 Y54.537 Z-1.733
G1 X16.121 Y54.465 Z-1.733
G1 X16.161 Y54.389 Z-1.733
G1 X16.194 Y54.312 Z-1.733
G1 X16.219 Y54.233 Z-1.733
G1 X16.237 Y54.154 Z-1.733
G1 X16.247 Y54.076 Z-1.733
G1 X16.250 Y54.000 Z-1.733
G1 X16.250 Y51.920 Z-1.733
G1 X16.250 Y49.700 Z-1.733
G1 X15.986 Y49.436 Z-1.733
G1 X16.250 Y49.700 Z-1.733
G1 X19.450 Y49.700 Z-1.733
G1 X19.714 Y49.436 Z-1.733
G1 X19.450 Y49.700 Z-1.733
G1 X19.450 Y54.000 Z-1.733
G1 X19.453 Y54.076 Z-1.733
G1 X19.463 Y54.154 Z-1.733
G1 X19.481 Y54.233 Z-1.733
G1 X19.506 Y54.312 Z-1.733
G1 X19.539 Y54.389 Z-1.733
G1 X19.579 Y54.465 Z-1.733
G1 X19.628 Y54.537 Z-1.733
G1 X19.683 Y54.605 Z-1.733
G1 X19.745 Y54.667 Z-1.733
G1 X19.813 Y54.722 Z-1.733
G1 X19.885 Y54.771 Z-1.733
G1 X19.961 Y54.811 Z-1.733
G1 X20.038 Y54.844 Z-1.733
G1 X20.117 Y54.869 Z-1.733
G1 X20.196 Y54.887 Z-1.733
G1 X20.274 Y54.897 Z-1.733
G1 X20.350 Y54.900 Z-1.733
G1 X26.500 Y54.900 Z-1.733
G1 X26.576 Y54.897 Z-1.733
G1 X26.654 Y54.887 Z-1.733
G1 X26.733 Y54.869 Z-1.733
G1 X26.812 Y54.844 Z-1.733
G1 X26.889 Y54.811 Z-1.733
G1 X26.965 Y54.771 Z-1.733
G1 X27.037 Y54.722 Z-1.733
G1 X27.105 Y54.667 Z-1.733
G1 X27.167 Y54.605 Z-1.733
G1 X27.222 Y54.537 Z-1.733
G1 X27.271 Y54.465 Z-1.733
G1 X27.311 Y54.389 Z-1.733
G1 X27.344 Y54.312 Z-1.733
G1 X27.369 Y54.233 Z-1.733
G1 X27.387 Y54.154 Z-1.733
G1 X27.397 Y54.076 Z-1.733
G1 X27.400 Y54.000 Z-1.733
G1 X27.400 Y49.700 Z-1.733
G1 X27.136 Y49.436 Z-1.733
G1 X27.400 Y49.700 Z-1.733
G1 X30.600 Y49.700 Z-1.733
G1 X30.864 Y49.436 Z-1.733
G1 X30.600 Y49.700 Z-1.733
G1 X30.600 Y54.000 Z-1.733
G1 X30.603 Y54.076 Z-1.733
G1 X30.613 Y54.154 Z-1.733
G1 X30.631 Y54.233 Z-1.733
G1 X30.656 Y54.312 Z-1.733
G1 X30.689 Y54.389 Z-1.733
G1 X30.729 Y54.465 Z-1.733
G1 X30.778 Y54.537 Z-1.733
G1 X30.833 Y54.605 Z-1.733
G1 X30.895 Y54.667 Z-1.733
G1 X30.963 Y54.722 Z-1.733
G1 X31.035 Y54.771 Z-1.733
G1 X31.111 Y54.811 Z-1.733
G1 X31.188 Y54.844 Z-1.733
G1 X31.267 Y54.869 Z-1.733
G1 X31.346 Y54.887 Z-1.733
G1 X31.424 Y54.897 Z-1.733
G1 X31.500 Y54.900 Z-1.733
G1 X37.650 Y54.900 Z-1.733
G1 X37.726 Y54.897 Z-1.733
G1 X37.804 Y54.887 Z-1.733
G1 X37.883 Y54.869 Z-1.733
G1 X37.962 Y54.844 Z-1.733
G1 X38.039 Y54.811 Z-1.733
G1 X38.115 Y54.771 Z-1.733
G1 X38.187 Y54.722 Z-1.733
G1 X38.255 Y54.667 Z-1.733
G1 X38.317 Y54.605 Z-1.733
G1 X38.372 Y54.537 Z-1.733
G1 X38.421 Y54.465 Z-1.733
G1 X38.461 Y54.389 Z-1.733
G1 X38.494 Y54.312 Z-1.733
G1 X38.519 Y54.233 Z-1.733
G1 X38.537 Y54.154 Z-1.733
G1 X38.547 Y54.076 Z-1.733
G1 X38.550 Y54.000 Z-1.733
G1 X38.550 Y49.700 Z-1.733
G1 X38.286 Y49.436 Z-1.733
G1 X38.550 Y49.700 Z-1.733
G1 X41.750 Y49.700 Z-1.733
G1 X42.014 Y49.436 Z-1.733
G1 X41.750 Y49.700 Z-1.733
G1 X41.750 Y54.000 Z-1.733
G1 X41.753 Y54.076 Z-1.733
G1 X41.763 Y54.154 Z-1.733
G1 X41.781 Y54.233 Z-1.733
G1 X41.806 Y54.312 Z-1.733
G1 X41.839 Y54.389 Z-1.733
G1 X41.879 Y54.465 Z-1.733
G1 X41.928 Y54.537 Z-1.733
G1 X41.983 Y54.605 Z-1.733
G1 X42.045 Y54.667 Z-1.733
G1 X42.113 Y54.722 Z-1.733
G1 X42.185 Y54.771 Z-1.733
G1 X42.261 Y54.811 Z-1.733
G1 X42.338 Y54.844 Z-1.733
G1 X42.417 Y54.869 Z-1.733
G1 X42.496 Y54.887 Z-1.733
G1 X42.574 Y54.897 Z-1.733
G1 X42.650 Y54.900 Z-1.733
G1 X45.325 Y54.900 Z-1.733
G1 X46.410 Y54.900 Z-1.733
G1 X51.325 Y54.900 Z-1.733
G1 X54.000 Y54.900 Z-1.733
G1 X54.076 Y54.897 Z-1.733
G1 X54.152 Y54.887 Z-1.733
G1 X54.229 Y54.870 Z-1.733
G1 X54.305 Y54.847 Z-1.733
G1 X54.380 Y54.816 Z-1.733
G1 X54.451 Y54.779 Z-1.733
G1 X54.520 Y54.735 Z-1.733
G1 X54.584 Y54.685 Z-1.733
G1 X54.643 Y54.630 Z-1.733
G1 X54.696 Y54.571 Z-1.733
G1 X54.743 Y54.508 Z-1.733
G1 X54.784 Y54.442 Z-1.733
G1 X54.818 Y54.375 Z-1.733
G1 X54.847 Y54.304 Z-1.733
G1 X54.870 Y54.230 Z-1.733
G1 X54.887 Y54.154 Z-1.733
G1 X54.897 Y54.077 Z-1.733
G1 X54.900 Y54.000 Z-1.733
G1 X54.900 Y48.800 Z-1.733
G1 X54.900 Y48.400 Z-1.733
G1 X54.900 Y42.650 Z-1.733
G1 X54.897 Y42.574 Z-1.733
G1 X54.887 Y42.496 Z-1.733
G1 X54.869 Y42.417 Z-1.733
G1 X54.844 Y42.338 Z-1.733
G1 X54.811 Y42.261 Z-1.733
G1 X54.771 Y42.185 Z-1.733
G1 X54.722 Y42.113 Z-1.733
G1 X54.667 Y42.045 Z-1.733
G1 X54.605 Y41.983 Z-1.733
G1 X54.537 Y41.928 Z-1.733
G1 X54.465 Y41.879 Z-1.733
G1 X54.389 Y41.839 Z-1.733
G1 X54.312 Y41.806 Z-1.733
G1 X54.233 Y41.781 Z-1.733
G1 X54.154 Y41.763 Z-1.733
G1 X54.076 Y41.753 Z-1.733
G1 X54.000 Y41.750 Z-1.733
G1 X49.700 Y41.750 Z-1.733
G1 X49.436 Y42.014 Z-1.733
G1 X49.700 Y41.750 Z-1.733
G1 X49.700 Y38.550 Z-1.733
G1 X49.436 Y38.286 Z-1.733
G1 X49.700 Y38.550 Z-1.733
G1 X54.000 Y38.550 Z-1.733
G1 X54.076 Y38.547 Z-1.733
G1 X54.154 Y38.537 Z-1.733
G1 X54.233 Y38.519 Z-1.733
G1 X54.312 Y38.494 Z-1.733
G1 X54.389 Y38.461 Z-1.733
G1 X54.465 Y38.421 Z-1.733
G1 X54.537 Y38.372 Z-1.733
G1 X54.605 Y38.317 Z-1.733
G1 X54.667 Y38.255 Z-1.733
G1 X54.722 Y38.187 Z-1.733
G1 X54.771 Y38.115 Z-1.733
G1 X54.811 Y38.039 Z-1.733
G1 X54.844 Y37.962 Z-1.733
G1 X54.869 Y37.883 Z-1.733
G1 X54.887 Y37.804 Z-1.733
G1 X54.897 Y37.726 Z-1.733
G1 X54.900 Y37.650 Z-1.733
G1 X54.900 Y35.044 Z-1.733
G1 X54.900 Y31.500 Z-1.764 F250.0
G1 X54.897 Y31.424 Z-1.765
G1 X54.887 Y31.346 Z-1.765
G1 X54.869 Y31.267 Z-1.766
G1 X54.844 Y31.188 Z-1.767
G1 X54.811 Y31.111 Z-1.768
G1 X54.771 Y31.035 Z-1.768
G1 X54.722 Y30.963 Z-1.769
G1 X54.667 Y30.895 Z-1.770
G1 X54.605 Y30.833 Z-1.771
G1 X54.537 Y30.778 Z-1.771
G1 X54.465 Y30.729 Z-1.772
G1 X54.389 Y30.689 Z-1.773
G1 X54.312 Y30.656 Z-1.773
G1 X54.233 Y30.631 Z-1.774
G1 X54.154 Y30.613 Z-1.775
G1 X54.076 Y30.603 Z-1.776
G1 X54.000 Y30.600 Z-1.776
G1 X49.700 Y30.600 Z-1.814
G1 X49.436 Y30.864 Z-1.817
G1 X49.700 Y30.600 Z-1.820
G1 X49.700 Y27.400 Z-1.848
G1 X49.436 Y27.136 Z-1.851
G1 X49.700 Y27.400 Z-1.854
G1 X54.000 Y27.400 Z-1.891
G1 X54.076 Y27.397 Z-1.892
G1 X54.154 Y27.387 Z-1.893
G1 X54.233 Y27.369 Z-1.894
G1 X54.312 Y27.344 Z-1.894
G1 X54.389 Y27.311 Z-1.895
G1 X54.465 Y27.271 Z-1.896
G1 X54.537 Y27.222 Z-1.897
G1 X54.605 Y27.167 Z-1.897
G1 X54.667 Y27.105 Z-1.898
G1 X54.722 Y27.037 Z-1.899
G1 X54.771 Y26.965 Z-1.899
G1 X54.811 Y26.889 Z-1.900
G1 X54.844 Y26.812 Z-1.901
G1 X54.869 Y26.733 Z-1.902
G1 X54.887 Y26.654 Z-1.902
G1 X54.897 Y26.576 Z-1.903
G1 X54.900 Y26.500 Z-1.904
G1 X54.900 Y20.350 Z-1.957
G1 X54.897 Y20.274 Z-1.958
G1 X54.887 Y20.196 Z-1.958
G1 X54.869 Y20.117 Z-1.959
G1 X54.844 Y20.038 Z-1.960
G1 X54.811 Y19.961 Z-1.961
G1 X54.771 Y19.885 Z-1.961
G1 X54.722 Y19.813 Z-1.962
G1 X54.667 Y19.745 Z-1.963
G1 X54.605 Y19.683 Z-1.964
G1 X54.537 Y19.628 Z-1.964
G1 X54.465 Y19.579 Z-1.965
G1 X54.389 Y19.539 Z-1.966
G1 X54.312 Y19.506 Z-1.966
G1 X54.233 Y19.481 Z-1.967
G1 X54.154 Y19.463 Z-1.968
G1 X54.076 Y19.453 Z-1.969
G1 X54.000 Y19.450 Z-1.969
G1 X49.700 Y19.450 Z-2.007
G1 X49.436 Y19.714 Z-2.010
G1 X49.700 Y19.450 Z-2.013
G1 X49.700 Y16.250 Z-2.041
G1 X49.436 Y15.986 Z-2.044
G1 X49.700 Y16.250 Z-2.047
G1 X54.000 Y16.250 Z-2.084
G1 X54.076 Y16.247 Z-2.085
G1 X54.154 Y16.237 Z-2.086
G1 X54.233 Y16.219 Z-2.087
G1 X54.312 Y16.194 Z-2.087
G1 X54.389 Y16.161 Z-2.088
G1 X54.465 Y16.121 Z-2.089
G1 X54.537 Y16.072 Z-2.090
G1 X54.605 Y16.017 Z-2.090
G1 X54.667 Y15.955 Z-2.091
G1 X54.722 Y15.887 Z-2.092
G1 X54.771 Y15.815 Z-2.092
G1 X54.811 Y15.739 Z-2.093
G1 X54.844 Y15.662 Z-2.094
G1 X54.869 Y15.583 Z-2.095
G1 X54.887 Y15.504 Z-2.095
G1 X54.897 Y15.426 Z-2.096
G1 X54.900 Y15.350 Z-2.097
G1 X54.900 Y12.675 Z-2.120
G1 X54.900 Y6.675 Z-2.172
G1 X54.900 Y4.000 Z-2.195
G1 X54.897 Y3.924 Z-2.196
G1 X54.887 Y3.848 Z-2.196
G1 X54.870 Y3.771 Z-2.197
G1 X54.847 Y3.695 Z-2.198
G1 X54.816 Y3.620 Z-2.199
G1 X54.779 Y3.549 Z-2.199
G1 X54.735 Y3.480 Z-2.200
G1 X54.685 Y3.416 Z-2.201
G1 X54.630 Y3.357 Z-2.201
G1 X54.571 Y3.304 Z-2.202
G1 X54.508 Y3.257 Z-2.203
G1 X54.442 Y3.216 Z-2.203
G1 X54.375 Y3.182 Z-2.204
G1 X54.304 Y3.153 Z-2.205
G1 X54.230 Y3.130 Z-2.205
G1 X54.154 Y3.113 Z-2.206
G1 X54.077 Y3.103 Z-2.207
G1 X54.000 Y3.100 Z-2.207
G1 X48.800 Y3.100 Z-2.252
G1 X48.400 Y3.100 Z-2.256
G1 X42.650 Y3.100 Z-2.306
G1 X42.574 Y3.103 Z-2.306
G1 X42.496 Y3.113 Z-2.307
G1 X42.417 Y3.131 Z-2.308
G1 X42.338 Y3.156 Z-2.309
G1 X42.261 Y3.189 Z-2.309
G1 X42.185 Y3.229 Z-2.310
G1 X42.113 Y3.278 Z-2.311
G1 X42.045 Y3.333 Z-2.311
G1 X41.983 Y3.395 Z-2.312
G1 X41.928 Y3.463 Z-2.313
G1 X41.879 Y3.535 Z-2.314
G1 X41.839 Y3.611 Z-2.314
G1 X41.806 Y3.688 Z-2.315
G1 X41.781 Y3.767 Z-2.316
G1 X41.763 Y3.846 Z-2.317
G1 X41.753 Y3.924 Z-2.317
G1 X41.750 Y4.000 Z-2.318
G1 X41.750 Y8.300 Z-2.355
G1 X42.014 Y8.564 Z-2.358
G1 X41.750 Y8.300 Z-2.362
G1 X38.550 Y8.300 Z-2.389
G1 X38.286 Y8.564 Z-2.393
G1 X38.550 Y8.300 Z-2.396
G1 X38.550 Y4.000 Z-2.433
G1 X38.547 Y3.924 Z-2.434
G1 X38.537 Y3.846 Z-2.435
G1 X38.519 Y3.767 Z-2.435
G1 X38.494 Y3.688 Z-2.436
G1 X38.461 Y3.611 Z-2.437
G1 X38.421 Y3.535 Z-2.437
G1 X38.372 Y3.463 Z-2.438
G1 X38.317 Y3.395 Z-2.439
G1 X38.255 Y3.333 Z-2.440
G1 X38.187 Y3.278 Z-2.440
G1 X38.115 Y3.229 Z-2.441
G1 X38.039 Y3.189 Z-2.442
G1 X37.962 Y3.156 Z-2.443
G1 X37.883 Y3.131 Z-2.443
G1 X37.804 Y3.113 Z-2.444
G1 X37.726 Y3.103 Z-2.445
G1 X37.650 Y3.100 Z-2.445
G1 X31.500 Y3.100 Z-2.499
G1 X31.424 Y3.103 Z-2.499
G1 X31.346 Y3.113 Z-2.500
G1 X31.267 Y3.131 Z-2.501
G1 X31.188 Y3.156 Z-2.502
G1 X31.111 Y3.189 Z-2.502
G1 X31.035 Y3.229 Z-2.503
G1 X30.963 Y3.278 Z-2.504
G1 X30.895 Y3.333 Z-2.504
G1 X30.833 Y3.395 Z-2.505
G1 X30.778 Y3.463 Z-2.506
G1 X30.729 Y3.535 Z-2.507
G1 X30.689 Y3.611 Z-2.507
G1 X30.656 Y3.688 Z-2.508
G1 X30.631 Y3.767 Z-2.509
G1 X30.613 Y3.846 Z-2.510
G1 X30.603 Y3.924 Z-2.510
G1 X30.600 Y4.000 Z-2.511
G1 X30.600 Y8.300 Z-2.548
G1 X30.864 Y8.564 Z-2.551
G1 X30.600 Y8.300 Z-2.555
G1 X27.400 Y8.300 Z-2.582
G1 X27.136 Y8.564 Z-2.586
G1 X27.400 Y8.300 Z-2.589
G1 X27.400 Y7.019 Z-2.600
G1 X27.400 Y4.000 Z-2.600 F180.0
G1 X27.397 Y3.924 Z-2.600
G1 X27.387 Y3.846 Z-2.600
G1 X27.369 Y3.767 Z-2.600
G1 X27.344 Y3.688 Z-2.600
G1 X27.311 Y3.611 Z-2.600
G1 X27.271 Y3.535 Z-2.600
G1 X27.222 Y3.463 Z-2.600
G1 X27.167 Y3.395 Z-2.600
G1 X27.105 Y3.333 Z-2.600
G1 X27.037 Y3.278 Z-2.600
G1 X26.965 Y3.229 Z-2.600
G1 X26.889 Y3.189 Z-2.600
G1 X26.812 Y3.156 Z-2.600
G1 X26.733 Y3.131 Z-2.600
G1 X26.654 Y3.113 Z-2.600
G1 X26.576 Y3.103 Z-2.600
G1 X26.500 Y3.100 Z-2.600
G1 X20.350 Y3.100 Z-2.600
G1 X20.274 Y3.103 Z-2.600
G1 X20.196 Y3.113 Z-2.600
G1 X20.117 Y3.131 Z-2.600
G1 X20.038 Y3.156 Z-2.600
G1 X19.961 Y3.189 Z-2.600
G1 X19.885 Y3.229 Z-2.600
G1 X19.813 Y3.278 Z-2.600
G1 X19.745 Y3.333 Z-2.600
G1 X19.683 Y3.395 Z-2.600
G1 X19.628 Y3.463 Z-2.600
G1 X19.579 Y3.535 Z-2.600
G1 X19.539 Y3.611 Z-2.600
G1 X19.506 Y3.688 Z-2.600
G1 X19.481 Y3.767 Z-2.600
G1 X19.463 Y3.846 Z-2.600
G1 X19.453 Y3.924 Z-2.600
G1 X19.450 Y4.000 Z-2.600
G1 X19.450 Y8.300 Z-2.600
G1 X19.714 Y8.564 Z-2.600
G1 X19.450 Y8.300 Z-2.600
G1 X16.250 Y8.300 Z-2.600
G1 X15.986 Y8.564 Z-2.600
G1 X16.250 Y8.300 Z-2.600
G1 X16.250 Y4.000 Z-2.600
G1 X16.247 Y3.924 Z-2.600
G1 X16.237 Y3.846 Z-2.600
G1 X16.219 Y3.767 Z-2.600
G1 X16.194 Y3.688 Z-2.600
G1 X16.161 Y3.611 Z-2.600
G1 X16.121 Y3.535 Z-2.600
G1 X16.072 Y3.463 Z-2.600
G1 X16.017 Y3.395 Z-2.600
G1 X15.955 Y3.333 Z-2.600
G1 X15.887 Y3.278 Z-2.600
G1 X15.815 Y3.229 Z-2.600
G1 X15.739 Y3.189 Z-2.600
G1 X15.662 Y3.156 Z-2.600
G1 X15.583 Y3.131 Z-2.600
G1 X15.504 Y3.113 Z-2.600
G1 X15.426 Y3.103 Z-2.600
G1 X15.350 Y3.100 Z-2.600
G1 X12.675 Y3.100 Z-2.600
G1 X6.675 Y3.100 Z-2.600
G1 X4.000 Y3.100 Z-2.600
G1 X3.924 Y3.103 Z-2.600
G1 X3.848 Y3.113 Z-2.600
G1 X3.771 Y3.130 Z-2.600
G1 X3.695 Y3.153 Z-2.600
G1 X3.620 Y3.184 Z-2.600
G1 X3.549 Y3.221 Z-2.600
G1 X3.480 Y3.265 Z-2.600
G1 X3.416 Y3.315 Z-2.600
G1 X3.357 Y3.370 Z-2.600
G1 X3.304 Y3.429 Z-2.600
G1 X3.257 Y3.492 Z-2.600
G1 X3.216 Y3.558 Z-2.600
G1 X3.182 Y3.625 Z-2.600
G1 X3.153 Y3.696 Z-2.600
G1 X3.130 Y3.770 Z-2.600
G1 X3.113 Y3.846 Z-2.600
G1 X3.103 Y3.923 Z-2.600
G1 X3.100 Y4.000 Z-2.600
G1 X3.100 Y9.200 Z-2.600
G1 X3.100 Y9.600 Z-2.600
G1 X3.100 Y15.350 Z-2.600
G1 X3.103 Y15.426 Z-2.600
G1 X3.113 Y15.504 Z-2.600
G1 X3.131 Y15.583 Z-2.600
G1 X3.156 Y15.662 Z-2.600
G1 X3.189 Y15.739 Z-2.600
G1 X3.229 Y15.815 Z-2.600
G1 X3.278 Y15.887 Z-2.600
G1 X3.333 Y15.955 Z-2.600
G1 X3.395 Y16.017 Z-2.600
G1 X3.463 Y16.072 Z-2.600
G1 X3.535 Y16.121 Z-2.600
G1 X3.611 Y16.161 Z-2.600
G1 X3.688 Y16.194 Z-2.600
G1 X3.767 Y16.219 Z-2.600
G1 X3.846 Y16.237 Z-2.600
G1 X3.924 Y16.247 Z-2.600
G1 X4.000 Y16.250 Z-2.600
G1 X8.300 Y16.250 Z-2.600
G1 X8.564 Y15.986 Z-2.600
G1 X8.300 Y16.250 Z-2.600
G1 X8.300 Y19.450 Z-2.600
G1 X8.564 Y19.714 Z-2.600
G1 X8.300 Y19.450 Z-2.600
G1 X4.000 Y19.450 Z-2.600
G1 X3.924 Y19.453 Z-2.600
G1 X3.846 Y19.463 Z-2.600
G1 X3.767 Y19.481 Z-2.600
G1 X3.688 Y19.506 Z-2.600
G1 X3.611 Y19.539 Z-2.600
G1 X3.535 Y19.579 Z-2.600
G1 X3.463 Y19.628 Z-2.600
G1 X3.395 Y19.683 Z-2.600
G1 X3.333 Y19.745 Z-2.600
G1 X3.278 Y19.813 Z-2.600
G1 X3.229 Y19.885 Z-2.600
G1 X3.189 Y19.961 Z-2.600
G1 X3.156 Y20.038 Z-2.600
G1 X3.131 Y20.117 Z-2.600
G1 X3.113 Y20.196 Z-2.600
G1 X3.103 Y20.274 Z-2.600
G1 X3.100 Y20.350 Z-2.600
G1 X3.100 Y26.500 Z-2.600
G1 X3.103 Y26.576 Z-2.600
G1 X3.113 Y26.654 Z-2.600
G1 X3.131 Y26.733 Z-2.600
G1 X3.156 Y26.812 Z-2.600
G1 X3.189 Y26.889 Z-2.600
G1 X3.229 Y26.965 Z-2.600
G1 X3.278 Y27.037 Z-2.600
G1 X3.333 Y27.105 Z-2.600
G1 X3.395 Y27.167 Z-2.600
G1 X3.463 Y27.222 Z-2.600
G1 X3.535 Y27.271 Z-2.600
G1 X3.611 Y27.311 Z-2.600
G1 X3.688 Y27.344 Z-2.600
G1 X3.767 Y27.369 Z-2.600
G1 X3.846 Y27.387 Z-2.600
G1 X3.924 Y27.397 Z-2.600
G1 X4.000 Y27.400 Z-2.600
G1 X8.300 Y27.400 Z-2.600
G1 X8.564 Y27.136 Z-2.600
G1 X8.300 Y27.400 Z-2.600
G1 X8.300 Y30.600 Z-2.600
G1 X8.564 Y30.864 Z-2.600
G1 X8.300 Y30.600 Z-2.600
G1 X4.000 Y30.600 Z-2.600
G1 X3.924 Y30.603 Z-2.600
G1 X3.846 Y30.613 Z-2.600
G1 X3.767 Y30.631 Z-2.600
G1 X3.688 Y30.656 Z-2.600
G1 X3.611 Y30.689 Z-2.600
G1 X3.535 Y30.729 Z-2.600
G1 X3.463 Y30.778 Z-2.600
G1 X3.395 Y30.833 Z-2.600
G1 X3.333 Y30.895 Z-2.600
G1 X3.278 Y30.963 Z-2.600
G1 X3.229 Y31.035 Z-2.600
G1 X3.189 Y31.111 Z-2.600
G1 X3.156 Y31.188 Z-2.600
G1 X3.131 Y31.267 Z-2.600
G1 X3.113 Y31.346 Z-2.600
G1 X3.103 Y31.424 Z-2.600
G1 X3.100 Y31.500 Z-2.600
G1 X3.100 Y37.650 Z-2.600
G1 X3.103 Y37.726 Z-2.600
G1 X3.113 Y37.804 Z-2.600
G1 X3.131 Y37.883 Z-2.600
G1 X3.156 Y37.962 Z-2.600
G1 X3.189 Y38.039 Z-2.600
G1 X3.229 Y38.115 Z-2.600
G1 X3.278 Y38.187 Z-2.600
G1 X3.333 Y38.255 Z-2.600
G1 X3.395 Y38.317 Z-2.600
G1 X3.463 Y38.372 Z-2.600
G1 X3.535 Y38.421 Z-2.600
G1 X3.611 Y38.461 Z-2.600
G1 X3.688 Y38.494 Z-2.600
G1 X3.767 Y38.519 Z-2.600
G1 X3.846 Y38.537 Z-2.600
G1 X3.924 Y38.547 Z-2.600
G1 X4.000 Y38.550 Z-2.600
G1 X7.234 Y38.550 Z-2.600
G1 X8.300 Y38.550 Z-2.600
G1 X8.564 Y38.286 Z-2.600
G1 X8.300 Y38.550 Z-2.600
G1 X8.300 Y41.750 Z-2.600
G1 X8.564 Y42.014 Z-2.600
G1 X8.300 Y41.750 Z-2.600
G1 X4.000 Y41.750 Z-2.600
G1 X3.924 Y41.753 Z-2.600
G1 X3.846 Y41.763 Z-2.600
G1 X3.767 Y41.781 Z-2.600
G1 X3.688 Y41.806 Z-2.600
G1 X3.611 Y41.839 Z-2.600
G1 X3.535 Y41.879 Z-2.600
G1 X3.463 Y41.928 Z-2.600
G1 X3.395 Y41.983 Z-2.600
G1 X3.333 Y42.045 Z-2.600
G1 X3.278 Y42.113 Z-2.600
G1 X3.229 Y42.185 Z-2.600
G1 X3.189 Y42.261 Z-2.600
G1 X3.156 Y42.338 Z-2.600
G1 X3.131 Y42.417 Z-2.600
G1 X3.113 Y42.496 Z-2.600
G1 X3.103 Y42.574 Z-2.600
G1 X3.100 Y42.650 Z-2.600
G1 X3.100 Y45.325 Z-2.600
G1 X3.100 Y51.325 Z-2.600
G1 X3.100 Y54.000 Z-2.600
G1 X3.103 Y54.076 Z-2.600
G1 X3.113 Y54.152 Z-2.600
G1 X3.130 Y54.229 Z-2.600
G1 X3.153 Y54.305 Z-2.600
G1 X3.184 Y54.380 Z-2.600
G1 X3.221 Y54.451 Z-2.600
G1 X3.265 Y54.520 Z-2.600
G1 X3.315 Y54.584 Z-2.600
G1 X3.370 Y54.643 Z-2.600
G1 X3.429 Y54.696 Z-2.600
G1 X3.492 Y54.743 Z-2.600
G1 X3.558 Y54.784 Z-2.600
G1 X3.625 Y54.818 Z-2.600
G1 X3.696 Y54.847 Z-2.600
G1 X3.770 Y54.870 Z-2.600
G1 X3.846 Y54.887 Z-2.600
G1 X3.923 Y54.897 Z-2.600
G1 X4.000 Y54.900 Z-2.600
G1 X9.200 Y54.900 Z-2.600
G1 X9.600 Y54.900 Z-2.600
G1 X15.350 Y54.900 Z-2.600
G1 X15.426 Y54.897 Z-2.600
G1 X15.504 Y54.887 Z-2.600
G1 X15.583 Y54.869 Z-2.600
G1 X15.662 Y54.844 Z-2.600
G1 X15.739 Y54.811 Z-2.600
G1 X15.815 Y54.771 Z-2.600
G1 X15.887 Y54.722 Z-2.600
G1 X15.955 Y54.667 Z-2.600
G1 X16.017 Y54.605 Z-2.600
G1 X16.072 Y54.537 Z-2.600
G1 X16.121 Y54.465 Z-2.600
G1 X16.161 Y54.389 Z-2.600
G1 X16.194 Y54.312 Z-2.600
G1 X16.219 Y54.233 Z-2.600
G1 X16.237 Y54.154 Z-2.600
G1 X16.247 Y54.076 Z-2.600
G1 X16.250 Y54.000 Z-2.600
G1 X16.250 Y51.920 Z-2.600
G1 X16.250 Y49.700 Z-2.600
G1 X15.986 Y49.436 Z-2.600
G1 X16.250 Y49.700 Z-2.600
G1 X19.450 Y49.700 Z-2.600
G1 X19.714 Y49.436 Z-2.600
G1 X19.450 Y49.700 Z-2.600
G1 X19.450 Y54.000 Z-2.600
G1 X19.453 Y54.076 Z-2.600
G1 X19.463 Y54.154 Z-2.600
G1 X19.481 Y54.233 Z-2.600
G1 X19.506 Y54.312 Z-2.600
G1 X19.539 Y54.389 Z-2.600
G1 X19.579 Y54.465 Z-2.600
G1 X19.628 Y54.537 Z-2.600
G1 X19.683 Y54.605 Z-2.600
G1 X19.745 Y54.667 Z-2.600
G1 X19.813 Y54.722 Z-2.600
G1 X19.885 Y54.771 Z-2.600
G1 X19.961 Y54.811 Z-2.600
G1 X20.038 Y54.844 Z-2.600
G1 X20.117 Y54.869 Z-2.600
G1 X20.196 Y54.887 Z-2.600
G1 X20.274 Y54.897 Z-2.600
G1 X20.350 Y54.900 Z-2.600
G1 X26.500 Y54.900 Z-2.600
G1 X26.576 Y54.897 Z-2.600
G1 X26.654 Y54.887 Z-2.600
G1 X26.733 Y54.869 Z-2.600
G1 X26.812 Y54.844 Z-2.600
G1 X26.889 Y54.811 Z-2.600
G1 X26.965 Y54.771 Z-2.600
G1 X27.037 Y54.722 Z-2.600
G1 X27.105 Y54.667 Z-2.600
G1 X27.167 Y54.605 Z-2.600
G1 X27.222 Y54.537 Z-2.600
G1 X27.271 Y54.465 Z-2.600
G1 X27.311 Y54.389 Z-2.600
G1 X27.344 Y54.312 Z-2.600
G1 X27.369 Y54.233 Z-2.600
G1 X27.387 Y54.154 Z-2.600
G1 X27.397 Y54.076 Z-2.600
G1 X27.400 Y54.000 Z-2.600
G1 X27.400 Y49.700 Z-2.600
G1 X27.136 Y49.436 Z-2.600
G1 X27.400 Y49.700 Z-2.600
G1 X30.600 Y49.700 Z-2.600
G1 X30.864 Y49.436 Z-2.600
G1 X30.600 Y49.700 Z-2.600
G1 X30.600 Y54.000 Z-2.600
G1 X30.603 Y54.076 Z-2.600
G1 X30.613 Y54.154 Z-2.600
G1 X30.631 Y54.233 Z-2.600
G1 X30.656 Y54.312 Z-2.600
G1 X30.689 Y54.389 Z-2.600
G1 X30.729 Y54.465 Z-2.600
G1 X30.778 Y54.537 Z-2.600
G1 X30.833 Y54.605 Z-2.600
G1 X30.895 Y54.667 Z-2.600
G1 X30.963 Y54.722 Z-2.600
G1 X31.035 Y54.771 Z-2.600
G1 X31.111 Y54.811 Z-2.600
G1 X31.188 Y54.844 Z-2.600
G1 X31.267 Y54.869 Z-2.600
G1 X31.346 Y54.887 Z-2.600
G1 X31.424 Y54.897 Z-2.600
G1 X31.500 Y54.900 Z-2.600
G1 X37.650 Y54.900 Z-2.600
G1 X37.726 Y54.897 Z-2.600
G1 X37.804 Y54.887 Z-2.600
G1 X37.883 Y54.869 Z-2.600
G1 X37.962 Y54.844 Z-2.600
G1 X38.039 Y54.811 Z-2.600
G1 X38.115 Y54.771 Z-2.600
G1 X38.187 Y54.722 Z-2.600
G1 X38.255 Y54.667 Z-2.600
G1 X38.317 Y54.605 Z-2.600
G1 X38.372 Y54.537 Z-2.600
G1 X38.421 Y54.465 Z-2.600
G1 X38.461 Y54.389 Z-2.600
G1 X38.494 Y54.312 Z-2.600
G1 X38.519 Y54.233 Z-2.600
G1 X38.537 Y54.154 Z-2.600
G1 X38.547 Y54.076 Z-2.600
G1 X38.550 Y54.000 Z-2.600
G1 X38.550 Y49.700 Z-2.600
G1 X38.286 Y49.436 Z-2.600
G1 X38.550 Y49.700 Z-2.600
G1 X41.750 Y49.700 Z-2.600
G1 X42.014 Y49.436 Z-2.600
G1 X41.750 Y49.700 Z-2.600
G1 X41.750 Y54.000 Z-2.600
G1 X41.753 Y54.076 Z-2.600
G1 X41.763 Y54.154 Z-2.600
G1 X41.781 Y54.233 Z-2.600
G1 X41.806 Y54.312 Z-2.600
G1 X41.839 Y54.389 Z-2.600
G1 X41.879 Y54.465 Z-2.600
G1 X41.928 Y54.537 Z-2.600
G1 X41.983 Y54.605 Z-2.600
G1 X42.045 Y54.667 Z-2.600
G1 X42.113 Y54.722 Z-2.600
G1 X42.185 Y54.771 Z-2.600
G1 X42.261 Y54.811 Z-2.600
G1 X42.338 Y54.844 Z-2.600
G1 X42.417 Y54.869 Z-2.600
G1 X42.496 Y54.887 Z-2.600
G1 X42.574 Y54.897 Z-2.600
G1 X42.650 Y54.900 Z-2.600
G1 X45.325 Y54.900 Z-2.600
G1 X46.410 Y54.900 Z-2.600
G1 X51.325 Y54.900 Z-2.600
G1 X54.000 Y54.900 Z-2.600
G1 X54.076 Y54.897 Z-2.600
G1 X54.152 Y54.887 Z-2.600
G1 X54.229 Y54.870 Z-2.600
G1 X54.305 Y54.847 Z-2.600
G1 X54.380 Y54.816 Z-2.600
G1 X54.451 Y54.779 Z-2.600
G1 X54.520 Y54.735 Z-2.600
G1 X54.584 Y54.685 Z-2.600
G1 X54.643 Y54.630 Z-2.600
G1 X54.696 Y54.571 Z-2.600
G1 X54.743 Y54.508 Z-2.600
G1 X54.784 Y54.442 Z-2.600
G1 X54.818 Y54.375 Z-2.600
G1 X54.847 Y54.304 Z-2.600
G1 X54.870 Y54.230 Z-2.600
G1 X54.887 Y54.154 Z-2.600
G1 X54.897 Y54.077 Z-2.600
G1 X54.900 Y54.000 Z-2.600
G1 X54.900 Y48.800 Z-2.600
G1 X54.900 Y48.400 Z-2.600
G1 X54.900 Y42.650 Z-2.600
G1 X54.897 Y42.574 Z-2.600
G1 X54.887 Y42.496 Z-2.600
G1 X54.869 Y42.417 Z-2.600
G1 X54.844 Y42.338 Z-2.600
G1 X54.811 Y42.261 Z-2.600
G1 X54.771 Y42.185 Z-2.600
G1 X54.722 Y42.113 Z-2.600
G1 X54.667 Y42.045 Z-2.600
G1 X54.605 Y41.983 Z-2.600
G1 X54.537 Y41.928 Z-2.600
G1 X54.465 Y41.879 Z-2.600
G1 X54.389 Y41.839 Z-2.600
G1 X54.312 Y41.806 Z-2.600
G1 X54.233 Y41.781 Z-2.600
G1 X54.154 Y41.763 Z-2.600
G1 X54.076 Y41.753 Z-2.600
G1 X54.000 Y41.750 Z-2.600
G1 X49.700 Y41.750 Z-2.600
G1 X49.436 Y42.014 Z-2.600
G1 X49.700 Y41.750 Z-2.600
G1 X49.700 Y38.550 Z-2.600
G1 X49.436 Y38.286 Z-2.600
G1 X49.700 Y38.550 Z-2.600
G1 X54.000 Y38.550 Z-2.600
G1 X54.076 Y38.547 Z-2.600
G1 X54.154 Y38.537 Z-2.600
G1 X54.233 Y38.519 Z-2.600
G1 X54.312 Y38.494 Z-2.600
G1 X54.389 Y38.461 Z-2.600
G1 X54.465 Y38.421 Z-2.600
G1 X54.537 Y38.372 Z-2.600
G1 X54.605 Y38.317 Z-2.600
G1 X54.667 Y38.255 Z-2.600
G1 X54.722 Y38.187 Z-2.600
G1 X54.771 Y38.115 Z-2.600
G1 X54.811 Y38.039 Z-2.600
G1 X54.844 Y37.962 Z-2.600
G1 X54.869 Y37.883 Z-2.600
G1 X54.887 Y37.804 Z-2.600
G1 X54.897 Y37.726 Z-2.600
G1 X54.900 Y37.650 Z-2.600
G1 X54.900 Y35.044 Z-2.600
G1 X54.900 Y31.500 Z-2.600
G1 X54.897 Y31.424 Z-2.600
G1 X54.887 Y31.346 Z-2.600
G1 X54.869 Y31.267 Z-2.600
G1 X54.844 Y31.188 Z-2.600
G1 X54.811 Y31.111 Z-2.600
G1 X54.771 Y31.035 Z-2.600
G1 X54.722 Y30.963 Z-2.600
G1 X54.667 Y30.895 Z-2.600
G1 X54.605 Y30.833 Z-2.600
G1 X54.537 Y30.778 Z-2.600
G1 X54.465 Y30.729 Z-2.600
G1 X54.389 Y30.689 Z-2.600
G1 X54.312 Y30.656 Z-2.600
G1 X54.233 Y30.631 Z-2.600
G1 X54.154 Y30.613 Z-2.600
G1 X54.076 Y30.603 Z-2.600
G1 X54.000 Y30.600 Z-2.600
G1 X49.700 Y30.600 Z-2.600
G1 X49.436 Y30.864 Z-2.600
G1 X49.700 Y30.600 Z-2.600
G1 X49.700 Y27.400 Z-2.600
G1 X49.436 Y27.136 Z-2.600
G1 X49.700 Y27.400 Z-2.600
G1 X54.000 Y27.400 Z-2.600
G1 X54.076 Y27.397 Z-2.600
G1 X54.154 Y27.387 Z-2.600
G1 X54.233 Y27.369 Z-2.600
G1 X54.312 Y27.344 Z-2.600
G1 X54.389 Y27.311 Z-2.600
G1 X54.465 Y27.271 Z-2.600
G1 X54.537 Y27.222 Z-2.600
G1 X54.605 Y27.167 Z-2.600
G1 X54.667 Y27.105 Z-2.600
G1 X54.722 Y27.037 Z-2.600
G1 X54.771 Y26.965 Z-2.600
G1 X54.811 Y26.889 Z-2.600
G1 X54.844 Y26.812 Z-2.600
G1 X54.869 Y26.733 Z-2.600
G1 X54.887 Y26.654 Z-2.600
G1 X54.897 Y26.576 Z-2.600
G1 X54.900 Y26.500 Z-2.600
G1 X54.900 Y20.350 Z-2.600
G1 X54.897 Y20.274 Z-2.600
G1 X54.887 Y20.196 Z-2.600
G1 X54.869 Y20.117 Z-2.600
G1 X54.844 Y20.038 Z-2.600
G1 X54.811 Y19.961 Z-2.600
G1 X54.771 Y19.885 Z-2.600
G1 X54.722 Y19.813 Z-2.600
G1 X54.667 Y19.745 Z-2.600
G1 X54.605 Y19.683 Z-2.600
G1 X54.537 Y19.628 Z-2.600
G1 X54.465 Y19.579 Z-2.600
G1 X54.389 Y19.539 Z-2.600
G1 X54.312 Y19.506 Z-2.600
G1 X54.233 Y19.481 Z-2.600
G1 X54.154 Y19.463 Z-2.600
G1 X54.076 Y19.453 Z-2.600
G1 X54.000 Y19.450 Z-2.600
G1 X49.700 Y19.450 Z-2.600
G1 X49.436 Y19.714 Z-2.600
G1 X49.700 Y19.450 Z-2.600
G1 X49.700 Y16.250 Z-2.600
G1 X49.436 Y15.986 Z-2.600
G1 X49.700 Y16.250 Z-2.600
G1 X54.000 Y16.250 Z-2.600
G1 X54.076 Y16.247 Z-2.600
G1 X54.154 Y16.237 Z-2.600
G1 X54.233 Y16.219 Z-2.600
G1 X54.312 Y16.194 Z-2.600
G1 X54.389 Y16.161 Z-2.600
G1 X54.465 Y16.121 Z-2.600
G1 X54.537 Y16.072 Z-2.600
G1 X54.605 Y16.017 Z-2.600
G1 X54.667 Y15.955 Z-2.600
G1 X54.722 Y15.887 Z-2.600
G1 X54.771 Y15.815 Z-2.600
G1 X54.811 Y15.739 Z-2.600
G1 X54.844 Y15.662 Z-2.600
G1 X54.869 Y15.583 Z-2.600
G1 X54.887 Y15.504 Z-2.600
G1 X54.897 Y15.426 Z-2.600
G1 X54.900 Y15.350 Z-2.600
G1 X54.900 Y12.675 Z-2.600
G1 X54.900 Y6.675 Z-2.600
G1 X54.900 Y4.000 Z-2.600
G1 X54.897 Y3.924 Z-2.600
G1 X54.887 Y3.848 Z-2.600
G1 X54.870 Y3.771 Z-2.600
G1 X54.847 Y3.695 Z-2.600
G1 X54.816 Y3.620 Z-2.600
G1 X54.779 Y3.549 Z-2.600
G1 X54.735 Y3.480 Z-2.600
G1 X54.685 Y3.416 Z-2.600
G1 X54.630 Y3.357 Z-2.600
G1 X54.571 Y3.304 Z-2.600
G1 X54.508 Y3.257 Z-2.600
G1 X54.442 Y3.216 Z-2.600
G1 X54.375 Y3.182 Z-2.600
G1 X54.304 Y3.153 Z-2.600
G1 X54.230 Y3.130 Z-2.600
G1 X54.154 Y3.113 Z-2.600
G1 X54.077 Y3.103 Z-2.600
G1 X54.000 Y3.100 Z-2.600
G1 X48.800 Y3.100 Z-2.600
G1 X48.400 Y3.100 Z-2.600
G1 X42.650 Y3.100 Z-2.600
G1 X42.574 Y3.103 Z-2.600
G1 X42.496 Y3.113 Z-2.600
G1 X42.417 Y3.131 Z-2.600
G1 X42.338 Y3.156 Z-2.600
G1 X42.261 Y3.189 Z-2.600
G1 X42.185 Y3.229 Z-2.600
G1 X42.113 Y3.278 Z-2.600
G1 X42.045 Y3.333 Z-2.600
G1 X41.983 Y3.395 Z-2.600
G1 X41.928 Y3.463 Z-2.600
G1 X41.879 Y3.535 Z-2.600
G1 X41.839 Y3.611 Z-2.600
G1 X41.806 Y3.688 Z-2.600
G1 X41.781 Y3.767 Z-2.600
G1 X41.763 Y3.846 Z-2.600
G1 X41.753 Y3.924 Z-2.600
G1 X41.750 Y4.000 Z-2.600
G1 X41.750 Y8.300 Z-2.600
G1 X42.014 Y8.564 Z-2.600
G1 X41.750 Y8.300 Z-2.600
G1 X38.550 Y8.300 Z-2.600
G1 X38.286 Y8.564 Z-2.600
G1 X38.550 Y8.300 Z-2.600
G1 X38.550 Y4.000 Z-2.600
G1 X38.547 Y3.924 Z-2.600
G1 X38.537 Y3.846 Z-2.600
G1 X38.519 Y3.767 Z-2.600
G1 X38.494 Y3.688 Z-2.600
G1 X38.461 Y3.611 Z-2.600
G1 X38.421 Y3.535 Z-2.600
G1 X38.372 Y3.463 Z-2.600
G1 X38.317 Y3.395 Z-2.600
G1 X38.255 Y3.333 Z-2.600
G1 X38.187 Y3.278 Z-2.600
G1 X38.115 Y3.229 Z-2.600
G1 X38.039 Y3.189 Z-2.600
G1 X37.962 Y3.156 Z-2.600
G1 X37.883 Y3.131 Z-2.600
G1 X37.804 Y3.113 Z-2.600
G1 X37.726 Y3.103 Z-2.600
G1 X37.650 Y3.100 Z-2.600
G1 X31.500 Y3.100 Z-2.600
G1 X31.424 Y3.103 Z-2.600
G1 X31.346 Y3.113 Z-2.600
G1 X31.267 Y3.131 Z-2.600
G1 X31.188 Y3.156 Z-2.600
G1 X31.111 Y3.189 Z-2.600
G1 X31.035 Y3.229 Z-2.600
G1 X30.963 Y3.278 Z-2.600
G1 X30.895 Y3.333 Z-2.600
G1 X30.833 Y3.395 Z-2.600
G1 X30.778 Y3.463 Z-2.600
G1 X30.729 Y3.535 Z-2.600
G1 X30.689 Y3.611 Z-2.600
G1 X30.656 Y3.688 Z-2.600
G1 X30.631 Y3.767 Z-2.600
G1 X30.613 Y3.846 Z-2.600
G1 X30.603 Y3.924 Z-2.600
G1 X30.600 Y4.000 Z-2.600
G1 X30.600 Y8.300 Z-2.600
G1 X30.864 Y8.564 Z-2.600
G1 X30.600 Y8.300 Z-2.600
G1 X27.400 Y8.300 Z-2.600
G1 X27.136 Y8.564 Z-2.600
G1 X27.400 Y8.300 Z-2.600
G1 X27.400 Y7.019 Z-2.600
G1 X27.400 Y4.000 Z-2.626 F250.0
G1 X27.397 Y3.924 Z-2.627
G1 X27.387 Y3.846 Z-2.628
G1 X27.369 Y3.767 Z-2.628
G1 X27.344 Y3.688 Z-2.629
G1 X27.311 Y3.611 Z-2.630
G1 X27.271 Y3.535 Z-2.630
G1 X27.222 Y3.463 Z-2.631
G1 X27.167 Y3.395 Z-2.632
G1 X27.105 Y3.333 Z-2.633
G1 X27.037 Y3.278 Z-2.633
G1 X26.965 Y3.229 Z-2.634
G1 X26.889 Y3.189 Z-2.635
G1 X26.812 Y3.156 Z-2.636
G1 X26.733 Y3.131 Z-2.636
G1 X26.654 Y3.113 Z-2.637
G1 X26.576 Y3.103 Z-2.638
G1 X26.500 Y3.100 Z-2.638
G1 X20.350 Y3.100 Z-2.692
G1 X20.274 Y3.103 Z-2.692
G1 X20.196 Y3.113 Z-2.693
G1 X20.117 Y3.131 Z-2.694
G1 X20.038 Y3.156 Z-2.695
G1 X19.961 Y3.189 Z-2.695
G1 X19.885 Y3.229 Z-2.696
G1 X19.813 Y3.278 Z-2.697
G1 X19.745 Y3.333 Z-2.697
G1 X19.683 Y3.395 Z-2.698
G1 X19.628 Y3.463 Z-2.699
G1 X19.579 Y3.535 Z-2.700
G1 X19.539 Y3.611 Z-2.700
G1 X19.506 Y3.688 Z-2.701
G1 X19.481 Y3.767 Z-2.702
G1 X19.463 Y3.846 Z-2.703
G1 X19.453 Y3.924 Z-2.703
G1 X19.450 Y4.000 Z-2.704
G1 X19.450 Y8.300 Z-2.741
G1 X19.714 Y8.564 Z-2.744
G1 X19.450 Y8.300 Z-2.748
G1 X16.250 Y8.300 Z-2.775
G1 X15.986 Y8.564 Z-2.779
G1 X16.250 Y8.300 Z-2.782
G1 X16.250 Y4.000 Z-2.819
G1 X16.247 Y3.924 Z-2.820
G1 X16.237 Y3.846 Z-2.821
G1 X16.219 Y3.767 Z-2.821
G1 X16.194 Y3.688 Z-2.822
G1 X16.161 Y3.611 Z-2.823
G1 X16.121 Y3.535 Z-2.823
G1 X16.072 Y3.463 Z-2.824
G1 X16.017 Y3.395 Z-2.825
G1 X15.955 Y3.333 Z-2.826
G1 X15.887 Y3.278 Z-2.826
G1 X15.815 Y3.229 Z-2.827
G1 X15.739 Y3.189 Z-2.828
G1 X15.662 Y3.156 Z-2.829
G1 X15.583 Y3.131 Z-2.829
G1 X15.504 Y3.113 Z-2.830
G1 X15.426 Y3.103 Z-2.831
G1 X15.350 Y3.100 Z-2.831
G1 X12.675 Y3.100 Z-2.855
G1 X6.675 Y3.100 Z-2.907
G1 X4.000 Y3.100 Z-2.930
G1 X3.924 Y3.103 Z-2.930
G1 X3.848 Y3.113 Z-2.931
G1 X3.771 Y3.130 Z-2.932
G1 X3.695 Y3.153 Z-2.933
G1 X3.620 Y3.184 Z-2.933
G1 X3.549 Y3.221 Z-2.934
G1 X3.480 Y3.265 Z-2.935
G1 X3.416 Y3.315 Z-2.935
G1 X3.357 Y3.370 Z-2.936
G1 X3.304 Y3.429 Z-2.937
G1 X3.257 Y3.492 Z-2.937
G1 X3.216 Y3.558 Z-2.938
G1 X3.182 Y3.625 Z-2.939
G1 X3.153 Y3.696 Z-2.939
G1 X3.130 Y3.770 Z-2.940
G1 X3.113 Y3.846 Z-2.941
G1 X3.103 Y3.923 Z-2.941
G1 X3.100 Y4.000 Z-2.942
G1 X3.100 Y9.200 Z-2.987
G1 X3.100 Y9.600 Z-2.991
G1 X3.100 Y15.350 Z-3.040
G1 X3.103 Y15.426 Z-3.041
G1 X3.113 Y15.504 Z-3.042
G1 X3.131 Y15.583 Z-3.043
G1 X3.156 Y15.662 Z-3.043
G1 X3.189 Y15.739 Z-3.044
G1 X3.229 Y15.815 Z-3.045
G1 X3.278 Y15.887 Z-3.045
G1 X3.333 Y15.955 Z-3.046
G1 X3.395 Y16.017 Z-3.047
G1 X3.463 Y16.072 Z-3.048
G1 X3.535 Y16.121 Z-3.048
G1 X3.611 Y16.161 Z-3.049
G1 X3.688 Y16.194 Z-3.050
G1 X3.767 Y16.219 Z-3.050
G1 X3.846 Y16.237 Z-3.051
G1 X3.924 Y16.247 Z-3.052
G1 X4.000 Y16.250 Z-3.053
G1 X8.300 Y16.250 Z-3.090
G1 X8.564 Y15.986 Z-3.093
G1 X8.300 Y16.250 Z-3.096
G1 X8.300 Y19.450 Z-3.124
G1 X8.564 Y19.714 Z-3.127
G1 X8.300 Y19.450 Z-3.131
G1 X4.000 Y19.450 Z-3.168
G1 X3.924 Y19.453 Z-3.169
G1 X3.846 Y19.463 Z-3.169
G1 X3.767 Y19.481 Z-3.170
G1 X3.688 Y19.506 Z-3.171
G1 X3.611 Y19.539 Z-3.171
G1 X3.535 Y19.579 Z-3.172
G1 X3.463 Y19.628 Z-3.173
G1 X3.395 Y19.683 Z-3.174
G1 X3.333 Y19.745 Z-3.174
G1 X3.278 Y19.813 Z-3.175
G1 X3.229 Y19.885 Z-3.176
G1 X3.189 Y19.961 Z-3.176
G1 X3.156 Y20.038 Z-3.177
G1 X3.131 Y20.117 Z-3.178
G1 X3.113 Y20.196 Z-3.179
G1 X3.103 Y20.274 Z-3.179
G1 X3.100 Y20.350 Z-3.180
G1 X3.100 Y26.500 Z-3.233
G1 X3.103 Y26.576 Z-3.234
G1 X3.113 Y26.654 Z-3.235
G1 X3.131 Y26.733 Z-3.236
G1 X3.156 Y26.812 Z-3.236
G1 X3.189 Y26.889 Z-3.237
G1 X3.229 Y26.965 Z-3.238
G1 X3.278 Y27.037 Z-3.238
G1 X3.333 Y27.105 Z-3.239
G1 X3.395 Y27.167 Z-3.240
G1 X3.463 Y27.222 Z-3.241
G1 X3.535 Y27.271 Z-3.241
G1 X3.611 Y27.311 Z-3.242
G1 X3.688 Y27.344 Z-3.243
G1 X3.767 Y27.369 Z-3.243
G1 X3.846 Y27.387 Z-3.244
G1 X3.924 Y27.397 Z-3.245
G1 X4.000 Y27.400 Z-3.246
G1 X8.300 Y27.400 Z-3.283
G1 X8.564 Y27.136 Z-3.286
G1 X8.300 Y27.400 Z-3.289
G1 X8.300 Y30.600 Z-3.317
G1 X8.564 Y30.864 Z-3.320
G1 X8.300 Y30.600 Z-3.324
G1 X4.000 Y30.600 Z-3.361
G1 X3.924 Y30.603 Z-3.362
G1 X3.846 Y30.613 Z-3.362
G1 X3.767 Y30.631 Z-3.363
G1 X3.688 Y30.656 Z-3.364
G1 X3.611 Y30.689 Z-3.364
G1 X3.535 Y30.729 Z-3.365
G1 X3.463 Y30.778 Z-3.366
G1 X3.395 Y30.833 Z-3.367
G1 X3.333 Y30.895 Z-3.367
G1 X3.278 Y30.963 Z-3.368
G1 X3.229 Y31.035 Z-3.369
G1 X3.189 Y31.111 Z-3.369
G1 X3.156 Y31.188 Z-3.370
G1 X3.131 Y31.267 Z-3.371
G1 X3.113 Y31.346 Z-3.372
G1 X3.103 Y31.424 Z-3.372
G1 X3.100 Y31.500 Z-3.373
G1 X3.100 Y37.650 Z-3.426
G1 X3.103 Y37.726 Z-3.427
G1 X3.113 Y37.804 Z-3.428
G1 X3.131 Y37.883 Z-3.429
G1 X3.156 Y37.962 Z-3.429
G1 X3.189 Y38.039 Z-3.430
G1 X3.229 Y38.115 Z-3.431
G1 X3.278 Y38.187 Z-3.431
G1 X3.333 Y38.255 Z-3.432
G1 X3.395 Y38.317 Z-3.433
G1 X3.463 Y38.372 Z-3.434
G1 X3.535 Y38.421 Z-3.434
G1 X3.611 Y38.461 Z-3.435
G1 X3.688 Y38.494 Z-3.436
G1 X3.767 Y38.519 Z-3.436
G1 X3.846 Y38.537 Z-3.437
G1 X3.924 Y38.547 Z-3.438
G1 X4.000 Y38.550 Z-3.439
G1 X7.234 Y38.550 Z-3.467
G1 X8.300 Y38.550 Z-3.467 F180.0
G1 X8.564 Y38.286 Z-3.467
G1 X8.300 Y38.550 Z-3.467
G1 X8.300 Y41.750 Z-3.467
G1 X8.564 Y42.014 Z-3.467
G1 X8.300 Y41.750 Z-3.467
G1 X4.000 Y41.750 Z-3.467
G1 X3.924 Y41.753 Z-3.467
G1 X3.846 Y41.763 Z-3.467
G1 X3.767 Y41.781 Z-3.467
G1 X3.688 Y41.806 Z-3.467
G1 X3.611 Y41.839 Z-3.467
G1 X3.535 Y41.879 Z-3.467
G1 X3.463 Y41.928 Z-3.467
G1 X3.395 Y41.983 Z-3.467
G1 X3.333 Y42.045 Z-3.467
G1 X3.278 Y42.113 Z-3.467
G1 X3.229 Y42.185 Z-3.467
G1 X3.189 Y42.261 Z-3.467
G1 X3.156 Y42.338 Z-3.467
G1 X3.131 Y42.417 Z-3.467
G1 X3.113 Y42.496 Z-3.467
G1 X3.103 Y42.574 Z-3.467
G1 X3.100 Y42.650 Z-3.467
G1 X3.100 Y45.325 Z-3.467
G1 X3.100 Y51.325 Z-3.467
G1 X3.100 Y54.000 Z-3.467
G1 X3.103 Y54.076 Z-3.467
G1 X3.113 Y54.152 Z-3.467
G1 X3.130 Y54.229 Z-3.467
G1 X3.153 Y54.305 Z-3.467
G1 X3.184 Y54.380 Z-3.467
G1 X3.221 Y54.451 Z-3.467
G1 X3.265 Y54.520 Z-3.467
G1 X3.315 Y54.584 Z-3.467
G1 X3.370 Y54.643 Z-3.467
G1 X3.429 Y54.696 Z-3.467
G1 X3.492 Y54.743 Z-3.467
G1 X3.558 Y54.784 Z-3.467
G1 X3.625 Y54.818 Z-3.467
G1 X3.696 Y54.847 Z-3.467
G1 X3.770 Y54.870 Z-3.467
G1 X3.846 Y54.887 Z-3.467
G1 X3.923 Y54.897 Z-3.467
G1 X4.000 Y54.900 Z-3.467
G1 X9.200 Y54.900 Z-3.467
G1 X9.600 Y54.900 Z-3.467
G1 X15.350 Y54.900 Z-3.467
G1 X15.426 Y54.897 Z-3.467
G1 X15.504 Y54.887 Z-3.467
G1 X15.583 Y54.869 Z-3.467
G1 X15.662 Y54.844 Z-3.467
G1 X15.739 Y54.811 Z-3.467
G1 X15.815 Y54.771 Z-3.467
G1 X15.887 Y54.722 Z-3.467
G1 X15.955 Y54.667 Z-3.467
G1 X16.017 Y54.605 Z-3.467
G1 X16.072 Y54.537 Z-3.467
G1 X16.121 Y54.465 Z-3.467
G1 X16.161 Y54.389 Z-3.467
G1 X16.194 Y54.312 Z-3.467
G1 X16.219 Y54.233 Z-3.467
G1 X16.237 Y54.154 Z-3.467
G1 X16.247 Y54.076 Z-3.467
G1 X16.250 Y54.000 Z-3.467
G1 X16.250 Y51.920 Z-3.467
G1 X16.250 Y49.700 Z-3.467
G1 X15.986 Y49.436 Z-3.467
G1 X16.250 Y49.700 Z-3.467
G1 X19.450 Y49.700 Z-3.467
G1 X19.714 Y49.436 Z-3.467
G1 X19.450 Y49.700 Z-3.467
G1 X19.450 Y54.000 Z-3.467
G1 X19.453 Y54.076 Z-3.467
G1 X19.463 Y54.154 Z-3.467
G1 X19.481 Y54.233 Z-3.467
G1 X19.506 Y54.312 Z-3.467
G1 X19.539 Y54.389 Z-3.467
G1 X19.579 Y54.465 Z-3.467
G1 X19.628 Y54.537 Z-3.467
G1 X19.683 Y54.605 Z-3.467
G1 X19.745 Y54.667 Z-3.467
G1 X19.813 Y54.722 Z-3.467
G1 X19.885 Y54.771 Z-3.467
G1 X19.961 Y54.811 Z-3.467
G1 X20.038 Y54.844 Z-3.467
G1 X20.117 Y54.869 Z-3.467
G1 X20.196 Y54.887 Z-3.467
G1 X20.274 Y54.897 Z-3.467
G1 X20.350 Y54.900 Z-3.467
G1 X26.500 Y54.900 Z-3.467
G1 X26.576 Y54.897 Z-3.467
G1 X26.654 Y54.887 Z-3.467
G1 X26.733 Y54.869 Z-3.467
G1 X26.812 Y54.844 Z-3.467
G1 X26.889 Y54.811 Z-3.467
G1 X26.965 Y54.771 Z-3.467
G1 X27.037 Y54.722 Z-3.467
G1 X27.105 Y54.667 Z-3.467
G1 X27.167 Y54.605 Z-3.467
G1 X27.222 Y54.537 Z-3.467
G1 X27.271 Y54.465 Z-3.467
G1 X27.311 Y54.389 Z-3.467
G1 X27.344 Y54.312 Z-3.467
G1 X27.369 Y54.233 Z-3.467
G1 X27.387 Y54.154 Z-3.467
G1 X27.397 Y54.076 Z-3.467
G1 X27.400 Y54.000 Z-3.467
G1 X27.400 Y49.700 Z-3.467
G1 X27.136 Y49.436 Z-3.467
G1 X27.400 Y49.700 Z-3.467
G1 X30.600 Y49.700 Z-3.467
G1 X30.864 Y49.436 Z-3.467
G1 X30.600 Y49.700 Z-3.467
G1 X30.600 Y54.000 Z-3.467
G1 X30.603 Y54.076 Z-3.467
G1 X30.613 Y54.154 Z-3.467
G1 X30.631 Y54.233 Z-3.467
G1 X30.656 Y54.312 Z-3.467
G1 X30.689 Y54.389 Z-3.467
G1 X30.729 Y54.465 Z-3.467
G1 X30.778 Y54.537 Z-3.467
G1 X30.833 Y54.605 Z-3.467
G1 X30.895 Y54.667 Z-3.467
G1 X30.963 Y54.722 Z-3.467
G1 X31.035 Y54.771 Z-3.467
G1 X31.111 Y54.811 Z-3.467
G1 X31.188 Y54.844 Z-3.467
G1 X31.267 Y54.869 Z-3.467
G1 X31.346 Y54.887 Z-3.467
G1 X31.424 Y54.897 Z-3.467
G1 X31.500 Y54.900 Z-3.467
G1 X37.650 Y54.900 Z-3.467
G1 X37.726 Y54.897 Z-3.467
G1 X37.804 Y54.887 Z-3.467
G1 X37.883 Y54.869 Z-3.467
G1 X37.962 Y54.844 Z-3.467
G1 X38.039 Y54.811 Z-3.467
G1 X38.115 Y54.771 Z-3.467
G1 X38.187 Y54.722 Z-3.467
G1 X38.255 Y54.667 Z-3.467
G1 X38.317 Y54.605 Z-3.467
G1 X38.372 Y54.537 Z-3.467
G1 X38.421 Y54.465 Z-3.467
G1 X38.461 Y54.389 Z-3.467
G1 X38.494 Y54.312 Z-3.467
G1 X38.519 Y54.233 Z-3.467
G1 X38.537 Y54.154 Z-3.467
G1 X38.547 Y54.076 Z-3.467
G1 X38.550 Y54.000 Z-3.467
G1 X38.550 Y49.700 Z-3.467
G1 X38.286 Y49.436 Z-3.467
G1 X38.550 Y49.700 Z-3.467
G1 X41.750 Y49.700 Z-3.467
G1 X42.014 Y49.436 Z-3.467
G1 X41.750 Y49.700 Z-3.467
G1 X41.750 Y54.000 Z-3.467
G1 X41.753 Y54.076 Z-3.467
G1 X41.763 Y54.154 Z-3.467
G1 X41.781 Y54.233 Z-3.467
G1 X41.806 Y54.312 Z-3.467
G1 X41.839 Y54.389 Z-3.467
G1 X41.879 Y54.465 Z-3.467
G1 X41.928 Y54.537 Z-3.467
G1 X41.983 Y54.605 Z-3.467
G1 X42.045 Y54.667 Z-3.467
G1 X42.113 Y54.722 Z-3.467
G1 X42.185 Y54.771 Z-3.467
G1 X42.261 Y54.811 Z-3.467
G1 X42.338 Y54.844 Z-3.467
G1 X42.417 Y54.869 Z-3.467
G1 X42.496 Y54.887 Z-3.467
G1 X42.574 Y54.897 Z-3.467
G1 X42.650 Y54.900 Z-3.467
G1 X45.325 Y54.900 Z-3.467
G1 X46.410 Y54.900 Z-3.467
G1 X51.325 Y54.900 Z-3.467
G1 X54.000 Y54.900 Z-3.467
G1 X54.076 Y54.897 Z-3.467
G1 X54.152 Y54.887 Z-3.467
G1 X54.229 Y54.870 Z-3.467
G1 X54.305 Y54.847 Z-3.467
G1 X54.380 Y54.816 Z-3.467
G1 X54.451 Y54.779 Z-3.467
G1 X54.520 Y54.735 Z-3.467
G1 X54.584 Y54.685 Z-3.467
G1 X54.643 Y54.630 Z-3.467
G1 X54.696 Y54.571 Z-3.467
G1 X54.743 Y54.508 Z-3.467
G1 X54.784 Y54.442 Z-3.467
G1 X54.818 Y54.375 Z-3.467
G1 X54.847 Y54.304 Z-3.467
G1 X54.870 Y54.230 Z-3.467
G1 X54.887 Y54.154 Z-3.467
G1 X54.897 Y54.077 Z-3.467
G1 X54.900 Y54.000 Z-3.467
G1 X54.900 Y48.800 Z-3.467
G1 X54.900 Y48.400 Z-3.467
G1 X54.900 Y42.650 Z-3.467
G1 X54.897 Y42.574 Z-3.467
G1 X54.887 Y42.496 Z-3.467
G1 X54.869 Y42.417 Z-3.467
G1 X54.844 Y42.338 Z-3.467
G1 X54.811 Y42.261 Z-3.467
G1 X54.771 Y42.185 Z-3.467
G1 X54.722 Y42.113 Z-3.467
G1 X54.667 Y42.045 Z-3.467
G1 X54.605 Y41.983 Z-3.467
G1 X54.537 Y41.928 Z-3.467
G1 X54.465 Y41.879 Z-3.467
G1 X54.389 Y41.839 Z-3.467
G1 X54.312 Y41.806 Z-3.467
G1 X54.233 Y41.781 Z-3.467
G1 X54.154 Y41.763 Z-3.467
G1 X54.076 Y41.753 Z-3.467
G1 X54.000 Y41.750 Z-3.467
G1 X49.700 Y41.750 Z-3.467
G1 X49.436 Y42.014 Z-3.467
G1 X49.700 Y41.750 Z-3.467
G1 X49.700 Y38.550 Z-3.467
G1 X49.436 Y38.286 Z-3.467
G1 X49.700 Y38.550 Z-3.467
G1 X54.000 Y38.550 Z-3.467
G1 X54.076 Y38.547 Z-3.467
G1 X54.154 Y38.537 Z-3.467
G1 X54.233 Y38.519 Z-3.467
G1 X54.312 Y38.494 Z-3.467
G1 X54.389 Y38.461 Z-3.467
G1 X54.465 Y38.421 Z-3.467
G1 X54.537 Y38.372 Z-3.467
G1 X54.605 Y38.317 Z-3.467
G1 X54.667 Y38.255 Z-3.467
G1 X54.722 Y38.187 Z-3.467
G1 X54.771 Y38.115 Z-3.467
G1 X54.811 Y38.039 Z-3.467
G1 X54.844 Y37.962 Z-3.467
G1 X54.869 Y37.883 Z-3.467
G1 X54.887 Y37.804 Z-3.467
G1 X54.897 Y37.726 Z-3.467
G1 X54.900 Y37.650 Z-3.467
G1 X54.900 Y35.044 Z-3.467
G1 X54.900 Y31.500 Z-3.467
G1 X54.897 Y31.424 Z-3.467
G1 X54.887 Y31.346 Z-3.467
G1 X54.869 Y31.267 Z-3.467
G1 X54.844 Y31.188 Z-3.467
G1 X54.811 Y31.111 Z-3.467
G1 X54.771 Y31.035 Z-3.467
G1 X54.722 Y30.963 Z-3.467
G1 X54.667 Y30.895 Z-3.467
G1 X54.605 Y30.833 Z-3.467
G1 X54.537 Y30.778 Z-3.467
G1 X54.465 Y30.729 Z-3.467
G1 X54.389 Y30.689 Z-3.467
G1 X54.312 Y30.656 Z-3.467
G1 X54.233 Y30.631 Z-3.467
G1 X54.154 Y30.613 Z-3.467
G1 X54.076 Y30.603 Z-3.467
G1 X54.000 Y30.600 Z-3.467
G1 X49.700 Y30.600 Z-3.467
G1 X49.436 Y30.864 Z-3.467
G1 X49.700 Y30.600 Z-3.467
G1 X49.700 Y27.400 Z-3.467
G1 X49.436 Y27.136 Z-3.467
G1 X49.700 Y27.400 Z-3.467
G1 X54.000 Y27.400 Z-3.467
G1 X54.076 Y27.397 Z-3.467
G1 X54.154 Y27.387 Z-3.467
G1 X54.233 Y27.369 Z-3.467
G1 X54.312 Y27.344 Z-3.467
G1 X54.389 Y27.311 Z-3.467
G1 X54.465 Y27.271 Z-3.467
G1 X54.537 Y27.222 Z-3.467
G1 X54.605 Y27.167 Z-3.467
G1 X54.667 Y27.105 Z-3.467
G1 X54.722 Y27.037 Z-3.467
G1 X54.771 Y26.965 Z-3.467
G1 X54.811 Y26.889 Z-3.467
G1 X54.844 Y26.812 Z-3.467
G1 X54.869 Y26.733 Z-3.467
G1 X54.887 Y26.654 Z-3.467
G1 X54.897 Y26.576 Z-3.467
G1 X54.900 Y26.500 Z-3.467
G1 X54.900 Y20.350 Z-3.467
G1 X54.897 Y20.274 Z-3.467
G1 X54.887 Y20.196 Z-3.467
G1 X54.869 Y20.117 Z-3.467
G1 X54.844 Y20.038 Z-3.467
G1 X54.811 Y19.961 Z-3.467
G1 X54.771 Y19.885 Z-3.467
G1 X54.722 Y19.813 Z-3.467
G1 X54.667 Y19.745 Z-3.467
G1 X54.605 Y19.683 Z-3.467
G1 X54.537 Y19.628 Z-3.467
G1 X54.465 Y19.579 Z-3.467
G1 X54.389 Y19.539 Z-3.467
G1 X54.312 Y19.506 Z-3.467
G1 X54.233 Y19.481 Z-3.467
G1 X54.154 Y19.463 Z-3.467
G1 X54.076 Y19.453 Z-3.467
G1 X54.000 Y19.450 Z-3.467
G1 X49.700 Y19.450 Z-3.467
G1 X49.436 Y19.714 Z-3.467
G1 X49.700 Y19.450 Z-3.467
G1 X49.700 Y16.250 Z-3.467
G1 X49.436 Y15.986 Z-3.467
G1 X49.700 Y16.250 Z-3.467
G1 X54.000 Y16.250 Z-3.467
G1 X54.076 Y16.247 Z-3.467
G1 X54.154 Y16.237 Z-3.467
G1 X54.233 Y16.219 Z-3.467
G1 X54.312 Y16.194 Z-3.467
G1 X54.389 Y16.161 Z-3.467
G1 X54.465 Y16.121 Z-3.467
G1 X54.537 Y16.072 Z-3.467
G1 X54.605 Y16.017 Z-3.467
G1 X54.667 Y15.955 Z-3.467
G1 X54.722 Y15.887 Z-3.467
G1 X54.771 Y15.815 Z-3.467
G1 X54.811 Y15.739 Z-3.467
G1 X54.844 Y15.662 Z-3.467
G1 X54.869 Y15.583 Z-3.467
G1 X54.887 Y15.504 Z-3.467
G1 X54.897 Y15.426 Z-3.467
G1 X54.900 Y15.350 Z-3.467
G1 X54.900 Y12.675 Z-3.467
G1 X54.900 Y6.675 Z-3.467
G1 X54.900 Y4.000 Z-3.467
G1 X54.897 Y3.924 Z-3.467
G1 X54.887 Y3.848 Z-3.467
G1 X54.870 Y3.771 Z-3.467
G1 X54.847 Y3.695 Z-3.467
G1 X54.816 Y3.620 Z-3.467
G1 X54.779 Y3.549 Z-3.467
G1 X54.735 Y3.480 Z-3.467
G1 X54.685 Y3.416 Z-3.467
G1 X54.630 Y3.357 Z-3.467
G1 X54.571 Y3.304 Z-3.467
G1 X54.508 Y3.257 Z-3.467
G1 X54.442 Y3.216 Z-3.467
G1 X54.375 Y3.182 Z-3.467
G1 X54.304 Y3.153 Z-3.467
G1 X54.230 Y3.130 Z-3.467
G1 X54.154 Y3.113 Z-3.467
G1 X54.077 Y3.103 Z-3.467
G1 X54.000 Y3.100 Z-3.467
G1 X48.800 Y3.100 Z-3.467
G1 X48.400 Y3.100 Z-3.467
G1 X42.650 Y3.100 Z-3.467
G1 X42.574 Y3.103 Z-3.467
G1 X42.496 Y3.113 Z-3.467
G1 X42.417 Y3.131 Z-3.467
G1 X42.338 Y3.156 Z-3.467
G1 X42.261 Y3.189 Z-3.467
G1 X42.185 Y3.229 Z-3.467
G1 X42.113 Y3.278 Z-3.467
G1 X42.045 Y3.333 Z-3.467
G1 X41.983 Y3.395 Z-3.467
G1 X41.928 Y3.463 Z-3.467
G1 X41.879 Y3.535 Z-3.467
G1 X41.839 Y3.611 Z-3.467
G1 X41.806 Y3.688 Z-3.467
G1 X41.781 Y3.767 Z-3.467
G1 X41.763 Y3.846 Z-3.467
G1 X41.753 Y3.924 Z-3.467
G1 X41.750 Y4.000 Z-3.467
G1 X41.750 Y8.300 Z-3.467
G1 X42.014 Y8.564 Z-3.467
G1 X41.750 Y8.300 Z-3.467
G1 X38.550 Y8.300 Z-3.467
G1 X38.286 Y8.564 Z-3.467
G1 X38.550 Y8.300 Z-3.467
G1 X38.550 Y4.000 Z-3.467
G1 X38.547 Y3.924 Z-3.467
G1 X38.537 Y3.846 Z-3.467
G1 X38.519 Y3.767 Z-3.467
G1 X38.494 Y3.688 Z-3.467
G1 X38.461 Y3.611 Z-3.467
G1 X38.421 Y3.535 Z-3.467
G1 X38.372 Y3.463 Z-3.467
G1 X38.317 Y3.395 Z-3.467
G1 X38.255 Y3.333 Z-3.467
G1 X38.187 Y3.278 Z-3.467
G1 X38.115 Y3.229 Z-3.467
G1 X38.039 Y3.189 Z-3.467
G1 X37.962 Y3.156 Z-3.467
G1 X37.883 Y3.131 Z-3.467
G1 X37.804 Y3.113 Z-3.467
G1 X37.726 Y3.103 Z-3.467
G1 X37.650 Y3.100 Z-3.467
G1 X31.500 Y3.100 Z-3.467
G1 X31.424 Y3.103 Z-3.467
G1 X31.346 Y3.113 Z-3.467
G1 X31.267 Y3.131 Z-3.467
G1 X31.188 Y3.156 Z-3.467
G1 X31.111 Y3.189 Z-3.467
G1 X31.035 Y3.229 Z-3.467
G1 X30.963 Y3.278 Z-3.467
G1 X30.895 Y3.333 Z-3.467
G1 X30.833 Y3.395 Z-3.467
G1 X30.778 Y3.463 Z-3.467
G1 X30.729 Y3.535 Z-3.467
G1 X30.689 Y3.611 Z-3.467
G1 X30.656 Y3.688 Z-3.467
G1 X30.631 Y3.767 Z-3.467
G1 X30.613 Y3.846 Z-3.467
G1 X30.603 Y3.924 Z-3.467
G1 X30.600 Y4.000 Z-3.467
G1 X30.600 Y8.300 Z-3.467
G1 X30.864 Y8.564 Z-3.467
G1 X30.600 Y8.300 Z-3.467
G1 X27.400 Y8.300 Z-3.467
G1 X27.136 Y8.564 Z-3.467
G1 X27.400 Y8.300 Z-3.467
G1 X27.400 Y7.019 Z-3.467
G1 X27.400 Y4.000 Z-3.467
G1 X27.397 Y3.924 Z-3.467
G1 X27.387 Y3.846 Z-3.467
G1 X27.369 Y3.767 Z-3.467
G1 X27.344 Y3.688 Z-3.467
G1 X27.311 Y3.611 Z-3.467
G1 X27.271 Y3.535 Z-3.467
G1 X27.222 Y3.463 Z-3.467
G1 X27.167 Y3.395 Z-3.467
G1 X27.105 Y3.333 Z-3.467
G1 X27.037 Y3.278 Z-3.467
G1 X26.965 Y3.229 Z-3.467
G1 X26.889 Y3.189 Z-3.467
G1 X26.812 Y3.156 Z-3.467
G1 X26.733 Y3.131 Z-3.467
G1 X26.654 Y3.113 Z-3.467
G1 X26.576 Y3.103 Z-3.467
G1 X26.500 Y3.100 Z-3.467
G1 X20.350 Y3.100 Z-3.467
G1 X20.274 Y3.103 Z-3.467
G1 X20.196 Y3.113 Z-3.467
G1 X20.117 Y3.131 Z-3.467
G1 X20.038 Y3.156 Z-3.467
G1 X19.961 Y3.189 Z-3.467
G1 X19.885 Y3.229 Z-3.467
G1 X19.813 Y3.278 Z-3.467
G1 X19.745 Y3.333 Z-3.467
G1 X19.683 Y3.395 Z-3.467
G1 X19.628 Y3.463 Z-3.467
G1 X19.579 Y3.535 Z-3.467
G1 X19.539 Y3.611 Z-3.467
G1 X19.506 Y3.688 Z-3.467
G1 X19.481 Y3.767 Z-3.467
G1 X19.463 Y3.846 Z-3.467
G1 X19.453 Y3.924 Z-3.467
G1 X19.450 Y4.000 Z-3.467
G1 X19.450 Y8.300 Z-3.467
G1 X19.714 Y8.564 Z-3.467
G1 X19.450 Y8.300 Z-3.467
G1 X16.250 Y8.300 Z-3.467
G1 X15.986 Y8.564 Z-3.467
G1 X16.250 Y8.300 Z-3.467
G1 X16.250 Y4.000 Z-3.467
G1 X16.247 Y3.924 Z-3.467
G1 X16.237 Y3.846 Z-3.467
G1 X16.219 Y3.767 Z-3.467
G1 X16.194 Y3.688 Z-3.467
G1 X16.161 Y3.611 Z-3.467
G1 X16.121 Y3.535 Z-3.467
G1 X16.072 Y3.463 Z-3.467
G1 X16.017 Y3.395 Z-3.467
G1 X15.955 Y3.333 Z-3.467
G1 X15.887 Y3.278 Z-3.467
G1 X15.815 Y3.229 Z-3.467
G1 X15.739 Y3.189 Z-3.467
G1 X15.662 Y3.156 Z-3.467
G1 X15.583 Y3.131 Z-3.467
G1 X15.504 Y3.113 Z-3.467
G1 X15.426 Y3.103 Z-3.467
G1 X15.350 Y3.100 Z-3.467
G1 X12.675 Y3.100 Z-3.467
G1 X6.675 Y3.100 Z-3.467
G1 X4.000 Y3.100 Z-3.467
G1 X3.924 Y3.103 Z-3.467
G1 X3.848 Y3.113 Z-3.467
G1 X3.771 Y3.130 Z-3.467
G1 X3.695 Y3.153 Z-3.467
G1 X3.620 Y3.184 Z-3.467
G1 X3.549 Y3.221 Z-3.467
G1 X3.480 Y3.265 Z-3.467
G1 X3.416 Y3.315 Z-3.467
G1 X3.357 Y3.370 Z-3.467
G1 X3.304 Y3.429 Z-3.467
G1 X3.257 Y3.492 Z-3.467
G1 X3.216 Y3.558 Z-3.467
G1 X3.182 Y3.625 Z-3.467
G1 X3.153 Y3.696 Z-3.467
G1 X3.130 Y3.770 Z-3.467
G1 X3.113 Y3.846 Z-3.467
G1 X3.103 Y3.923 Z-3.467
G1 X3.100 Y4.000 Z-3.467
G1 X3.100 Y9.200 Z-3.467
G1 X3.100 Y9.600 Z-3.467
G1 X3.100 Y15.350 Z-3.467
G1 X3.103 Y15.426 Z-3.467
G1 X3.113 Y15.504 Z-3.467
G1 X3.131 Y15.583 Z-3.467
G1 X3.156 Y15.662 Z-3.467
G1 X3.189 Y15.739 Z-3.467
G1 X3.229 Y15.815 Z-3.467
G1 X3.278 Y15.887 Z-3.467
G1 X3.333 Y15.955 Z-3.467
G1 X3.395 Y16.017 Z-3.467
G1 X3.463 Y16.072 Z-3.467
G1 X3.535 Y16.121 Z-3.467
G1 X3.611 Y16.161 Z-3.467
G1 X3.688 Y16.194 Z-3.467
G1 X3.767 Y16.219 Z-3.467
G1 X3.846 Y16.237 Z-3.467
G1 X3.924 Y16.247 Z-3.467
G1 X4.000 Y16.250 Z-3.467
G1 X8.300 Y16.250 Z-3.467
G1 X8.564 Y15.986 Z-3.467
G1 X8.300 Y16.250 Z-3.467
G1 X8.300 Y19.450 Z-3.467
G1 X8.564 Y19.714 Z-3.467
G1 X8.300 Y19.450 Z-3.467
G1 X4.000 Y19.450 Z-3.467
G1 X3.924 Y19.453 Z-3.467
G1 X3.846 Y19.463 Z-3.467
G1 X3.767 Y19.481 Z-3.467
G1 X3.688 Y19.506 Z-3.467
G1 X3.611 Y19.539 Z-3.467
G1 X3.535 Y19.579 Z-3.467
G1 X3.463 Y19.628 Z-3.467
G1 X3.395 Y19.683 Z-3.467
G1 X3.333 Y19.745 Z-3.467
G1 X3.278 Y19.813 Z-3.467
G1 X3.229 Y19.885 Z-3.467
G1 X3.189 Y19.961 Z-3.467
G1 X3.156 Y20.038 Z-3.467
G1 X3.131 Y20.117 Z-3.467
G1 X3.113 Y20.196 Z-3.467
G1 X3.103 Y20.274 Z-3.467
G1 X3.100 Y20.350 Z-3.467
G1 X3.100 Y26.500 Z-3.467
G1 X3.103 Y26.576 Z-3.467
G1 X3.113 Y26.654 Z-3.467
G1 X3.131 Y26.733 Z-3.467
G1 X3.156 Y26.812 Z-3.467
G1 X3.189 Y26.889 Z-3.467
G1 X3.229 Y26.965 Z-3.467
G1 X3.278 Y27.037 Z-3.467
G1 X3.333 Y27.105 Z-3.467
G1 X3.395 Y27.167 Z-3.467
G1 X3.463 Y27.222 Z-3.467
G1 X3.535 Y27.271 Z-3.467
G1 X3.611 Y27.311 Z-3.467
G1 X3.688 Y27.344 Z-3.467
G1 X3.767 Y27.369 Z-3.467
G1 X3.846 Y27.387 Z-3.467
G1 X3.924 Y27.397 Z-3.467
G1 X4.000 Y27.400 Z-3.467
G1 X8.300 Y27.400 Z-3.467
G1 X8.564 Y27.136 Z-3.467
G1 X8.300 Y27.400 Z-3.467
G1 X8.300 Y30.600 Z-3.467
G1 X8.564 Y30.864 Z-3.467
G1 X8.300 Y30.600 Z-3.467
G1 X4.000 Y30.600 Z-3.467
G1 X3.924 Y30.603 Z-3.467
G1 X3.846 Y30.613 Z-3.467
G1 X3.767 Y30.631 Z-3.467
G1 X3.688 Y30.656 Z-3.467
G1 X3.611 Y30.689 Z-3.467
G1 X3.535 Y30.729 Z-3.467
G1 X3.463 Y30.778 Z-3.467
G1 X3.395 Y30.833 Z-3.467
G1 X3.333 Y30.895 Z-3.467
G1 X3.278 Y30.963 Z-3.467
G1 X3.229 Y31.035 Z-3.467
G1 X3.189 Y31.111 Z-3.467
G1 X3.156 Y31.188 Z-3.467
G1 X3.131 Y31.267 Z-3.467
G1 X3.113 Y31.346 Z-3.467
G1 X3.103 Y31.424 Z-3.467
G1 X3.100 Y31.500 Z-3.467
G1 X3.100 Y37.650 Z-3.467
G1 X3.103 Y37.726 Z-3.467
G1 X3.113 Y37.804 Z-3.467
G1 X3.131 Y37.883 Z-3.467
G1 X3.156 Y37.962 Z-3.467
G1 X3.189 Y38.039 Z-3.467
G1 X3.229 Y38.115 Z-3.467
G1 X3.278 Y38.187 Z-3.467
G1 X3.333 Y38.255 Z-3.467
G1 X3.395 Y38.317 Z-3.467
G1 X3.463 Y38.372 Z-3.467
G1 X3.535 Y38.421 Z-3.467
G1 X3.611 Y38.461 Z-3.467
G1 X3.688 Y38.494 Z-3.467
G1 X3.767 Y38.519 Z-3.467
G1 X3.846 Y38.537 Z-3.467
G1 X3.924 Y38.547 Z-3.467
G1 X4.000 Y38.550 Z-3.467
G1 X7.234 Y38.550 Z-3.467
G1 X8.300 Y38.550 Z-3.476 F250.0
G1 X8.564 Y38.286 Z-3.479
G1 X8.300 Y38.550 Z-3.482
G1 X8.300 Y41.750 Z-3.510
G1 X8.564 Y42.014 Z-3.513
G1 X8.300 Y41.750 Z-3.517
G1 X4.000 Y41.750 Z-3.554
G1 X3.924 Y41.753 Z-3.555
G1 X3.846 Y41.763 Z-3.555
G1 X3.767 Y41.781 Z-3.556
G1 X3.688 Y41.806 Z-3.557
G1 X3.611 Y41.839 Z-3.557
G1 X3.535 Y41.879 Z-3.558
G1 X3.463 Y41.928 Z-3.559
G1 X3.395 Y41.983 Z-3.560
G1 X3.333 Y42.045 Z-3.560
G1 X3.278 Y42.113 Z-3.561
G1 X3.229 Y42.185 Z-3.562
G1 X3.189 Y42.261 Z-3.562
G1 X3.156 Y42.338 Z-3.563
G1 X3.131 Y42.417 Z-3.564
G1 X3.113 Y42.496 Z-3.565
G1 X3.103 Y42.574 Z-3.565
G1 X3.100 Y42.650 Z-3.566
G1 X3.100 Y45.325 Z-3.589
G1 X3.100 Y51.325 Z-3.641
G1 X3.100 Y54.000 Z-3.664
G1 X3.103 Y54.076 Z-3.665
G1 X3.113 Y54.152 Z-3.666
G1 X3.130 Y54.229 Z-3.666
G1 X3.153 Y54.305 Z-3.667
G1 X3.184 Y54.380 Z-3.668
G1 X3.221 Y54.451 Z-3.669
G1 X3.265 Y54.520 Z-3.669
G1 X3.315 Y54.584 Z-3.670
G1 X3.370 Y54.643 Z-3.671
G1 X3.429 Y54.696 Z-3.671
G1 X3.492 Y54.743 Z-3.672
G1 X3.558 Y54.784 Z-3.673
G1 X3.625 Y54.818 Z-3.673
G1 X3.696 Y54.847 Z-3.674
G1 X3.770 Y54.870 Z-3.675
G1 X3.846 Y54.887 Z-3.675
G1 X3.923 Y54.897 Z-3.676
G1 X4.000 Y54.900 Z-3.677
G1 X9.200 Y54.900 Z-3.700
G1 X9.600 Y54.900 Z-3.700
G1 X9.600 Y54.900 Z-3.725
G1 X15.350 Y54.900 Z-3.775
G1 X15.426 Y54.897 Z-3.776
G1 X15.504 Y54.887 Z-3.777
G1 X15.583 Y54.869 Z-3.777
G1 X15.662 Y54.844 Z-3.778
G1 X15.739 Y54.811 Z-3.779
G1 X15.815 Y54.771 Z-3.779
G1 X15.887 Y54.722 Z-3.780
G1 X15.955 Y54.667 Z-3.781
G1 X16.017 Y54.605 Z-3.782
G1 X16.072 Y54.537 Z-3.782
G1 X16.121 Y54.465 Z-3.783
G1 X16.161 Y54.389 Z-3.784
G1 X16.194 Y54.312 Z-3.784
G1 X16.219 Y54.233 Z-3.785
G1 X16.237 Y54.154 Z-3.786
G1 X16.247 Y54.076 Z-3.787
G1 X16.250 Y54.000 Z-3.787
G1 X16.250 Y51.920 Z-3.805
G1 X16.250 Y49.700 Z-3.825
G1 X15.986 Y49.436 Z-3.828
G1 X16.250 Y49.700 Z-3.831
G1 X19.450 Y49.700 Z-3.859
G1 X19.714 Y49.436 Z-3.862
G1 X19.450 Y49.700 Z-3.865
G1 X19.450 Y54.000 Z-3.903
G1 X19.453 Y54.076 Z-3.903
G1 X19.463 Y54.154 Z-3.904
G1 X19.481 Y54.233 Z-3.905
G1 X19.506 Y54.312 Z-3.905
G1 X19.539 Y54.389 Z-3.906
G1 X19.579 Y54.465 Z-3.907
G1 X19.628 Y54.537 Z-3.908
G1 X19.683 Y54.605 Z-3.908
G1 X19.745 Y54.667 Z-3.909
G1 X19.813 Y54.722 Z-3.910
G1 X19.885 Y54.771 Z-3.910
G1 X19.961 Y54.811 Z-3.911
G1 X20.038 Y54.844 Z-3.912
G1 X20.117 Y54.869 Z-3.913
G1 X20.196 Y54.887 Z-3.913
G1 X20.274 Y54.897 Z-3.914
G1 X20.350 Y54.900 Z-3.915
G1 X26.500 Y54.900 Z-3.968
G1 X26.576 Y54.897 Z-3.969
G1 X26.654 Y54.887 Z-3.970
G1 X26.733 Y54.869 Z-3.970
G1 X26.812 Y54.844 Z-3.971
G1 X26.889 Y54.811 Z-3.972
G1 X26.965 Y54.771 Z-3.972
G1 X27.037 Y54.722 Z-3.973
G1 X27.105 Y54.667 Z-3.974
G1 X27.167 Y54.605 Z-3.975
G1 X27.222 Y54.537 Z-3.975
G1 X27.271 Y54.465 Z-3.976
G1 X27.311 Y54.389 Z-3.977
G1 X27.344 Y54.312 Z-3.977
G1 X27.369 Y54.233 Z-3.978
G1 X27.387 Y54.154 Z-3.979
G1 X27.397 Y54.076 Z-3.980
G1 X27.400 Y54.000 Z-3.980
G1 X27.400 Y49.700 Z-4.018
G1 X27.136 Y49.436 Z-4.021
G1 X27.400 Y49.700 Z-4.024
G1 X30.600 Y49.700 Z-4.052
G1 X30.864 Y49.436 Z-4.055
G1 X30.600 Y49.700 Z-4.058
G1 X30.600 Y54.000 Z-4.096
G1 X30.603 Y54.076 Z-4.096
G1 X30.613 Y54.154 Z-4.097
G1 X30.631 Y54.233 Z-4.098
G1 X30.656 Y54.312 Z-4.098
G1 X30.689 Y54.389 Z-4.099
G1 X30.729 Y54.465 Z-4.100
G1 X30.778 Y54.537 Z-4.101
G1 X30.833 Y54.605 Z-4.101
G1 X30.895 Y54.667 Z-4.102
G1 X30.963 Y54.722 Z-4.103
G1 X31.035 Y54.771 Z-4.103
G1 X31.111 Y54.811 Z-4.104
G1 X31.188 Y54.844 Z-4.105
G1 X31.267 Y54.869 Z-4.106
G1 X31.346 Y54.887 Z-4.106
G1 X31.424 Y54.897 Z-4.107
G1 X31.500 Y54.900 Z-4.108
G1 X37.650 Y54.900 Z-4.161
G1 X37.726 Y54.897 Z-4.162
G1 X37.804 Y54.887 Z-4.162
G1 X37.883 Y54.869 Z-4.163
G1 X37.962 Y54.844 Z-4.164
G1 X38.039 Y54.811 Z-4.165
G1 X38.115 Y54.771 Z-4.165
G1 X38.187 Y54.722 Z-4.166
G1 X38.255 Y54.667 Z-4.167
G1 X38.317 Y54.605 Z-4.168
G1 X38.372 Y54.537 Z-4.168
G1 X38.421 Y54.465 Z-4.169
G1 X38.461 Y54.389 Z-4.170
G1 X38.494 Y54.312 Z-4.170
G1 X38.519 Y54.233 Z-4.171
G1 X38.537 Y54.154 Z-4.172
G1 X38.547 Y54.076 Z-4.173
G1 X38.550 Y54.000 Z-4.173
G1 X38.550 Y49.700 Z-4.211
G1 X38.286 Y49.436 Z-4.214
G1 X38.550 Y49.700 Z-4.217
G1 X41.750 Y49.700 Z-4.245
G1 X42.014 Y49.436 Z-4.248
G1 X41.750 Y49.700 Z-4.251
G1 X41.750 Y54.000 Z-4.288
G1 X41.753 Y54.076 Z-4.289
G1 X41.763 Y54.154 Z-4.290
G1 X41.781 Y54.233 Z-4.291
G1 X41.806 Y54.312 Z-4.291
G1 X41.839 Y54.389 Z-4.292
G1 X41.879 Y54.465 Z-4.293
G1 X41.928 Y54.537 Z-4.294
G1 X41.983 Y54.605 Z-4.294
G1 X42.045 Y54.667 Z-4.295
G1 X42.113 Y54.722 Z-4.296
G1 X42.185 Y54.771 Z-4.296
G1 X42.261 Y54.811 Z-4.297
G1 X42.338 Y54.844 Z-4.298
G1 X42.417 Y54.869 Z-4.299
G1 X42.496 Y54.887 Z-4.299
G1 X42.574 Y54.897 Z-4.300
G1 X42.650 Y54.900 Z-4.301
G1 X45.325 Y54.900 Z-4.324
G1 X45.325 Y54.900 Z-3.700
G1 X46.410 Y54.900 Z-3.700
G1 X51.325 Y54.900 Z-3.700 F180.0
G1 X51.325 Y54.900 Z-4.333 F250.0
G1 X54.000 Y54.900 Z-4.333 F180.0
G1 X54.076 Y54.897 Z-4.333
G1 X54.152 Y54.887 Z-4.333
G1 X54.229 Y54.870 Z-4.333
G1 X54.305 Y54.847 Z-4.333
G1 X54.380 Y54.816 Z-4.333
G1 X54.451 Y54.779 Z-4.333
G1 X54.520 Y54.735 Z-4.333
G1 X54.584 Y54.685 Z-4.333
G1 X54.643 Y54.630 Z-4.333
G1 X54.696 Y54.571 Z-4.333
G1 X54.743 Y54.508 Z-4.333
G1 X54.784 Y54.442 Z-4.333
G1 X54.818 Y54.375 Z-4.333
G1 X54.818 Y54.375 Z-3.700
G1 X54.847 Y54.304 Z-3.700
G1 X54.870 Y54.230 Z-3.700
G1 X54.887 Y54.154 Z-3.700
G1 X54.897 Y54.077 Z-3.700
G1 X54.900 Y54.000 Z-3.700
G1 X54.900 Y48.800 Z-3.700
G1 X54.900 Y48.400 Z-3.700
G1 X54.900 Y48.400 Z-4.333 F250.0
G1 X54.900 Y42.650 Z-4.333 F180.0
G1 X54.897 Y42.574 Z-4.333
G1 X54.887 Y42.496 Z-4.333
G1 X54.869 Y42.417 Z-4.333
G1 X54.844 Y42.338 Z-4.333
G1 X54.811 Y42.261 Z-4.333
G1 X54.771 Y42.185 Z-4.333
G1 X54.722 Y42.113 Z-4.333
G1 X54.667 Y42.045 Z-4.333
G1 X54.605 Y41.983 Z-4.333
G1 X54.537 Y41.928 Z-4.333
G1 X54.465 Y41.879 Z-4.333
G1 X54.389 Y41.839 Z-4.333
G1 X54.312 Y41.806 Z-4.333
G1 X54.233 Y41.781 Z-4.333
G1 X54.154 Y41.763 Z-4.333
G1 X54.076 Y41.753 Z-4.333
G1 X54.000 Y41.750 Z-4.333
G1 X49.700 Y41.750 Z-4.333
G1 X49.436 Y42.014 Z-4.333
G1 X49.700 Y41.750 Z-4.333
G1 X49.700 Y38.550 Z-4.333
G1 X49.436 Y38.286 Z-4.333
G1 X49.700 Y38.550 Z-4.333
G1 X54.000 Y38.550 Z-4.333
G1 X54.076 Y38.547 Z-4.333
G1 X54.154 Y38.537 Z-4.333
G1 X54.233 Y38.519 Z-4.333
G1 X54.312 Y38.494 Z-4.333
G1 X54.389 Y38.461 Z-4.333
G1 X54.465 Y38.421 Z-4.333
G1 X54.537 Y38.372 Z-4.333
G1 X54.605 Y38.317 Z-4.333
G1 X54.667 Y38.255 Z-4.333
G1 X54.722 Y38.187 Z-4.333
G1 X54.771 Y38.115 Z-4.333
G1 X54.811 Y38.039 Z-4.333
G1 X54.844 Y37.962 Z-4.333
G1 X54.869 Y37.883 Z-4.333
G1 X54.887 Y37.804 Z-4.333
G1 X54.897 Y37.726 Z-4.333
G1 X54.900 Y37.650 Z-4.333
G1 X54.900 Y35.044 Z-4.333
G1 X54.900 Y31.500 Z-4.333
G1 X54.897 Y31.424 Z-4.333
G1 X54.887 Y31.346 Z-4.333
G1 X54.869 Y31.267 Z-4.333
G1 X54.844 Y31.188 Z-4.333
G1 X54.811 Y31.111 Z-4.333
G1 X54.771 Y31.035 Z-4.333
G1 X54.722 Y30.963 Z-4.333
G1 X54.667 Y30.895 Z-4.333
G1 X54.605 Y30.833 Z-4.333
G1 X54.537 Y30.778 Z-4.333
G1 X54.465 Y30.729 Z-4.333
G1 X54.389 Y30.689 Z-4.333
G1 X54.312 Y30.656 Z-4.333
G1 X54.233 Y30.631 Z-4.333
G1 X54.154 Y30.613 Z-4.333
G1 X54.076 Y30.603 Z-4.333
G1 X54.000 Y30.600 Z-4.333
G1 X49.700 Y30.600 Z-4.333
G1 X49.436 Y30.864 Z-4.333
G1 X49.700 Y30.600 Z-4.333
G1 X49.700 Y27.400 Z-4.333
G1 X49.436 Y27.136 Z-4.333
G1 X49.700 Y27.400 Z-4.333
G1 X54.000 Y27.400 Z-4.333
G1 X54.076 Y27.397 Z-4.333
G1 X54.154 Y27.387 Z-4.333
G1 X54.233 Y27.369 Z-4.333
G1 X54.312 Y27.344 Z-4.333
G1 X54.389 Y27.311 Z-4.333
G1 X54.465 Y27.271 Z-4.333
G1 X54.537 Y27.222 Z-4.333
G1 X54.605 Y27.167 Z-4.333
G1 X54.667 Y27.105 Z-4.333
G1 X54.722 Y27.037 Z-4.333
G1 X54.771 Y26.965 Z-4.333
G1 X54.811 Y26.889 Z-4.333
G1 X54.844 Y26.812 Z-4.333
G1 X54.869 Y26.733 Z-4.333
G1 X54.887 Y26.654 Z-4.333
G1 X54.897 Y26.576 Z-4.333
G1 X54.900 Y26.500 Z-4.333
G1 X54.900 Y20.350 Z-4.333
G1 X54.897 Y20.274 Z-4.333
G1 X54.887 Y20.196 Z-4.333
G1 X54.869 Y20.117 Z-4.333
G1 X54.844 Y20.038 Z-4.333
G1 X54.811 Y19.961 Z-4.333
G1 X54.771 Y19.885 Z-4.333
G1 X54.722 Y19.813 Z-4.333
G1 X54.667 Y19.745 Z-4.333
G1 X54.605 Y19.683 Z-4.333
G1 X54.537 Y19.628 Z-4.333
G1 X54.465 Y19.579 Z-4.333
G1 X54.389 Y19.539 Z-4.333
G1 X54.312 Y19.506 Z-4.333
G1 X54.233 Y19.481 Z-4.333
G1 X54.154 Y19.463 Z-4.333
G1 X54.076 Y19.453 Z-4.333
G1 X54.000 Y19.450 Z-4.333
G1 X49.700 Y19.450 Z-4.333
G1 X49.436 Y19.714 Z-4.333
G1 X49.700 Y19.450 Z-4.333
G1 X49.700 Y16.250 Z-4.333
G1 X49.436 Y15.986 Z-4.333
G1 X49.700 Y16.250 Z-4.333
G1 X54.000 Y16.250 Z-4.333
G1 X54.076 Y16.247 Z-4.333
G1 X54.154 Y16.237 Z-4.333
G1 X54.233 Y16.219 Z-4.333
G1 X54.312 Y16.194 Z-4.333
G1 X54.389 Y16.161 Z-4.333
G1 X54.465 Y16.121 Z-4.333
G1 X54.537 Y16.072 Z-4.333
G1 X54.605 Y16.017 Z-4.333
G1 X54.667 Y15.955 Z-4.333
G1 X54.722 Y15.887 Z-4.333
G1 X54.771 Y15.815 Z-4.333
G1 X54.811 Y15.739 Z-4.333
G1 X54.844 Y15.662 Z-4.333
G1 X54.869 Y15.583 Z-4.333
G1 X54.887 Y15.504 Z-4.333
G1 X54.897 Y15.426 Z-4.333
G1 X54.900 Y15.350 Z-4.333
G1 X54.900 Y12.675 Z-4.333
G1 X54.900 Y12.675 Z-3.700
G1 X54.900 Y6.675 Z-3.700
G1 X54.900 Y6.675 Z-4.333 F250.0
G1 X54.900 Y4.000 Z-4.333 F180.0
G1 X54.897 Y3.924 Z-4.333
G1 X54.887 Y3.848 Z-4.333
G1 X54.870 Y3.771 Z-4.333
G1 X54.847 Y3.695 Z-4.333
G1 X54.816 Y3.620 Z-4.333
G1 X54.779 Y3.549 Z-4.333
G1 X54.735 Y3.480 Z-4.333
G1 X54.685 Y3.416 Z-4.333
G1 X54.630 Y3.357 Z-4.333
G1 X54.571 Y3.304 Z-4.333
G1 X54.508 Y3.257 Z-4.333
G1 X54.442 Y3.216 Z-4.333
G1 X54.375 Y3.182 Z-4.333
G1 X54.375 Y3.182 Z-3.700
G1 X54.304 Y3.153 Z-3.700
G1 X54.230 Y3.130 Z-3.700
G1 X54.154 Y3.113 Z-3.700
G1 X54.077 Y3.103 Z-3.700
G1 X54.000 Y3.100 Z-3.700
G1 X48.800 Y3.100 Z-3.700
G1 X48.400 Y3.100 Z-3.700
G1 X48.400 Y3.100 Z-4.333 F250.0
G1 X42.650 Y3.100 Z-4.333 F180.0
G1 X42.574 Y3.103 Z-4.333
G1 X42.496 Y3.113 Z-4.333
G1 X42.417 Y3.131 Z-4.333
G1 X42.338 Y3.156 Z-4.333
G1 X42.261 Y3.189 Z-4.333
G1 X42.185 Y3.229 Z-4.333
G1 X42.113 Y3.278 Z-4.333
G1 X42.045 Y3.333 Z-4.333
G1 X41.983 Y3.395 Z-4.333
G1 X41.928 Y3.463 Z-4.333
G1 X41.879 Y3.535 Z-4.333
G1 X41.839 Y3.611 Z-4.333
G1 X41.806 Y3.688 Z-4.333
G1 X41.781 Y3.767 Z-4.333
G1 X41.763 Y3.846 Z-4.333
G1 X41.753 Y3.924 Z-4.333
G1 X41.750 Y4.000 Z-4.333
G1 X41.750 Y8.300 Z-4.333
G1 X42.014 Y8.564 Z-4.333
G1 X41.750 Y8.300 Z-4.333
G1 X38.550 Y8.300 Z-4.333
G1 X38.286 Y8.564 Z-4.333
G1 X38.550 Y8.300 Z-4.333
G1 X38.550 Y4.000 Z-4.333
G1 X38.547 Y3.924 Z-4.333
G1 X38.537 Y3.846 Z-4.333
G1 X38.519 Y3.767 Z-4.333
G1 X38.494 Y3.688 Z-4.333
G1 X38.461 Y3.611 Z-4.333
G1 X38.421 Y3.535 Z-4.333
G1 X38.372 Y3.463 Z-4.333
G1 X38.317 Y3.395 Z-4.333
G1 X38.255 Y3.333 Z-4.333
G1 X38.187 Y3.278 Z-4.333
G1 X38.115 Y3.229 Z-4.333
G1 X38.039 Y3.189 Z-4.333
G1 X37.962 Y3.156 Z-4.333
G1 X37.883 Y3.131 Z-4.333
G1 X37.804 Y3.113 Z-4.333
G1 X37.726 Y3.103 Z-4.333
G1 X37.650 Y3.100 Z-4.333
G1 X31.500 Y3.100 Z-4.333
G1 X31.424 Y3.103 Z-4.333
G1 X31.346 Y3.113 Z-4.333
G1 X31.267 Y3.131 Z-4.333
G1 X31.188 Y3.156 Z-4.333
G1 X31.111 Y3.189 Z-4.333
G1 X31.035 Y3.229 Z-4.333
G1 X30.963 Y3.278 Z-4.333
G1 X30.895 Y3.333 Z-4.333
G1 X30.833 Y3.395 Z-4.333
G1 X30.778 Y3.463 Z-4.333
G1 X30.729 Y3.535 Z-4.333
G1 X30.689 Y3.611 Z-4.333
G1 X30.656 Y3.688 Z-4.333
G1 X30.631 Y3.767 Z-4.333
G1 X30.613 Y3.846 Z-4.333
G1 X30.603 Y3.924 Z-4.333
G1 X30.600 Y4.000 Z-4.333
G1 X30.600 Y8.300 Z-4.333
G1 X30.864 Y8.564 Z-4.333
G1 X30.600 Y8.300 Z-4.333
G1 X27.400 Y8.300 Z-4.333
G1 X27.136 Y8.564 Z-4.333
G1 X27.400 Y8.300 Z-4.333
G1 X27.400 Y7.019 Z-4.333
G1 X27.400 Y4.000 Z-4.333
G1 X27.397 Y3.924 Z-4.333
G1 X27.387 Y3.846 Z-4.333
G1 X27.369 Y3.767 Z-4.333
G1 X27.344 Y3.688 Z-4.333
G1 X27.311 Y3.611 Z-4.333
G1 X27.271 Y3.535 Z-4.333
G1 X27.222 Y3.463 Z-4.333
G1 X27.167 Y3.395 Z-4.333
G1 X27.105 Y3.333 Z-4.333
G1 X27.037 Y3.278 Z-4.333
G1 X26.965 Y3.229 Z-4.333
G1 X26.889 Y3.189 Z-4.333
G1 X26.812 Y3.156 Z-4.333
G1 X26.733 Y3.131 Z-4.333
G1 X26.654 Y3.113 Z-4.333
G1 X26.576 Y3.103 Z-4.333
G1 X26.500 Y3.100 Z-4.333
G1 X20.350 Y3.100 Z-4.333
G1 X20.274 Y3.103 Z-4.333
G1 X20.196 Y3.113 Z-4.333
G1 X20.117 Y3.131 Z-4.333
G1 X20.038 Y3.156 Z-4.333
G1 X19.961 Y3.189 Z-4.333
G1 X19.885 Y3.229 Z-4.333
G1 X19.813 Y3.278 Z-4.333
G1 X19.745 Y3.333 Z-4.333
G1 X19.683 Y3.395 Z-4.333
G1 X19.628 Y3.463 Z-4.333
G1 X19.579 Y3.535 Z-4.333
G1 X19.539 Y3.611 Z-4.333
G1 X19.506 Y3.688 Z-4.333
G1 X19.481 Y3.767 Z-4.333
G1 X19.463 Y3.846 Z-4.333
G1 X19.453 Y3.924 Z-4.333
G1 X19.450 Y4.000 Z-4.333
G1 X19.450 Y8.300 Z-4.333
G1 X19.714 Y8.564 Z-4.333
G1 X19.450 Y8.300 Z-4.333
G1 X16.250 Y8.300 Z-4.333
G1 X15.986 Y8.564 Z-4.333
G1 X16.250 Y8.300 Z-4.333
G1 X16.250 Y4.000 Z-4.333
G1 X16.247 Y3.924 Z-4.333
G1 X16.237 Y3.846 Z-4.333
G1 X16.219 Y3.767 Z-4.333
G1 X16.194 Y3.688 Z-4.333
G1 X16.161 Y3.611 Z-4.333
G1 X16.121 Y3.535 Z-4.333
G1 X16.072 Y3.463 Z-4.333
G1 X16.017 Y3.395 Z-4.333
G1 X15.955 Y3.333 Z-4.333
G1 X15.887 Y3.278 Z-4.333
G1 X15.815 Y3.229 Z-4.333
G1 X15.739 Y3.189 Z-4.333
G1 X15.662 Y3.156 Z-4.333
G1 X15.583 Y3.131 Z-4.333
G1 X15.504 Y3.113 Z-4.333
G1 X15.426 Y3.103 Z-4.333
G1 X15.350 Y3.100 Z-4.333
G1 X12.675 Y3.100 Z-4.333
G1 X12.675 Y3.100 Z-3.700
G1 X6.675 Y3.100 Z-3.700
G1 X6.675 Y3.100 Z-4.333 F250.0
G1 X4.000 Y3.100 Z-4.333 F180.0
G1 X3.924 Y3.103 Z-4.333
G1 X3.848 Y3.113 Z-4.333
G1 X3.771 Y3.130 Z-4.333
G1 X3.695 Y3.153 Z-4.333
G1 X3.620 Y3.184 Z-4.333
G1 X3.549 Y3.221 Z-4.333
G1 X3.480 Y3.265 Z-4.333
G1 X3.416 Y3.315 Z-4.333
G1 X3.357 Y3.370 Z-4.333
G1 X3.304 Y3.429 Z-4.333
G1 X3.257 Y3.492 Z-4.333
G1 X3.216 Y3.558 Z-4.333
G1 X3.182 Y3.625 Z-4.333
G1 X3.182 Y3.625 Z-3.700
G1 X3.153 Y3.696 Z-3.700
G1 X3.130 Y3.770 Z-3.700
G1 X3.113 Y3.846 Z-3.700
G1 X3.103 Y3.923 Z-3.700
G1 X3.100 Y4.000 Z-3.700
G1 X3.100 Y9.200 Z-3.700
G1 X3.100 Y9.600 Z-3.700
G1 X3.100 Y9.600 Z-4.333 F250.0
G1 X3.100 Y15.350 Z-4.333 F180.0
G1 X3.103 Y15.426 Z-4.333
G1 X3.113 Y15.504 Z-4.333
G1 X3.131 Y15.583 Z-4.333
G1 X3.156 Y15.662 Z-4.333
G1 X3.189 Y15.739 Z-4.333
G1 X3.229 Y15.815 Z-4.333
G1 X3.278 Y15.887 Z-4.333
G1 X3.333 Y15.955 Z-4.333
G1 X3.395 Y16.017 Z-4.333
G1 X3.463 Y16.072 Z-4.333
G1 X3.535 Y16.121 Z-4.333
G1 X3.611 Y16.161 Z-4.333
G1 X3.688 Y16.194 Z-4.333
G1 X3.767 Y16.219 Z-4.333
G1 X3.846 Y16.237 Z-4.333
G1 X3.924 Y16.247 Z-4.333
G1 X4.000 Y16.250 Z-4.333
G1 X8.300 Y16.250 Z-4.333
G1 X8.564 Y15.986 Z-4.333
G1 X8.300 Y16.250 Z-4.333
G1 X8.300 Y19.450 Z-4.333
G1 X8.564 Y19.714 Z-4.333
G1 X8.300 Y19.450 Z-4.333
G1 X4.000 Y19.450 Z-4.333
G1 X3.924 Y19.453 Z-4.333
G1 X3.846 Y19.463 Z-4.333
G1 X3.767 Y19.481 Z-4.333
G1 X3.688 Y19.506 Z-4.333
G1 X3.611 Y19.539 Z-4.333
G1 X3.535 Y19.579 Z-4.333
G1 X3.463 Y19.628 Z-4.333
G1 X3.395 Y19.683 Z-4.333
G1 X3.333 Y19.745 Z-4.333
G1 X3.278 Y19.813 Z-4.333
G1 X3.229 Y19.885 Z-4.333
G1 X3.189 Y19.961 Z-4.333
G1 X3.156 Y20.038 Z-4.333
G1 X3.131 Y20.117 Z-4.333
G1 X3.113 Y20.196 Z-4.333
G1 X3.103 Y20.274 Z-4.333
G1 X3.100 Y20.350 Z-4.333
G1 X3.100 Y26.500 Z-4.333
G1 X3.103 Y26.576 Z-4.333
G1 X3.113 Y26.654 Z-4.333
G1 X3.131 Y26.733 Z-4.333
G1 X3.156 Y26.812 Z-4.333
G1 X3.189 Y26.889 Z-4.333
G1 X3.229 Y26.965 Z-4.333
G1 X3.278 Y27.037 Z-4.333
G1 X3.333 Y27.105 Z-4.333
G1 X3.395 Y27.167 Z-4.333
G1 X3.463 Y27.222 Z-4.333
G1 X3.535 Y27.271 Z-4.333
G1 X3.611 Y27.311 Z-4.333
G1 X3.688 Y27.344 Z-4.333
G1 X3.767 Y27.369 Z-4.333
G1 X3.846 Y27.387 Z-4.333
G1 X3.924 Y27.397 Z-4.333
G1 X4.000 Y27.400 Z-4.333
G1 X8.300 Y27.400 Z-4.333
G1 X8.564 Y27.136 Z-4.333
G1 X8.300 Y27.400 Z-4.333
G1 X8.300 Y30.600 Z-4.333
G1 X8.564 Y30.864 Z-4.333
G1 X8.300 Y30.600 Z-4.333
G1 X4.000 Y30.600 Z-4.333
G1 X3.924 Y30.603 Z-4.333
G1 X3.846 Y30.613 Z-4.333
G1 X3.767 Y30.631 Z-4.333
G1 X3.688 Y30.656 Z-4.333
G1 X3.611 Y30.689 Z-4.333
G1 X3.535 Y30.729 Z-4.333
G1 X3.463 Y30.778 Z-4.333
G1 X3.395 Y30.833 Z-4.333
G1 X3.333 Y30.895 Z-4.333
G1 X3.278 Y30.963 Z-4.333
G1 X3.229 Y31.035 Z-4.333
G1 X3.189 Y31.111 Z-4.333
G1 X3.156 Y31.188 Z-4.333
G1 X3.131 Y31.267 Z-4.333
G1 X3.113 Y31.346 Z-4.333
G1 X3.103 Y31.424 Z-4.333
G1 X3.100 Y31.500 Z-4.333
G1 X3.100 Y37.650 Z-4.333
G1 X3.103 Y37.726 Z-4.333
G1 X3.113 Y37.804 Z-4.333
G1 X3.131 Y37.883 Z-4.333
G1 X3.156 Y37.962 Z-4.333
G1 X3.189 Y38.039 Z-4.333
G1 X3.229 Y38.115 Z-4.333
G1 X3.278 Y38.187 Z-4.333
G1 X3.333 Y38.255 Z-4.333
G1 X3.395 Y38.317 Z-4.333
G1 X3.463 Y38.372 Z-4.333
G1 X3.535 Y38.421 Z-4.333
G1 X3.611 Y38.461 Z-4.333
G1 X3.688 Y38.494 Z-4.333
G1 X3.767 Y38.519 Z-4.333
G1 X3.846 Y38.537 Z-4.333
G1 X3.924 Y38.547 Z-4.333
G1 X4.000 Y38.550 Z-4.333
G1 X7.234 Y38.550 Z-4.333
G1 X8.300 Y38.550 Z-4.333
G1 X8.564 Y38.286 Z-4.333
G1 X8.300 Y38.550 Z-4.333
G1 X8.300 Y41.750 Z-4.333
G1 X8.564 Y42.014 Z-4.333
G1 X8.300 Y41.750 Z-4.333
G1 X4.000 Y41.750 Z-4.333
G1 X3.924 Y41.753 Z-4.333
G1 X3.846 Y41.763 Z-4.333
G1 X3.767 Y41.781 Z-4.333
G1 X3.688 Y41.806 Z-4.333
G1 X3.611 Y41.839 Z-4.333
G1 X3.535 Y41.879 Z-4.333
G1 X3.463 Y41.928 Z-4.333
G1 X3.395 Y41.983 Z-4.333
G1 X3.333 Y42.045 Z-4.333
G1 X3.278 Y42.113 Z-4.333
G1 X3.229 Y42.185 Z-4.333
G1 X3.189 Y42.261 Z-4.333
G1 X3.156 Y42.338 Z-4.333
G1 X3.131 Y42.417 Z-4.333
G1 X3.113 Y42.496 Z-4.333
G1 X3.103 Y42.574 Z-4.333
G1 X3.100 Y42.650 Z-4.333
G1 X3.100 Y45.325 Z-4.333
G1 X3.100 Y45.325 Z-3.700
G1 X3.100 Y51.325 Z-3.700
G1 X3.100 Y51.325 Z-4.333 F250.0
G1 X3.100 Y54.000 Z-4.333 F180.0
G1 X3.103 Y54.076 Z-4.333
G1 X3.113 Y54.152 Z-4.333
G1 X3.130 Y54.229 Z-4.333
G1 X3.153 Y54.305 Z-4.333
G1 X3.184 Y54.380 Z-4.333
G1 X3.221 Y54.451 Z-4.333
G1 X3.265 Y54.520 Z-4.333
G1 X3.315 Y54.584 Z-4.333
G1 X3.370 Y54.643 Z-4.333
G1 X3.429 Y54.696 Z-4.333
G1 X3.492 Y54.743 Z-4.333
G1 X3.558 Y54.784 Z-4.333
G1 X3.625 Y54.818 Z-4.333
G1 X3.625 Y54.818 Z-3.700
G1 X3.696 Y54.847 Z-3.700
G1 X3.770 Y54.870 Z-3.700
