(VECTRIC POST REVISION)
(AE8C5706166A14C0DE23454C54EBD95B)
%
G21
G40
G94
G97
G64
G90
T1 M6
M8
M3 S12000
G0 X177.000 Y9.200
G0 Z6.000
G1 X177.000 Y9.200 Z0.000 F250.0
G1 X177.000 Y9.275 Z-0.001
G1 X177.000 Y15.275 Z-0.053
G1 X177.000 Y15.350 Z-0.053
G1 X177.003 Y15.430 Z-0.054
G1 X177.013 Y15.511 Z-0.055
G1 X177.030 Y15.594 Z-0.056
G1 X177.055 Y15.677 Z-0.056
G1 X177.087 Y15.759 Z-0.057
G1 X177.128 Y15.839 Z-0.058
G1 X177.176 Y15.916 Z-0.059
G1 X177.231 Y15.989 Z-0.059
G1 X177.293 Y16.057 Z-0.060
G1 X177.361 Y16.119 Z-0.061
G1 X177.434 Y16.174 Z-0.062
G1 X177.511 Y16.222 Z-0.062
G1 X177.591 Y16.263 Z-0.063
G1 X177.673 Y16.295 Z-0.064
G1 X177.756 Y16.320 Z-0.065
G1 X177.839 Y16.337 Z-0.065
G1 X177.920 Y16.347 Z-0.066
G1 X178.000 Y16.350 Z-0.067
G1 X178.810 Y16.350 Z-0.074
G1 X182.200 Y16.350 Z-0.103
G1 X182.493 Y16.057 Z-0.107
G1 X182.200 Y16.350 Z-0.110
G1 X182.200 Y19.350 Z-0.136
G1 X182.493 Y19.643 Z-0.140
G1 X182.200 Y19.350 Z-0.144
G1 X178.000 Y19.350 Z-0.180
G1 X177.920 Y19.353 Z-0.181
G1 X177.839 Y19.363 Z-0.182
G1 X177.756 Y19.380 Z-0.182
G1 X177.673 Y19.405 Z-0.183
G1 X177.591 Y19.437 Z-0.184
G1 X177.511 Y19.478 Z-0.185
G1 X177.434 Y19.526 Z-0.185
G1 X177.361 Y19.581 Z-0.186
G1 X177.293 Y19.643 Z-0.187
G1 X177.231 Y19.711 Z-0.188
G1 X177.176 Y19.784 Z-0.188
G1 X177.128 Y19.861 Z-0.189
G1 X177.087 Y19.941 Z-0.190
G1 X177.055 Y20.023 Z-0.191
G1 X177.030 Y20.106 Z-0.191
G1 X177.013 Y20.189 Z-0.192
G1 X177.003 Y20.270 Z-0.193
G1 X177.000 Y20.350 Z-0.194
G1 X177.000 Y26.500 Z-0.247
G1 X177.003 Y26.580 Z-0.248
G1 X177.013 Y26.661 Z-0.248
G1 X177.030 Y26.744 Z-0.249
G1 X177.055 Y26.827 Z-0.250
G1 X177.087 Y26.909 Z-0.251
G1 X177.128 Y26.989 Z-0.252
G1 X177.176 Y27.066 Z-0.252
G1 X177.231 Y27.139 Z-0.253
G1 X177.293 Y27.207 Z-0.254
G1 X177.361 Y27.269 Z-0.255
G1 X177.434 Y27.324 Z-0.255
G1 X177.511 Y27.372 Z-0.256
G1 X177.591 Y27.413 Z-0.257
G1 X177.673 Y27.445 Z-0.258
G1 X177.756 Y27.470 Z-0.258
G1 X177.839 Y27.487 Z-0.259
G1 X177.920 Y27.497 Z-0.260
G1 X178.000 Y27.500 Z-0.261
G1 X182.200 Y27.500 Z-0.297
G1 X182.493 Y27.207 Z-0.301
G1 X182.200 Y27.500 Z-0.304
G1 X182.200 Y30.500 Z-0.330
G1 X182.493 Y30.793 Z-0.334
G1 X182.200 Y30.500 Z-0.337
G1 X178.000 Y30.500 Z-0.374
G1 X177.920 Y30.503 Z-0.375
G1 X177.839 Y30.513 Z-0.375
G1 X177.756 Y30.530 Z-0.376
G1 X177.673 Y30.555 Z-0.377
G1 X177.591 Y30.587 Z-0.378
G1 X177.511 Y30.628 Z-0.378
G1 X177.434 Y30.676 Z-0.379
G1 X177.361 Y30.731 Z-0.380
G1 X177.293 Y30.793 Z-0.381
G1 X177.231 Y30.861 Z-0.381
G1 X177.176 Y30.934 Z-0.382
G1 X177.128 Y31.011 Z-0.383
G1 X177.087 Y31.091 Z-0.384
G1 X177.055 Y31.173 Z-0.384
G1 X177.030 Y31.256 Z-0.385
G1 X177.013 Y31.339 Z-0.386
G1 X177.003 Y31.420 Z-0.387
G1 X177.000 Y31.500 Z-0.387
G1 X177.000 Y37.650 Z-0.441
G1 X177.003 Y37.730 Z-0.441
G1 X177.013 Y37.811 Z-0.442
G1 X177.030 Y37.894 Z-0.443
G1 X177.055 Y37.977 Z-0.444
G1 X177.087 Y38.059 Z-0.444
G1 X177.128 Y38.139 Z-0.445
G1 X177.176 Y38.216 Z-0.446
G1 X177.231 Y38.289 Z-0.447
G1 X177.293 Y38.357 Z-0.447
G1 X177.361 Y38.419 Z-0.448
G1 X177.434 Y38.474 Z-0.449
G1 X177.511 Y38.522 Z-0.450
G1 X177.591 Y38.563 Z-0.451
G1 X177.673 Y38.595 Z-0.451
G1 X177.756 Y38.620 Z-0.452
G1 X177.839 Y38.637 Z-0.453
G1 X177.920 Y38.647 Z-0.454
G1 X178.000 Y38.650 Z-0.454
G1 X182.200 Y38.650 Z-0.491
G1 X182.493 Y38.357 Z-0.494
G1 X182.200 Y38.650 Z-0.498
G1 X182.200 Y41.650 Z-0.524
G1 X182.493 Y41.943 Z-0.527
G1 X182.200 Y41.650 Z-0.531
G1 X178.000 Y41.650 Z-0.567
G1 X177.920 Y41.653 Z-0.568
G1 X177.839 Y41.663 Z-0.569
G1 X177.756 Y41.680 Z-0.570
G1 X177.673 Y41.705 Z-0.570
G1 X177.591 Y41.737 Z-0.571
G1 X177.511 Y41.778 Z-0.572
G1 X177.434 Y41.826 Z-0.573
G1 X177.361 Y41.881 Z-0.573
G1 X177.293 Y41.943 Z-0.574
G1 X177.231 Y42.011 Z-0.575
G1 X177.176 Y42.084 Z-0.576
G1 X177.128 Y42.161 Z-0.577
G1 X177.087 Y42.241 Z-0.577
G1 X177.055 Y42.323 Z-0.578
G1 X177.030 Y42.406 Z-0.579
G1 X177.013 Y42.489 Z-0.580
G1 X177.003 Y42.570 Z-0.580
G1 X177.000 Y42.650 Z-0.581
G1 X177.000 Y42.725 Z-0.582
G1 X177.000 Y48.725 Z-0.634
G1 X177.000 Y48.800 Z-0.634
G1 X177.000 Y51.400 Z-0.657
G1 X177.003 Y51.480 Z-0.658
G1 X177.013 Y51.561 Z-0.658
G1 X177.030 Y51.644 Z-0.659
G1 X177.055 Y51.727 Z-0.660
G1 X177.087 Y51.809 Z-0.661
G1 X177.128 Y51.889 Z-0.661
G1 X177.176 Y51.966 Z-0.662
G1 X177.231 Y52.039 Z-0.663
G1 X177.293 Y52.107 Z-0.664
G1 X177.361 Y52.169 Z-0.664
G1 X177.434 Y52.224 Z-0.665
G1 X177.511 Y52.272 Z-0.666
G1 X177.591 Y52.313 Z-0.667
G1 X177.673 Y52.345 Z-0.667
G1 X177.756 Y52.370 Z-0.668
G1 X177.839 Y52.387 Z-0.669
G1 X177.920 Y52.397 Z-0.670
G1 X178.000 Y52.400 Z-0.671
G1 X200.000 Y52.400 Z-0.861
G1 X200.634 Y52.400 Z-0.867
G1 X206.000 Y52.400 Z-0.867 F180.0
G1 X209.165 Y52.400 Z-0.867
G1 X228.000 Y52.400 Z-0.867
G1 X228.080 Y52.397 Z-0.867
G1 X228.161 Y52.387 Z-0.867
G1 X228.244 Y52.370 Z-0.867
G1 X228.327 Y52.345 Z-0.867
G1 X228.409 Y52.313 Z-0.867
G1 X228.489 Y52.272 Z-0.867
G1 X228.566 Y52.224 Z-0.867
G1 X228.639 Y52.169 Z-0.867
G1 X228.707 Y52.107 Z-0.867
G1 X228.769 Y52.039 Z-0.867
G1 X228.824 Y51.966 Z-0.867
G1 X228.872 Y51.889 Z-0.867
G1 X228.913 Y51.809 Z-0.867
G1 X228.945 Y51.727 Z-0.867
G1 X228.970 Y51.644 Z-0.867
G1 X228.987 Y51.561 Z-0.867
G1 X228.997 Y51.480 Z-0.867
G1 X229.000 Y51.400 Z-0.867
G1 X229.000 Y48.800 Z-0.867
G1 X229.000 Y48.725 Z-0.867
G1 X229.000 Y42.725 Z-0.867
G1 X229.000 Y42.650 Z-0.867
G1 X228.997 Y42.570 Z-0.867
G1 X228.987 Y42.489 Z-0.867
G1 X228.970 Y42.406 Z-0.867
G1 X228.945 Y42.323 Z-0.867
G1 X228.913 Y42.241 Z-0.867
G1 X228.872 Y42.161 Z-0.867
G1 X228.824 Y42.084 Z-0.867
G1 X228.769 Y42.011 Z-0.867
G1 X228.707 Y41.943 Z-0.867
G1 X228.639 Y41.881 Z-0.867
G1 X228.566 Y41.826 Z-0.867
G1 X228.489 Y41.778 Z-0.867
G1 X228.409 Y41.737 Z-0.867
G1 X228.327 Y41.705 Z-0.867
G1 X228.244 Y41.680 Z-0.867
G1 X228.161 Y41.663 Z-0.867
G1 X228.080 Y41.653 Z-0.867
G1 X228.000 Y41.650 Z-0.867
G1 X223.800 Y41.650 Z-0.867
G1 X223.507 Y41.943 Z-0.867
G1 X223.800 Y41.650 Z-0.867
G1 X223.800 Y38.650 Z-0.867
G1 X223.507 Y38.357 Z-0.867
G1 X223.800 Y38.650 Z-0.867
G1 X228.000 Y38.650 Z-0.867
G1 X228.080 Y38.647 Z-0.867
G1 X228.161 Y38.637 Z-0.867
G1 X228.244 Y38.620 Z-0.867
G1 X228.327 Y38.595 Z-0.867
G1 X228.409 Y38.563 Z-0.867
G1 X228.489 Y38.522 Z-0.867
G1 X228.566 Y38.474 Z-0.867
G1 X228.639 Y38.419 Z-0.867
G1 X228.707 Y38.357 Z-0.867
G1 X228.769 Y38.289 Z-0.867
G1 X228.824 Y38.216 Z-0.867
G1 X228.872 Y38.139 Z-0.867
G1 X228.913 Y38.059 Z-0.867
G1 X228.945 Y37.977 Z-0.867
G1 X228.970 Y37.894 Z-0.867
G1 X228.987 Y37.811 Z-0.867
G1 X228.997 Y37.730 Z-0.867
G1 X229.000 Y37.650 Z-0.867
G1 X229.000 Y31.500 Z-0.867
G1 X228.997 Y31.420 Z-0.867
G1 X228.987 Y31.339 Z-0.867
G1 X228.970 Y31.256 Z-0.867
G1 X228.945 Y31.173 Z-0.867
G1 X228.913 Y31.091 Z-0.867
G1 X228.872 Y31.011 Z-0.867
G1 X228.824 Y30.934 Z-0.867
G1 X228.769 Y30.861 Z-0.867
G1 X228.707 Y30.793 Z-0.867
G1 X228.639 Y30.731 Z-0.867
G1 X228.566 Y30.676 Z-0.867
G1 X228.489 Y30.628 Z-0.867
G1 X228.409 Y30.587 Z-0.867
G1 X228.327 Y30.555 Z-0.867
G1 X228.244 Y30.530 Z-0.867
G1 X228.161 Y30.513 Z-0.867
G1 X228.080 Y30.503 Z-0.867
G1 X228.000 Y30.500 Z-0.867
G1 X223.800 Y30.500 Z-0.867
G1 X223.507 Y30.793 Z-0.867
G1 X223.800 Y30.500 Z-0.867
G1 X223.800 Y27.500 Z-0.867
G1 X223.507 Y27.207 Z-0.867
G1 X223.800 Y27.500 Z-0.867
G1 X228.000 Y27.500 Z-0.867
G1 X228.080 Y27.497 Z-0.867
G1 X228.161 Y27.487 Z-0.867
G1 X228.244 Y27.470 Z-0.867
G1 X228.327 Y27.445 Z-0.867
G1 X228.409 Y27.413 Z-0.867
G1 X228.489 Y27.372 Z-0.867
G1 X228.566 Y27.324 Z-0.867
G1 X228.639 Y27.269 Z-0.867
G1 X228.707 Y27.207 Z-0.867
G1 X228.769 Y27.139 Z-0.867
G1 X228.824 Y27.066 Z-0.867
G1 X228.872 Y26.989 Z-0.867
G1 X228.913 Y26.909 Z-0.867
G1 X228.945 Y26.827 Z-0.867
G1 X228.970 Y26.744 Z-0.867
G1 X228.987 Y26.661 Z-0.867
G1 X228.997 Y26.580 Z-0.867
G1 X229.000 Y26.500 Z-0.867
G1 X229.000 Y20.350 Z-0.867
G1 X228.997 Y20.270 Z-0.867
G1 X228.987 Y20.189 Z-0.867
G1 X228.970 Y20.106 Z-0.867
G1 X228.945 Y20.023 Z-0.867
G1 X228.913 Y19.941 Z-0.867
G1 X228.872 Y19.861 Z-0.867
G1 X228.824 Y19.784 Z-0.867
G1 X228.769 Y19.711 Z-0.867
G1 X228.707 Y19.643 Z-0.867
G1 X228.639 Y19.581 Z-0.867
G1 X228.566 Y19.526 Z-0.867
G1 X228.489 Y19.478 Z-0.867
G1 X228.409 Y19.437 Z-0.867
G1 X228.327 Y19.405 Z-0.867
G1 X228.244 Y19.380 Z-0.867
G1 X228.161 Y19.363 Z-0.867
G1 X228.080 Y19.353 Z-0.867
G1 X228.000 Y19.350 Z-0.867
G1 X223.800 Y19.350 Z-0.867
G1 X223.507 Y19.643 Z-0.867
G1 X223.800 Y19.350 Z-0.867
G1 X223.800 Y16.350 Z-0.867
G1 X223.507 Y16.057 Z-0.867
G1 X223.800 Y16.350 Z-0.867
G1 X228.000 Y16.350 Z-0.867
G1 X228.080 Y16.347 Z-0.867
G1 X228.161 Y16.337 Z-0.867
G1 X228.244 Y16.320 Z-0.867
G1 X228.327 Y16.295 Z-0.867
G1 X228.409 Y16.263 Z-0.867
G1 X228.489 Y16.222 Z-0.867
G1 X228.566 Y16.174 Z-0.867
G1 X228.639 Y16.119 Z-0.867
G1 X228.707 Y16.057 Z-0.867
G1 X228.769 Y15.989 Z-0.867
G1 X228.824 Y15.916 Z-0.867
G1 X228.872 Y15.839 Z-0.867
G1 X228.913 Y15.759 Z-0.867
G1 X228.945 Y15.677 Z-0.867
G1 X228.970 Y15.594 Z-0.867
G1 X228.987 Y15.511 Z-0.867
G1 X228.997 Y15.430 Z-0.867
G1 X229.000 Y15.350 Z-0.867
G1 X229.000 Y15.275 Z-0.867
G1 X229.000 Y13.932 Z-0.867
G1 X229.000 Y9.275 Z-0.867
G1 X229.000 Y9.200 Z-0.867
G1 X228.997 Y9.119 Z-0.867
G1 X228.987 Y9.037 Z-0.867
G1 X228.970 Y8.955 Z-0.867
G1 X228.945 Y8.873 Z-0.867
G1 X228.914 Y8.793 Z-0.867
G1 X228.875 Y8.715 Z-0.867
G1 X228.829 Y8.641 Z-0.867
G1 X228.777 Y8.571 Z-0.867
G1 X228.720 Y8.506 Z-0.867
G1 X228.657 Y8.446 Z-0.867
G1 X228.591 Y8.393 Z-0.867
G1 X228.521 Y8.346 Z-0.867
G1 X228.449 Y8.306 Z-0.867
G1 X228.375 Y8.273 Z-0.867
G1 X228.303 Y8.247 Z-0.867
G1 X228.229 Y8.227 Z-0.867
G1 X228.153 Y8.212 Z-0.867
G1 X228.077 Y8.203 Z-0.867
G1 X228.000 Y8.200 Z-0.867
G1 X225.772 Y8.200 Z-0.867
G1 X222.800 Y8.200 Z-0.867
G1 X222.400 Y8.200 Z-0.867
G1 X217.650 Y8.200 Z-0.867
G1 X217.357 Y8.493 Z-0.867
G1 X217.650 Y8.200 Z-0.867
G1 X217.650 Y4.000 Z-0.867
G1 X217.647 Y3.920 Z-0.867
G1 X217.637 Y3.839 Z-0.867
G1 X217.620 Y3.756 Z-0.867
G1 X217.595 Y3.673 Z-0.867
G1 X217.563 Y3.591 Z-0.867
G1 X217.522 Y3.511 Z-0.867
G1 X217.474 Y3.434 Z-0.867
G1 X217.419 Y3.361 Z-0.867
G1 X217.357 Y3.293 Z-0.867
G1 X217.289 Y3.231 Z-0.867
G1 X217.216 Y3.176 Z-0.867
G1 X217.139 Y3.128 Z-0.867
G1 X217.059 Y3.087 Z-0.867
G1 X216.977 Y3.055 Z-0.867
G1 X216.894 Y3.030 Z-0.867
G1 X216.811 Y3.013 Z-0.867
G1 X216.730 Y3.003 Z-0.867
G1 X216.650 Y3.000 Z-0.867
G1 X211.650 Y3.000 Z-0.867
G1 X211.570 Y3.003 Z-0.867
G1 X211.489 Y3.013 Z-0.867
G1 X211.406 Y3.030 Z-0.867
G1 X211.323 Y3.055 Z-0.867
G1 X211.241 Y3.087 Z-0.867
G1 X211.161 Y3.128 Z-0.867
G1 X211.084 Y3.176 Z-0.867
G1 X211.011 Y3.231 Z-0.867
G1 X210.943 Y3.293 Z-0.867
G1 X210.881 Y3.361 Z-0.867
G1 X210.826 Y3.434 Z-0.867
G1 X210.778 Y3.511 Z-0.867
G1 X210.737 Y3.591 Z-0.867
G1 X210.705 Y3.673 Z-0.867
G1 X210.680 Y3.756 Z-0.867
G1 X210.663 Y3.839 Z-0.867
G1 X210.653 Y3.920 Z-0.867
G1 X210.650 Y4.000 Z-0.867
G1 X210.650 Y8.200 Z-0.867
G1 X210.943 Y8.493 Z-0.867
G1 X210.650 Y8.200 Z-0.867
G1 X206.500 Y8.200 Z-0.867
G1 X206.207 Y8.493 Z-0.867
G1 X206.500 Y8.200 Z-0.867
G1 X206.500 Y4.000 Z-0.867
G1 X206.497 Y3.920 Z-0.867
G1 X206.487 Y3.839 Z-0.867
G1 X206.470 Y3.756 Z-0.867
G1 X206.445 Y3.673 Z-0.867
G1 X206.413 Y3.591 Z-0.867
G1 X206.372 Y3.511 Z-0.867
G1 X206.324 Y3.434 Z-0.867
G1 X206.269 Y3.361 Z-0.867
G1 X206.207 Y3.293 Z-0.867
G1 X206.139 Y3.231 Z-0.867
G1 X206.066 Y3.176 Z-0.867
G1 X205.989 Y3.128 Z-0.867
G1 X205.909 Y3.087 Z-0.867
G1 X205.827 Y3.055 Z-0.867
G1 X205.744 Y3.030 Z-0.867
G1 X205.661 Y3.013 Z-0.867
G1 X205.580 Y3.003 Z-0.867
G1 X205.500 Y3.000 Z-0.867
G1 X200.500 Y3.000 Z-0.867
G1 X200.420 Y3.003 Z-0.867
G1 X200.339 Y3.013 Z-0.867
G1 X200.256 Y3.030 Z-0.867
G1 X200.173 Y3.055 Z-0.867
G1 X200.091 Y3.087 Z-0.867
G1 X200.011 Y3.128 Z-0.867
G1 X199.934 Y3.176 Z-0.867
G1 X199.861 Y3.231 Z-0.867
G1 X199.793 Y3.293 Z-0.867
G1 X199.731 Y3.361 Z-0.867
G1 X199.676 Y3.434 Z-0.867
G1 X199.628 Y3.511 Z-0.867
G1 X199.587 Y3.591 Z-0.867
G1 X199.555 Y3.673 Z-0.867
G1 X199.530 Y3.756 Z-0.867
G1 X199.513 Y3.839 Z-0.867
G1 X199.503 Y3.920 Z-0.867
G1 X199.500 Y4.000 Z-0.867
G1 X199.500 Y8.200 Z-0.867
G1 X199.793 Y8.493 Z-0.867
G1 X199.500 Y8.200 Z-0.867
G1 X195.350 Y8.200 Z-0.867
G1 X195.057 Y8.493 Z-0.867
G1 X195.350 Y8.200 Z-0.867
G1 X195.350 Y4.000 Z-0.867
G1 X195.347 Y3.920 Z-0.867
G1 X195.337 Y3.839 Z-0.867
G1 X195.320 Y3.756 Z-0.867
G1 X195.295 Y3.673 Z-0.867
G1 X195.263 Y3.591 Z-0.867
G1 X195.222 Y3.511 Z-0.867
G1 X195.174 Y3.434 Z-0.867
G1 X195.119 Y3.361 Z-0.867
G1 X195.057 Y3.293 Z-0.867
G1 X194.989 Y3.231 Z-0.867
G1 X194.916 Y3.176 Z-0.867
G1 X194.839 Y3.128 Z-0.867
G1 X194.759 Y3.087 Z-0.867
G1 X194.677 Y3.055 Z-0.867
G1 X194.594 Y3.030 Z-0.867
G1 X194.511 Y3.013 Z-0.867
G1 X194.430 Y3.003 Z-0.867
G1 X194.350 Y3.000 Z-0.867
G1 X189.350 Y3.000 Z-0.867
G1 X189.270 Y3.003 Z-0.867
G1 X189.189 Y3.013 Z-0.867
G1 X189.106 Y3.030 Z-0.867
G1 X189.023 Y3.055 Z-0.867
G1 X188.941 Y3.087 Z-0.867
G1 X188.861 Y3.128 Z-0.867
G1 X188.784 Y3.176 Z-0.867
G1 X188.711 Y3.231 Z-0.867
G1 X188.643 Y3.293 Z-0.867
G1 X188.581 Y3.361 Z-0.867
G1 X188.526 Y3.434 Z-0.867
G1 X188.478 Y3.511 Z-0.867
G1 X188.437 Y3.591 Z-0.867
G1 X188.405 Y3.673 Z-0.867
G1 X188.380 Y3.756 Z-0.867
G1 X188.363 Y3.839 Z-0.867
G1 X188.353 Y3.920 Z-0.867
G1 X188.350 Y4.000 Z-0.867
G1 X188.350 Y8.200 Z-0.867
G1 X188.643 Y8.493 Z-0.867
G1 X188.350 Y8.200 Z-0.867
G1 X186.675 Y8.200 Z-0.867
G1 X180.675 Y8.200 Z-0.867
G1 X178.000 Y8.200 Z-0.867
G1 X177.920 Y8.203 Z-0.867
G1 X177.839 Y8.213 Z-0.867
G1 X177.756 Y8.230 Z-0.867
G1 X177.673 Y8.255 Z-0.867
G1 X177.591 Y8.287 Z-0.867
G1 X177.511 Y8.328 Z-0.867
G1 X177.434 Y8.376 Z-0.867
G1 X177.361 Y8.431 Z-0.867
G1 X177.293 Y8.493 Z-0.867
G1 X177.231 Y8.561 Z-0.867
G1 X177.176 Y8.634 Z-0.867
G1 X177.128 Y8.711 Z-0.867
G1 X177.087 Y8.791 Z-0.867
G1 X177.055 Y8.873 Z-0.867
G1 X177.030 Y8.956 Z-0.867
G1 X177.013 Y9.039 Z-0.867
G1 X177.003 Y9.120 Z-0.867
G1 X177.000 Y9.200 Z-0.867
G1 X177.000 Y9.275 Z-0.867
G1 X177.000 Y15.275 Z-0.867
G1 X177.000 Y15.350 Z-0.867
G1 X177.003 Y15.430 Z-0.867
G1 X177.013 Y15.511 Z-0.867
G1 X177.030 Y15.594 Z-0.867
G1 X177.055 Y15.677 Z-0.867
G1 X177.087 Y15.759 Z-0.867
G1 X177.128 Y15.839 Z-0.867
G1 X177.176 Y15.916 Z-0.867
G1 X177.231 Y15.989 Z-0.867
G1 X177.293 Y16.057 Z-0.867
G1 X177.361 Y16.119 Z-0.867
G1 X177.434 Y16.174 Z-0.867
G1 X177.511 Y16.222 Z-0.867
G1 X177.591 Y16.263 Z-0.867
G1 X177.673 Y16.295 Z-0.867
G1 X177.756 Y16.320 Z-0.867
G1 X177.839 Y16.337 Z-0.867
G1 X177.920 Y16.347 Z-0.867
G1 X178.000 Y16.350 Z-0.867
G1 X178.810 Y16.350 Z-0.867
G1 X182.200 Y16.350 Z-0.867
G1 X182.493 Y16.057 Z-0.867
G1 X182.200 Y16.350 Z-0.867
G1 X182.200 Y19.350 Z-0.867
G1 X182.493 Y19.643 Z-0.867
G1 X182.200 Y19.350 Z-0.867
G1 X178.000 Y19.350 Z-0.867
G1 X177.920 Y19.353 Z-0.867
G1 X177.839 Y19.363 Z-0.867
G1 X177.756 Y19.380 Z-0.867
G1 X177.673 Y19.405 Z-0.867
G1 X177.591 Y19.437 Z-0.867
G1 X177.511 Y19.478 Z-0.867
G1 X177.434 Y19.526 Z-0.867
G1 X177.361 Y19.581 Z-0.867
G1 X177.293 Y19.643 Z-0.867
G1 X177.231 Y19.711 Z-0.867
G1 X177.176 Y19.784 Z-0.867
G1 X177.128 Y19.861 Z-0.867
G1 X177.087 Y19.941 Z-0.867
G1 X177.055 Y20.023 Z-0.867
G1 X177.030 Y20.106 Z-0.867
G1 X177.013 Y20.189 Z-0.867
G1 X177.003 Y20.270 Z-0.867
G1 X177.000 Y20.350 Z-0.867
G1 X177.000 Y26.500 Z-0.867
G1 X177.003 Y26.580 Z-0.867
G1 X177.013 Y26.661 Z-0.867
G1 X177.030 Y26.744 Z-0.867
G1 X177.055 Y26.827 Z-0.867
G1 X177.087 Y26.909 Z-0.867
G1 X177.128 Y26.989 Z-0.867
G1 X177.176 Y27.066 Z-0.867
G1 X177.231 Y27.139 Z-0.867
G1 X177.293 Y27.207 Z-0.867
G1 X177.361 Y27.269 Z-0.867
G1 X177.434 Y27.324 Z-0.867
G1 X177.511 Y27.372 Z-0.867
G1 X177.591 Y27.413 Z-0.867
G1 X177.673 Y27.445 Z-0.867
G1 X177.756 Y27.470 Z-0.867
G1 X177.839 Y27.487 Z-0.867
G1 X177.920 Y27.497 Z-0.867
G1 X178.000 Y27.500 Z-0.867
G1 X182.200 Y27.500 Z-0.867
G1 X182.493 Y27.207 Z-0.867
G1 X182.200 Y27.500 Z-0.867
G1 X182.200 Y30.500 Z-0.867
G1 X182.493 Y30.793 Z-0.867
G1 X182.200 Y30.500 Z-0.867
G1 X178.000 Y30.500 Z-0.867
G1 X177.920 Y30.503 Z-0.867
G1 X177.839 Y30.513 Z-0.867
G1 X177.756 Y30.530 Z-0.867
G1 X177.673 Y30.555 Z-0.867
G1 X177.591 Y30.587 Z-0.867
G1 X177.511 Y30.628 Z-0.867
G1 X177.434 Y30.676 Z-0.867
G1 X177.361 Y30.731 Z-0.867
G1 X177.293 Y30.793 Z-0.867
G1 X177.231 Y30.861 Z-0.867
G1 X177.176 Y30.934 Z-0.867
G1 X177.128 Y31.011 Z-0.867
G1 X177.087 Y31.091 Z-0.867
G1 X177.055 Y31.173 Z-0.867
G1 X177.030 Y31.256 Z-0.867
G1 X177.013 Y31.339 Z-0.867
G1 X177.003 Y31.420 Z-0.867
G1 X177.000 Y31.500 Z-0.867
G1 X177.000 Y37.650 Z-0.867
G1 X177.003 Y37.730 Z-0.867
G1 X177.013 Y37.811 Z-0.867
G1 X177.030 Y37.894 Z-0.867
G1 X177.055 Y37.977 Z-0.867
G1 X177.087 Y38.059 Z-0.867
G1 X177.128 Y38.139 Z-0.867
G1 X177.176 Y38.216 Z-0.867
G1 X177.231 Y38.289 Z-0.867
G1 X177.293 Y38.357 Z-0.867
G1 X177.361 Y38.419 Z-0.867
G1 X177.434 Y38.474 Z-0.867
G1 X177.511 Y38.522 Z-0.867
G1 X177.591 Y38.563 Z-0.867
G1 X177.673 Y38.595 Z-0.867
G1 X177.756 Y38.620 Z-0.867
G1 X177.839 Y38.637 Z-0.867
G1 X177.920 Y38.647 Z-0.867
G1 X178.000 Y38.650 Z-0.867
G1 X182.200 Y38.650 Z-0.867
G1 X182.493 Y38.357 Z-0.867
G1 X182.200 Y38.650 Z-0.867
G1 X182.200 Y41.650 Z-0.867
G1 X182.493 Y41.943 Z-0.867
G1 X182.200 Y41.650 Z-0.867
G1 X178.000 Y41.650 Z-0.867
G1 X177.920 Y41.653 Z-0.867
G1 X177.839 Y41.663 Z-0.867
G1 X177.756 Y41.680 Z-0.867
G1 X177.673 Y41.705 Z-0.867
G1 X177.591 Y41.737 Z-0.867
G1 X177.511 Y41.778 Z-0.867
G1 X177.434 Y41.826 Z-0.867
G1 X177.361 Y41.881 Z-0.867
G1 X177.293 Y41.943 Z-0.867
G1 X177.231 Y42.011 Z-0.867
G1 X177.176 Y42.084 Z-0.867
G1 X177.128 Y42.161 Z-0.867
G1 X177.087 Y42.241 Z-0.867
G1 X177.055 Y42.323 Z-0.867
G1 X177.030 Y42.406 Z-0.867
G1 X177.013 Y42.489 Z-0.867
G1 X177.003 Y42.570 Z-0.867
G1 X177.000 Y42.650 Z-0.867
G1 X177.000 Y42.725 Z-0.867
G1 X177.000 Y48.725 Z-0.867
G1 X177.000 Y48.800 Z-0.867
G1 X177.000 Y51.400 Z-0.867
G1 X177.003 Y51.480 Z-0.867
G1 X177.013 Y51.561 Z-0.867
G1 X177.030 Y51.644 Z-0.867
G1 X177.055 Y51.727 Z-0.867
G1 X177.087 Y51.809 Z-0.867
G1 X177.128 Y51.889 Z-0.867
G1 X177.176 Y51.966 Z-0.867
G1 X177.231 Y52.039 Z-0.867
G1 X177.293 Y52.107 Z-0.867
G1 X177.361 Y52.169 Z-0.867
G1 X177.434 Y52.224 Z-0.867
G1 X177.511 Y52.272 Z-0.867
G1 X177.591 Y52.313 Z-0.867
G1 X177.673 Y52.345 Z-0.867
G1 X177.756 Y52.370 Z-0.867
G1 X177.839 Y52.387 Z-0.867
G1 X177.920 Y52.397 Z-0.867
G1 X178.000 Y52.400 Z-0.867
G1 X200.000 Y52.400 Z-0.867
G1 X200.634 Y52.400 Z-0.867
G1 X206.000 Y52.400 Z-0.913 F250.0
G1 X209.165 Y52.400 Z-0.941
G1 X228.000 Y52.400 Z-1.104
G1 X228.080 Y52.397 Z-1.105
G1 X228.161 Y52.387 Z-1.105
G1 X228.244 Y52.370 Z-1.106
G1 X228.327 Y52.345 Z-1.107
G1 X228.409 Y52.313 Z-1.108
G1 X228.489 Y52.272 Z-1.108
G1 X228.566 Y52.224 Z-1.109
G1 X228.639 Y52.169 Z-1.110
G1 X228.707 Y52.107 Z-1.111
G1 X228.769 Y52.039 Z-1.111
G1 X228.824 Y51.966 Z-1.112
G1 X228.872 Y51.889 Z-1.113
G1 X228.913 Y51.809 Z-1.114
G1 X228.945 Y51.727 Z-1.114
G1 X228.970 Y51.644 Z-1.115
G1 X228.987 Y51.561 Z-1.116
G1 X228.997 Y51.480 Z-1.117
G1 X229.000 Y51.400 Z-1.117
G1 X229.000 Y48.800 Z-1.140
G1 X229.000 Y48.725 Z-1.141
G1 X229.000 Y42.725 Z-1.193
G1 X229.000 Y42.650 Z-1.193
G1 X228.997 Y42.570 Z-1.194
G1 X228.987 Y42.489 Z-1.195
G1 X228.970 Y42.406 Z-1.196
G1 X228.945 Y42.323 Z-1.196
G1 X228.913 Y42.241 Z-1.197
G1 X228.872 Y42.161 Z-1.198
G1 X228.824 Y42.084 Z-1.199
G1 X228.769 Y42.011 Z-1.199
G1 X228.707 Y41.943 Z-1.200
G1 X228.639 Y41.881 Z-1.201
G1 X228.566 Y41.826 Z-1.202
G1 X228.489 Y41.778 Z-1.202
G1 X228.409 Y41.737 Z-1.203
G1 X228.327 Y41.705 Z-1.204
G1 X228.244 Y41.680 Z-1.205
G1 X228.161 Y41.663 Z-1.205
G1 X228.080 Y41.653 Z-1.206
G1 X228.000 Y41.650 Z-1.207
G1 X223.800 Y41.650 Z-1.243
G1 X223.507 Y41.943 Z-1.247
G1 X223.800 Y41.650 Z-1.250
G1 X223.800 Y38.650 Z-1.276
G1 X223.507 Y38.357 Z-1.280
G1 X223.800 Y38.650 Z-1.284
G1 X228.000 Y38.650 Z-1.320
G1 X228.080 Y38.647 Z-1.321
G1 X228.161 Y38.637 Z-1.322
G1 X228.244 Y38.620 Z-1.322
G1 X228.327 Y38.595 Z-1.323
G1 X228.409 Y38.563 Z-1.324
G1 X228.489 Y38.522 Z-1.325
G1 X228.566 Y38.474 Z-1.325
G1 X228.639 Y38.419 Z-1.326
G1 X228.707 Y38.357 Z-1.327
G1 X228.769 Y38.289 Z-1.328
G1 X228.824 Y38.216 Z-1.328
G1 X228.872 Y38.139 Z-1.329
G1 X228.913 Y38.059 Z-1.330
G1 X228.945 Y37.977 Z-1.331
G1 X228.970 Y37.894 Z-1.331
G1 X228.987 Y37.811 Z-1.332
G1 X228.997 Y37.730 Z-1.333
G1 X229.000 Y37.650 Z-1.334
G1 X229.000 Y31.500 Z-1.387
G1 X228.997 Y31.420 Z-1.388
G1 X228.987 Y31.339 Z-1.388
G1 X228.970 Y31.256 Z-1.389
G1 X228.945 Y31.173 Z-1.390
G1 X228.913 Y31.091 Z-1.391
G1 X228.872 Y31.011 Z-1.392
G1 X228.824 Y30.934 Z-1.392
G1 X228.769 Y30.861 Z-1.393
G1 X228.707 Y30.793 Z-1.394
G1 X228.639 Y30.731 Z-1.395
G1 X228.566 Y30.676 Z-1.395
G1 X228.489 Y30.628 Z-1.396
G1 X228.409 Y30.587 Z-1.397
G1 X228.327 Y30.555 Z-1.398
G1 X228.244 Y30.530 Z-1.398
G1 X228.161 Y30.513 Z-1.399
G1 X228.080 Y30.503 Z-1.400
G1 X228.000 Y30.500 Z-1.401
G1 X223.800 Y30.500 Z-1.437
G1 X223.507 Y30.793 Z-1.441
G1 X223.800 Y30.500 Z-1.444
G1 X223.800 Y27.500 Z-1.470
G1 X223.507 Y27.207 Z-1.474
G1 X223.800 Y27.500 Z-1.477
G1 X228.000 Y27.500 Z-1.514
G1 X228.080 Y27.497 Z-1.515
G1 X228.161 Y27.487 Z-1.515
G1 X228.244 Y27.470 Z-1.516
G1 X228.327 Y27.445 Z-1.517
G1 X228.409 Y27.413 Z-1.518
G1 X228.489 Y27.372 Z-1.518
G1 X228.566 Y27.324 Z-1.519
G1 X228.639 Y27.269 Z-1.520
G1 X228.707 Y27.207 Z-1.521
G1 X228.769 Y27.139 Z-1.521
G1 X228.824 Y27.066 Z-1.522
G1 X228.872 Y26.989 Z-1.523
G1 X228.913 Y26.909 Z-1.524
G1 X228.945 Y26.827 Z-1.524
G1 X228.970 Y26.744 Z-1.525
G1 X228.987 Y26.661 Z-1.526
G1 X228.997 Y26.580 Z-1.527
G1 X229.000 Y26.500 Z-1.527
G1 X229.000 Y20.350 Z-1.581
G1 X228.997 Y20.270 Z-1.581
G1 X228.987 Y20.189 Z-1.582
G1 X228.970 Y20.106 Z-1.583
G1 X228.945 Y20.023 Z-1.584
G1 X228.913 Y19.941 Z-1.584
G1 X228.872 Y19.861 Z-1.585
G1 X228.824 Y19.784 Z-1.586
G1 X228.769 Y19.711 Z-1.587
G1 X228.707 Y19.643 Z-1.587
G1 X228.639 Y19.581 Z-1.588
G1 X228.566 Y19.526 Z-1.589
G1 X228.489 Y19.478 Z-1.590
G1 X228.409 Y19.437 Z-1.590
G1 X228.327 Y19.405 Z-1.591
G1 X228.244 Y19.380 Z-1.592
G1 X228.161 Y19.363 Z-1.593
G1 X228.080 Y19.353 Z-1.594
G1 X228.000 Y19.350 Z-1.594
G1 X223.800 Y19.350 Z-1.631
G1 X223.507 Y19.643 Z-1.634
G1 X223.800 Y19.350 Z-1.638
G1 X223.800 Y16.350 Z-1.664
G1 X223.507 Y16.057 Z-1.667
G1 X223.800 Y16.350 Z-1.671
G1 X228.000 Y16.350 Z-1.707
G1 X228.080 Y16.347 Z-1.708
G1 X228.161 Y16.337 Z-1.709
G1 X228.244 Y16.320 Z-1.710
G1 X228.327 Y16.295 Z-1.710
G1 X228.409 Y16.263 Z-1.711
G1 X228.489 Y16.222 Z-1.712
G1 X228.566 Y16.174 Z-1.713
G1 X228.639 Y16.119 Z-1.713
G1 X228.707 Y16.057 Z-1.714
G1 X228.769 Y15.989 Z-1.715
G1 X228.824 Y15.916 Z-1.716
G1 X228.872 Y15.839 Z-1.717
G1 X228.913 Y15.759 Z-1.717
G1 X228.945 Y15.677 Z-1.718
G1 X228.970 Y15.594 Z-1.719
G1 X228.987 Y15.511 Z-1.720
G1 X228.997 Y15.430 Z-1.720
G1 X229.000 Y15.350 Z-1.721
G1 X229.000 Y15.275 Z-1.722
G1 X229.000 Y13.932 Z-1.733
G1 X229.000 Y9.275 Z-1.733 F180.0
G1 X229.000 Y9.200 Z-1.733
G1 X228.997 Y9.119 Z-1.733
G1 X228.987 Y9.037 Z-1.733
G1 X228.970 Y8.955 Z-1.733
G1 X228.945 Y8.873 Z-1.733
G1 X228.914 Y8.793 Z-1.733
G1 X228.875 Y8.715 Z-1.733
G1 X228.829 Y8.641 Z-1.733
G1 X228.777 Y8.571 Z-1.733
G1 X228.720 Y8.506 Z-1.733
G1 X228.657 Y8.446 Z-1.733
G1 X228.591 Y8.393 Z-1.733
G1 X228.521 Y8.346 Z-1.733
G1 X228.449 Y8.306 Z-1.733
G1 X228.375 Y8.273 Z-1.733
G1 X228.303 Y8.247 Z-1.733
G1 X228.229 Y8.227 Z-1.733
G1 X228.153 Y8.212 Z-1.733
G1 X228.077 Y8.203 Z-1.733
G1 X228.000 Y8.200 Z-1.733
G1 X225.772 Y8.200 Z-1.733
G1 X222.800 Y8.200 Z-1.733
G1 X222.400 Y8.200 Z-1.733
G1 X217.650 Y8.200 Z-1.733
G1 X217.357 Y8.493 Z-1.733
G1 X217.650 Y8.200 Z-1.733
G1 X217.650 Y4.000 Z-1.733
G1 X217.647 Y3.920 Z-1.733
G1 X217.637 Y3.839 Z-1.733
G1 X217.620 Y3.756 Z-1.733
G1 X217.595 Y3.673 Z-1.733
G1 X217.563 Y3.591 Z-1.733
G1 X217.522 Y3.511 Z-1.733
G1 X217.474 Y3.434 Z-1.733
G1 X217.419 Y3.361 Z-1.733
G1 X217.357 Y3.293 Z-1.733
G1 X217.289 Y3.231 Z-1.733
G1 X217.216 Y3.176 Z-1.733
G1 X217.139 Y3.128 Z-1.733
G1 X217.059 Y3.087 Z-1.733
G1 X216.977 Y3.055 Z-1.733
G1 X216.894 Y3.030 Z-1.733
G1 X216.811 Y3.013 Z-1.733
G1 X216.730 Y3.003 Z-1.733
G1 X216.650 Y3.000 Z-1.733
G1 X211.650 Y3.000 Z-1.733
G1 X211.570 Y3.003 Z-1.733
G1 X211.489 Y3.013 Z-1.733
G1 X211.406 Y3.030 Z-1.733
G1 X211.323 Y3.055 Z-1.733
G1 X211.241 Y3.087 Z-1.733
G1 X211.161 Y3.128 Z-1.733
G1 X211.084 Y3.176 Z-1.733
G1 X211.011 Y3.231 Z-1.733
G1 X210.943 Y3.293 Z-1.733
G1 X210.881 Y3.361 Z-1.733
G1 X210.826 Y3.434 Z-1.733
G1 X210.778 Y3.511 Z-1.733
G1 X210.737 Y3.591 Z-1.733
G1 X210.705 Y3.673 Z-1.733
G1 X210.680 Y3.756 Z-1.733
G1 X210.663 Y3.839 Z-1.733
G1 X210.653 Y3.920 Z-1.733
G1 X210.650 Y4.000 Z-1.733
G1 X210.650 Y8.200 Z-1.733
G1 X210.943 Y8.493 Z-1.733
G1 X210.650 Y8.200 Z-1.733
G1 X206.500 Y8.200 Z-1.733
G1 X206.207 Y8.493 Z-1.733
G1 X206.500 Y8.200 Z-1.733
G1 X206.500 Y4.000 Z-1.733
G1 X206.497 Y3.920 Z-1.733
G1 X206.487 Y3.839 Z-1.733
G1 X206.470 Y3.756 Z-1.733
G1 X206.445 Y3.673 Z-1.733
G1 X206.413 Y3.591 Z-1.733
G1 X206.372 Y3.511 Z-1.733
G1 X206.324 Y3.434 Z-1.733
G1 X206.269 Y3.361 Z-1.733
G1 X206.207 Y3.293 Z-1.733
G1 X206.139 Y3.231 Z-1.733
G1 X206.066 Y3.176 Z-1.733
G1 X205.989 Y3.128 Z-1.733
G1 X205.909 Y3.087 Z-1.733
G1 X205.827 Y3.055 Z-1.733
G1 X205.744 Y3.030 Z-1.733
G1 X205.661 Y3.013 Z-1.733
G1 X205.580 Y3.003 Z-1.733
G1 X205.500 Y3.000 Z-1.733
G1 X200.500 Y3.000 Z-1.733
G1 X200.420 Y3.003 Z-1.733
G1 X200.339 Y3.013 Z-1.733
G1 X200.256 Y3.030 Z-1.733
G1 X200.173 Y3.055 Z-1.733
G1 X200.091 Y3.087 Z-1.733
G1 X200.011 Y3.128 Z-1.733
G1 X199.934 Y3.176 Z-1.733
G1 X199.861 Y3.231 Z-1.733
G1 X199.793 Y3.293 Z-1.733
G1 X199.731 Y3.361 Z-1.733
G1 X199.676 Y3.434 Z-1.733
G1 X199.628 Y3.511 Z-1.733
G1 X199.587 Y3.591 Z-1.733
G1 X199.555 Y3.673 Z-1.733
G1 X199.530 Y3.756 Z-1.733
G1 X199.513 Y3.839 Z-1.733
G1 X199.503 Y3.920 Z-1.733
G1 X199.500 Y4.000 Z-1.733
G1 X199.500 Y8.200 Z-1.733
G1 X199.793 Y8.493 Z-1.733
G1 X199.500 Y8.200 Z-1.733
G1 X195.350 Y8.200 Z-1.733
G1 X195.057 Y8.493 Z-1.733
G1 X195.350 Y8.200 Z-1.733
G1 X195.350 Y4.000 Z-1.733
G1 X195.347 Y3.920 Z-1.733
G1 X195.337 Y3.839 Z-1.733
G1 X195.320 Y3.756 Z-1.733
G1 X195.295 Y3.673 Z-1.733
G1 X195.263 Y3.591 Z-1.733
G1 X195.222 Y3.511 Z-1.733
G1 X195.174 Y3.434 Z-1.733
G1 X195.119 Y3.361 Z-1.733
G1 X195.057 Y3.293 Z-1.733
G1 X194.989 Y3.231 Z-1.733
G1 X194.916 Y3.176 Z-1.733
G1 X194.839 Y3.128 Z-1.733
G1 X194.759 Y3.087 Z-1.733
G1 X194.677 Y3.055 Z-1.733
G1 X194.594 Y3.030 Z-1.733
G1 X194.511 Y3.013 Z-1.733
G1 X194.430 Y3.003 Z-1.733
G1 X194.350 Y3.000 Z-1.733
G1 X189.350 Y3.000 Z-1.733
G1 X189.270 Y3.003 Z-1.733
G1 X189.189 Y3.013 Z-1.733
G1 X189.106 Y3.030 Z-1.733
G1 X189.023 Y3.055 Z-1.733
G1 X188.941 Y3.087 Z-1.733
G1 X188.861 Y3.128 Z-1.733
G1 X188.784 Y3.176 Z-1.733
G1 X188.711 Y3.231 Z-1.733
G1 X188.643 Y3.293 Z-1.733
G1 X188.581 Y3.361 Z-1.733
G1 X188.526 Y3.434 Z-1.733
G1 X188.478 Y3.511 Z-1.733
G1 X188.437 Y3.591 Z-1.733
G1 X188.405 Y3.673 Z-1.733
G1 X188.380 Y3.756 Z-1.733
G1 X188.363 Y3.839 Z-1.733
G1 X188.353 Y3.920 Z-1.733
G1 X188.350 Y4.000 Z-1.733
G1 X188.350 Y8.200 Z-1.733
G1 X188.643 Y8.493 Z-1.733
G1 X188.350 Y8.200 Z-1.733
G1 X186.675 Y8.200 Z-1.733
G1 X180.675 Y8.200 Z-1.733
G1 X178.000 Y8.200 Z-1.733
G1 X177.920 Y8.203 Z-1.733
G1 X177.839 Y8.213 Z-1.733
G1 X177.756 Y8.230 Z-1.733
G1 X177.673 Y8.255 Z-1.733
G1 X177.591 Y8.287 Z-1.733
G1 X177.511 Y8.328 Z-1.733
G1 X177.434 Y8.376 Z-1.733
G1 X177.361 Y8.431 Z-1.733
G1 X177.293 Y8.493 Z-1.733
G1 X177.231 Y8.561 Z-1.733
G1 X177.176 Y8.634 Z-1.733
G1 X177.128 Y8.711 Z-1.733
G1 X177.087 Y8.791 Z-1.733
G1 X177.055 Y8.873 Z-1.733
G1 X177.030 Y8.956 Z-1.733
G1 X177.013 Y9.039 Z-1.733
G1 X177.003 Y9.120 Z-1.733
G1 X177.000 Y9.200 Z-1.733
G1 X177.000 Y9.275 Z-1.733
G1 X177.000 Y15.275 Z-1.733
G1 X177.000 Y15.350 Z-1.733
G1 X177.003 Y15.430 Z-1.733
G1 X177.013 Y15.511 Z-1.733
G1 X177.030 Y15.594 Z-1.733
G1 X177.055 Y15.677 Z-1.733
G1 X177.087 Y15.759 Z-1.733
G1 X177.128 Y15.839 Z-1.733
G1 X177.176 Y15.916 Z-1.733
G1 X177.231 Y15.989 Z-1.733
G1 X177.293 Y16.057 Z-1.733
G1 X177.361 Y16.119 Z-1.733
G1 X177.434 Y16.174 Z-1.733
G1 X177.511 Y16.222 Z-1.733
G1 X177.591 Y16.263 Z-1.733
G1 X177.673 Y16.295 Z-1.733
G1 X177.756 Y16.320 Z-1.733
G1 X177.839 Y16.337 Z-1.733
G1 X177.920 Y16.347 Z-1.733
G1 X178.000 Y16.350 Z-1.733
G1 X178.810 Y16.350 Z-1.733
G1 X182.200 Y16.350 Z-1.733
G1 X182.493 Y16.057 Z-1.733
G1 X182.200 Y16.350 Z-1.733
G1 X182.200 Y19.350 Z-1.733
G1 X182.493 Y19.643 Z-1.733
G1 X182.200 Y19.350 Z-1.733
G1 X178.000 Y19.350 Z-1.733
G1 X177.920 Y19.353 Z-1.733
G1 X177.839 Y19.363 Z-1.733
G1 X177.756 Y19.380 Z-1.733
G1 X177.673 Y19.405 Z-1.733
G1 X177.591 Y19.437 Z-1.733
G1 X177.511 Y19.478 Z-1.733
G1 X177.434 Y19.526 Z-1.733
G1 X177.361 Y19.581 Z-1.733
G1 X177.293 Y19.643 Z-1.733
G1 X177.231 Y19.711 Z-1.733
G1 X177.176 Y19.784 Z-1.733
G1 X177.128 Y19.861 Z-1.733
G1 X177.087 Y19.941 Z-1.733
G1 X177.055 Y20.023 Z-1.733
G1 X177.030 Y20.106 Z-1.733
G1 X177.013 Y20.189 Z-1.733
G1 X177.003 Y20.270 Z-1.733
G1 X177.000 Y20.350 Z-1.733
G1 X177.000 Y26.500 Z-1.733
G1 X177.003 Y26.580 Z-1.733
G1 X177.013 Y26.661 Z-1.733
G1 X177.030 Y26.744 Z-1.733
G1 X177.055 Y26.827 Z-1.733
G1 X177.087 Y26.909 Z-1.733
G1 X177.128 Y26.989 Z-1.733
G1 X177.176 Y27.066 Z-1.733
G1 X177.231 Y27.139 Z-1.733
G1 X177.293 Y27.207 Z-1.733
G1 X177.361 Y27.269 Z-1.733
G1 X177.434 Y27.324 Z-1.733
G1 X177.511 Y27.372 Z-1.733
G1 X177.591 Y27.413 Z-1.733
G1 X177.673 Y27.445 Z-1.733
G1 X177.756 Y27.470 Z-1.733
G1 X177.839 Y27.487 Z-1.733
G1 X177.920 Y27.497 Z-1.733
G1 X178.000 Y27.500 Z-1.733
G1 X182.200 Y27.500 Z-1.733
G1 X182.493 Y27.207 Z-1.733
G1 X182.200 Y27.500 Z-1.733
G1 X182.200 Y30.500 Z-1.733
G1 X182.493 Y30.793 Z-1.733
G1 X182.200 Y30.500 Z-1.733
G1 X178.000 Y30.500 Z-1.733
G1 X177.920 Y30.503 Z-1.733
G1 X177.839 Y30.513 Z-1.733
G1 X177.756 Y30.530 Z-1.733
G1 X177.673 Y30.555 Z-1.733
G1 X177.591 Y30.587 Z-1.733
G1 X177.511 Y30.628 Z-1.733
G1 X177.434 Y30.676 Z-1.733
G1 X177.361 Y30.731 Z-1.733
G1 X177.293 Y30.793 Z-1.733
G1 X177.231 Y30.861 Z-1.733
G1 X177.176 Y30.934 Z-1.733
G1 X177.128 Y31.011 Z-1.733
G1 X177.087 Y31.091 Z-1.733
G1 X177.055 Y31.173 Z-1.733
G1 X177.030 Y31.256 Z-1.733
G1 X177.013 Y31.339 Z-1.733
G1 X177.003 Y31.420 Z-1.733
G1 X177.000 Y31.500 Z-1.733
G1 X177.000 Y37.650 Z-1.733
G1 X177.003 Y37.730 Z-1.733
G1 X177.013 Y37.811 Z-1.733
G1 X177.030 Y37.894 Z-1.733
G1 X177.055 Y37.977 Z-1.733
G1 X177.087 Y38.059 Z-1.733
G1 X177.128 Y38.139 Z-1.733
G1 X177.176 Y38.216 Z-1.733
G1 X177.231 Y38.289 Z-1.733
G1 X177.293 Y38.357 Z-1.733
G1 X177.361 Y38.419 Z-1.733
G1 X177.434 Y38.474 Z-1.733
G1 X177.511 Y38.522 Z-1.733
G1 X177.591 Y38.563 Z-1.733
G1 X177.673 Y38.595 Z-1.733
G1 X177.756 Y38.620 Z-1.733
G1 X177.839 Y38.637 Z-1.733
G1 X177.920 Y38.647 Z-1.733
G1 X178.000 Y38.650 Z-1.733
G1 X182.200 Y38.650 Z-1.733
G1 X182.493 Y38.357 Z-1.733
G1 X182.200 Y38.650 Z-1.733
G1 X182.200 Y41.650 Z-1.733
G1 X182.493 Y41.943 Z-1.733
G1 X182.200 Y41.650 Z-1.733
G1 X178.000 Y41.650 Z-1.733
G1 X177.920 Y41.653 Z-1.733
G1 X177.839 Y41.663 Z-1.733
G1 X177.756 Y41.680 Z-1.733
G1 X177.673 Y41.705 Z-1.733
G1 X177.591 Y41.737 Z-1.733
G1 X177.511 Y41.778 Z-1.733
G1 X177.434 Y41.826 Z-1.733
G1 X177.361 Y41.881 Z-1.733
G1 X177.293 Y41.943 Z-1.733
G1 X177.231 Y42.011 Z-1.733
G1 X177.176 Y42.084 Z-1.733
G1 X177.128 Y42.161 Z-1.733
G1 X177.087 Y42.241 Z-1.733
G1 X177.055 Y42.323 Z-1.733
G1 X177.030 Y42.406 Z-1.733
G1 X177.013 Y42.489 Z-1.733
G1 X177.003 Y42.570 Z-1.733
G1 X177.000 Y42.650 Z-1.733
G1 X177.000 Y42.725 Z-1.733
G1 X177.000 Y48.725 Z-1.733
G1 X177.000 Y48.800 Z-1.733
G1 X177.000 Y51.400 Z-1.733
G1 X177.003 Y51.480 Z-1.733
G1 X177.013 Y51.561 Z-1.733
G1 X177.030 Y51.644 Z-1.733
G1 X177.055 Y51.727 Z-1.733
G1 X177.087 Y51.809 Z-1.733
G1 X177.128 Y51.889 Z-1.733
G1 X177.176 Y51.966 Z-1.733
G1 X177.231 Y52.039 Z-1.733
G1 X177.293 Y52.107 Z-1.733
G1 X177.361 Y52.169 Z-1.733
G1 X177.434 Y52.224 Z-1.733
G1 X177.511 Y52.272 Z-1.733
G1 X177.591 Y52.313 Z-1.733
G1 X177.673 Y52.345 Z-1.733
G1 X177.756 Y52.370 Z-1.733
G1 X177.839 Y52.387 Z-1.733
G1 X177.920 Y52.397 Z-1.733
G1 X178.000 Y52.400 Z-1.733
G1 X200.000 Y52.400 Z-1.733
G1 X200.634 Y52.400 Z-1.733
G1 X206.000 Y52.400 Z-1.733
G1 X209.165 Y52.400 Z-1.733
G1 X228.000 Y52.400 Z-1.733
G1 X228.080 Y52.397 Z-1.733
G1 X228.161 Y52.387 Z-1.733
G1 X228.244 Y52.370 Z-1.733
G1 X228.327 Y52.345 Z-1.733
G1 X228.409 Y52.313 Z-1.733
G1 X228.489 Y52.272 Z-1.733
G1 X228.566 Y52.224 Z-1.733
G1 X228.639 Y52.169 Z-1.733
G1 X228.707 Y52.107 Z-1.733
G1 X228.769 Y52.039 Z-1.733
G1 X228.824 Y51.966 Z-1.733
G1 X228.872 Y51.889 Z-1.733
G1 X228.913 Y51.809 Z-1.733
G1 X228.945 Y51.727 Z-1.733
G1 X228.970 Y51.644 Z-1.733
G1 X228.987 Y51.561 Z-1.733
G1 X228.997 Y51.480 Z-1.733
G1 X229.000 Y51.400 Z-1.733
G1 X229.000 Y48.800 Z-1.733
G1 X229.000 Y48.725 Z-1.733
G1 X229.000 Y42.725 Z-1.733
G1 X229.000 Y42.650 Z-1.733
G1 X228.997 Y42.570 Z-1.733
G1 X228.987 Y42.489 Z-1.733
G1 X228.970 Y42.406 Z-1.733
G1 X228.945 Y42.323 Z-1.733
G1 X228.913 Y42.241 Z-1.733
G1 X228.872 Y42.161 Z-1.733
G1 X228.824 Y42.084 Z-1.733
G1 X228.769 Y42.011 Z-1.733
G1 X228.707 Y41.943 Z-1.733
G1 X228.639 Y41.881 Z-1.733
G1 X228.566 Y41.826 Z-1.733
G1 X228.489 Y41.778 Z-1.733
G1 X228.409 Y41.737 Z-1.733
G1 X228.327 Y41.705 Z-1.733
G1 X228.244 Y41.680 Z-1.733
G1 X228.161 Y41.663 Z-1.733
G1 X228.080 Y41.653 Z-1.733
G1 X228.000 Y41.650 Z-1.733
G1 X223.800 Y41.650 Z-1.733
G1 X223.507 Y41.943 Z-1.733
G1 X223.800 Y41.650 Z-1.733
G1 X223.800 Y38.650 Z-1.733
G1 X223.507 Y38.357 Z-1.733
G1 X223.800 Y38.650 Z-1.733
G1 X228.000 Y38.650 Z-1.733
G1 X228.080 Y38.647 Z-1.733
G1 X228.161 Y38.637 Z-1.733
G1 X228.244 Y38.620 Z-1.733
G1 X228.327 Y38.595 Z-1.733
G1 X228.409 Y38.563 Z-1.733
G1 X228.489 Y38.522 Z-1.733
G1 X228.566 Y38.474 Z-1.733
G1 X228.639 Y38.419 Z-1.733
G1 X228.707 Y38.357 Z-1.733
G1 X228.769 Y38.289 Z-1.733
G1 X228.824 Y38.216 Z-1.733
G1 X228.872 Y38.139 Z-1.733
G1 X228.913 Y38.059 Z-1.733
G1 X228.945 Y37.977 Z-1.733
G1 X228.970 Y37.894 Z-1.733
G1 X228.987 Y37.811 Z-1.733
G1 X228.997 Y37.730 Z-1.733
G1 X229.000 Y37.650 Z-1.733
G1 X229.000 Y31.500 Z-1.733
G1 X228.997 Y31.420 Z-1.733
G1 X228.987 Y31.339 Z-1.733
G1 X228.970 Y31.256 Z-1.733
G1 X228.945 Y31.173 Z-1.733
G1 X228.913 Y31.091 Z-1.733
G1 X228.872 Y31.011 Z-1.733
G1 X228.824 Y30.934 Z-1.733
G1 X228.769 Y30.861 Z-1.733
G1 X228.707 Y30.793 Z-1.733
G1 X228.639 Y30.731 Z-1.733
G1 X228.566 Y30.676 Z-1.733
G1 X228.489 Y30.628 Z-1.733
G1 X228.409 Y30.587 Z-1.733
G1 X228.327 Y30.555 Z-1.733
G1 X228.244 Y30.530 Z-1.733
G1 X228.161 Y30.513 Z-1.733
G1 X228.080 Y30.503 Z-1.733
G1 X228.000 Y30.500 Z-1.733
G1 X223.800 Y30.500 Z-1.733
G1 X223.507 Y30.793 Z-1.733
G1 X223.800 Y30.500 Z-1.733
G1 X223.800 Y27.500 Z-1.733
G1 X223.507 Y27.207 Z-1.733
G1 X223.800 Y27.500 Z-1.733
G1 X228.000 Y27.500 Z-1.733
G1 X228.080 Y27.497 Z-1.733
G1 X228.161 Y27.487 Z-1.733
G1 X228.244 Y27.470 Z-1.733
G1 X228.327 Y27.445 Z-1.733
G1 X228.409 Y27.413 Z-1.733
G1 X228.489 Y27.372 Z-1.733
G1 X228.566 Y27.324 Z-1.733
G1 X228.639 Y27.269 Z-1.733
G1 X228.707 Y27.207 Z-1.733
G1 X228.769 Y27.139 Z-1.733
G1 X228.824 Y27.066 Z-1.733
G1 X228.872 Y26.989 Z-1.733
G1 X228.913 Y26.909 Z-1.733
G1 X228.945 Y26.827 Z-1.733
G1 X228.970 Y26.744 Z-1.733
G1 X228.987 Y26.661 Z-1.733
G1 X228.997 Y26.580 Z-1.733
G1 X229.000 Y26.500 Z-1.733
G1 X229.000 Y20.350 Z-1.733
G1 X228.997 Y20.270 Z-1.733
G1 X228.987 Y20.189 Z-1.733
G1 X228.970 Y20.106 Z-1.733
G1 X228.945 Y20.023 Z-1.733
G1 X228.913 Y19.941 Z-1.733
G1 X228.872 Y19.861 Z-1.733
G1 X228.824 Y19.784 Z-1.733
G1 X228.769 Y19.711 Z-1.733
G1 X228.707 Y19.643 Z-1.733
G1 X228.639 Y19.581 Z-1.733
G1 X228.566 Y19.526 Z-1.733
G1 X228.489 Y19.478 Z-1.733
G1 X228.409 Y19.437 Z-1.733
G1 X228.327 Y19.405 Z-1.733
G1 X228.244 Y19.380 Z-1.733
G1 X228.161 Y19.363 Z-1.733
G1 X228.080 Y19.353 Z-1.733
G1 X228.000 Y19.350 Z-1.733
G1 X223.800 Y19.350 Z-1.733
G1 X223.507 Y19.643 Z-1.733
G1 X223.800 Y19.350 Z-1.733
G1 X223.800 Y16.350 Z-1.733
G1 X223.507 Y16.057 Z-1.733
G1 X223.800 Y16.350 Z-1.733
G1 X228.000 Y16.350 Z-1.733
G1 X228.080 Y16.347 Z-1.733
G1 X228.161 Y16.337 Z-1.733
G1 X228.244 Y16.320 Z-1.733
G1 X228.327 Y16.295 Z-1.733
G1 X228.409 Y16.263 Z-1.733
G1 X228.489 Y16.222 Z-1.733
G1 X228.566 Y16.174 Z-1.733
G1 X228.639 Y16.119 Z-1.733
G1 X228.707 Y16.057 Z-1.733
G1 X228.769 Y15.989 Z-1.733
G1 X228.824 Y15.916 Z-1.733
G1 X228.872 Y15.839 Z-1.733
G1 X228.913 Y15.759 Z-1.733
G1 X228.945 Y15.677 Z-1.733
G1 X228.970 Y15.594 Z-1.733
G1 X228.987 Y15.511 Z-1.733
G1 X228.997 Y15.430 Z-1.733
G1 X229.000 Y15.350 Z-1.733
G1 X229.000 Y15.275 Z-1.733
G1 X229.000 Y13.932 Z-1.733
G1 X229.000 Y9.275 Z-1.774 F250.0
G1 X229.000 Y9.200 Z-1.774
G1 X228.997 Y9.119 Z-1.775
G1 X228.987 Y9.037 Z-1.776
G1 X228.970 Y8.955 Z-1.777
G1 X228.945 Y8.873 Z-1.777
G1 X228.914 Y8.793 Z-1.778
G1 X228.875 Y8.715 Z-1.779
G1 X228.829 Y8.641 Z-1.779
G1 X228.777 Y8.571 Z-1.780
G1 X228.720 Y8.506 Z-1.781
G1 X228.657 Y8.446 Z-1.782
G1 X228.591 Y8.393 Z-1.782
G1 X228.521 Y8.346 Z-1.783
G1 X228.449 Y8.306 Z-1.784
G1 X228.375 Y8.273 Z-1.785
G1 X228.303 Y8.247 Z-1.785
G1 X228.229 Y8.227 Z-1.786
G1 X228.153 Y8.212 Z-1.787
G1 X228.077 Y8.203 Z-1.787
G1 X228.000 Y8.200 Z-1.788
G1 X225.772 Y8.200 Z-1.807
G1 X222.800 Y8.200 Z-1.833
G1 X222.400 Y8.200 Z-1.836
G1 X217.650 Y8.200 Z-1.878
G1 X217.357 Y8.493 Z-1.881
G1 X217.650 Y8.200 Z-1.885
G1 X217.650 Y4.000 Z-1.921
G1 X217.647 Y3.920 Z-1.922
G1 X217.637 Y3.839 Z-1.923
G1 X217.620 Y3.756 Z-1.924
G1 X217.595 Y3.673 Z-1.924
G1 X217.563 Y3.591 Z-1.925
G1 X217.522 Y3.511 Z-1.926
G1 X217.474 Y3.434 Z-1.927
G1 X217.419 Y3.361 Z-1.927
G1 X217.357 Y3.293 Z-1.928
G1 X217.289 Y3.231 Z-1.929
G1 X217.216 Y3.176 Z-1.930
G1 X217.139 Y3.128 Z-1.930
G1 X217.059 Y3.087 Z-1.931
G1 X216.977 Y3.055 Z-1.932
G1 X216.894 Y3.030 Z-1.933
G1 X216.811 Y3.013 Z-1.933
G1 X216.730 Y3.003 Z-1.934
G1 X216.650 Y3.000 Z-1.935
G1 X211.650 Y3.000 Z-1.978
G1 X211.570 Y3.003 Z-1.979
G1 X211.489 Y3.013 Z-1.980
G1 X211.406 Y3.030 Z-1.980
G1 X211.323 Y3.055 Z-1.981
G1 X211.241 Y3.087 Z-1.982
G1 X211.161 Y3.128 Z-1.983
G1 X211.084 Y3.176 Z-1.983
G1 X211.011 Y3.231 Z-1.984
G1 X210.943 Y3.293 Z-1.985
G1 X210.881 Y3.361 Z-1.986
G1 X210.826 Y3.434 Z-1.987
G1 X210.778 Y3.511 Z-1.987
G1 X210.737 Y3.591 Z-1.988
G1 X210.705 Y3.673 Z-1.989
G1 X210.680 Y3.756 Z-1.990
G1 X210.663 Y3.839 Z-1.990
G1 X210.653 Y3.920 Z-1.991
G1 X210.650 Y4.000 Z-1.992
G1 X210.650 Y8.200 Z-2.028
G1 X210.943 Y8.493 Z-2.032
G1 X210.650 Y8.200 Z-2.035
G1 X206.500 Y8.200 Z-2.071
G1 X206.207 Y8.493 Z-2.075
G1 X206.500 Y8.200 Z-2.079
G1 X206.500 Y4.000 Z-2.115
G1 X206.497 Y3.920 Z-2.116
G1 X206.487 Y3.839 Z-2.116
G1 X206.470 Y3.756 Z-2.117
G1 X206.445 Y3.673 Z-2.118
G1 X206.413 Y3.591 Z-2.119
G1 X206.372 Y3.511 Z-2.119
G1 X206.324 Y3.434 Z-2.120
G1 X206.269 Y3.361 Z-2.121
G1 X206.207 Y3.293 Z-2.122
G1 X206.139 Y3.231 Z-2.122
G1 X206.066 Y3.176 Z-2.123
G1 X205.989 Y3.128 Z-2.124
G1 X205.909 Y3.087 Z-2.125
G1 X205.827 Y3.055 Z-2.126
G1 X205.744 Y3.030 Z-2.126
G1 X205.661 Y3.013 Z-2.127
G1 X205.580 Y3.003 Z-2.128
G1 X205.500 Y3.000 Z-2.129
G1 X200.500 Y3.000 Z-2.172
G1 X200.420 Y3.003 Z-2.173
G1 X200.339 Y3.013 Z-2.173
G1 X200.256 Y3.030 Z-2.174
G1 X200.173 Y3.055 Z-2.175
G1 X200.091 Y3.087 Z-2.176
G1 X200.011 Y3.128 Z-2.176
G1 X199.934 Y3.176 Z-2.177
G1 X199.861 Y3.231 Z-2.178
G1 X199.793 Y3.293 Z-2.179
G1 X199.731 Y3.361 Z-2.179
G1 X199.676 Y3.434 Z-2.180
G1 X199.628 Y3.511 Z-2.181
G1 X199.587 Y3.591 Z-2.182
G1 X199.555 Y3.673 Z-2.182
G1 X199.530 Y3.756 Z-2.183
G1 X199.513 Y3.839 Z-2.184
G1 X199.503 Y3.920 Z-2.185
G1 X199.500 Y4.000 Z-2.185
G1 X199.500 Y8.200 Z-2.222
G1 X199.793 Y8.493 Z-2.225
G1 X199.500 Y8.200 Z-2.229
G1 X195.350 Y8.200 Z-2.265
G1 X195.057 Y8.493 Z-2.269
G1 X195.350 Y8.200 Z-2.272
G1 X195.350 Y4.000 Z-2.309
G1 X195.347 Y3.920 Z-2.309
G1 X195.337 Y3.839 Z-2.310
G1 X195.320 Y3.756 Z-2.311
G1 X195.295 Y3.673 Z-2.312
G1 X195.263 Y3.591 Z-2.312
G1 X195.222 Y3.511 Z-2.313
G1 X195.174 Y3.434 Z-2.314
G1 X195.119 Y3.361 Z-2.315
G1 X195.057 Y3.293 Z-2.315
G1 X194.989 Y3.231 Z-2.316
G1 X194.916 Y3.176 Z-2.317
G1 X194.839 Y3.128 Z-2.318
G1 X194.759 Y3.087 Z-2.318
G1 X194.677 Y3.055 Z-2.319
G1 X194.594 Y3.030 Z-2.320
G1 X194.511 Y3.013 Z-2.321
G1 X194.430 Y3.003 Z-2.321
G1 X194.350 Y3.000 Z-2.322
G1 X189.350 Y3.000 Z-2.366
G1 X189.270 Y3.003 Z-2.366
G1 X189.189 Y3.013 Z-2.367
G1 X189.106 Y3.030 Z-2.368
G1 X189.023 Y3.055 Z-2.369
G1 X188.941 Y3.087 Z-2.369
G1 X188.861 Y3.128 Z-2.370
G1 X188.784 Y3.176 Z-2.371
G1 X188.711 Y3.231 Z-2.372
G1 X188.643 Y3.293 Z-2.372
G1 X188.581 Y3.361 Z-2.373
G1 X188.526 Y3.434 Z-2.374
G1 X188.478 Y3.511 Z-2.375
G1 X188.437 Y3.591 Z-2.375
G1 X188.405 Y3.673 Z-2.376
G1 X188.380 Y3.756 Z-2.377
G1 X188.363 Y3.839 Z-2.378
G1 X188.353 Y3.920 Z-2.378
G1 X188.350 Y4.000 Z-2.379
G1 X188.350 Y8.200 Z-2.416
G1 X188.643 Y8.493 Z-2.419
G1 X188.350 Y8.200 Z-2.423
G1 X186.675 Y8.200 Z-2.437
G1 X180.675 Y8.200 Z-2.489
G1 X178.000 Y8.200 Z-2.512
G1 X177.920 Y8.203 Z-2.513
G1 X177.839 Y8.213 Z-2.514
G1 X177.756 Y8.230 Z-2.515
G1 X177.673 Y8.255 Z-2.515
G1 X177.591 Y8.287 Z-2.516
G1 X177.511 Y8.328 Z-2.517
G1 X177.434 Y8.376 Z-2.518
G1 X177.361 Y8.431 Z-2.519
G1 X177.293 Y8.493 Z-2.519
G1 X177.231 Y8.561 Z-2.520
G1 X177.176 Y8.634 Z-2.521
G1 X177.128 Y8.711 Z-2.522
G1 X177.087 Y8.791 Z-2.522
G1 X177.055 Y8.873 Z-2.523
G1 X177.030 Y8.956 Z-2.524
G1 X177.013 Y9.039 Z-2.525
G1 X177.003 Y9.120 Z-2.525
G1 X177.000 Y9.200 Z-2.526
G1 X177.000 Y9.275 Z-2.527
G1 X177.000 Y15.275 Z-2.579
G1 X177.000 Y15.350 Z-2.579
G1 X177.003 Y15.430 Z-2.580
G1 X177.013 Y15.511 Z-2.581
G1 X177.030 Y15.594 Z-2.582
G1 X177.055 Y15.677 Z-2.582
G1 X177.087 Y15.759 Z-2.583
G1 X177.128 Y15.839 Z-2.584
G1 X177.176 Y15.916 Z-2.585
G1 X177.231 Y15.989 Z-2.585
G1 X177.293 Y16.057 Z-2.586
G1 X177.361 Y16.119 Z-2.587
G1 X177.434 Y16.174 Z-2.588
G1 X177.511 Y16.222 Z-2.588
G1 X177.591 Y16.263 Z-2.589
G1 X177.673 Y16.295 Z-2.590
G1 X177.756 Y16.320 Z-2.591
G1 X177.839 Y16.337 Z-2.591
G1 X177.920 Y16.347 Z-2.592
G1 X178.000 Y16.350 Z-2.593
G1 X178.810 Y16.350 Z-2.600
G1 X182.200 Y16.350 Z-2.600 F180.0
G1 X182.493 Y16.057 Z-2.600
G1 X182.200 Y16.350 Z-2.600
G1 X182.200 Y19.350 Z-2.600
G1 X182.493 Y19.643 Z-2.600
G1 X182.200 Y19.350 Z-2.600
G1 X178.000 Y19.350 Z-2.600
G1 X177.920 Y19.353 Z-2.600
G1 X177.839 Y19.363 Z-2.600
G1 X177.756 Y19.380 Z-2.600
G1 X177.673 Y19.405 Z-2.600
G1 X177.591 Y19.437 Z-2.600
G1 X177.511 Y19.478 Z-2.600
G1 X177.434 Y19.526 Z-2.600
G1 X177.361 Y19.581 Z-2.600
G1 X177.293 Y19.643 Z-2.600
G1 X177.231 Y19.711 Z-2.600
G1 X177.176 Y19.784 Z-2.600
G1 X177.128 Y19.861 Z-2.600
G1 X177.087 Y19.941 Z-2.600
G1 X177.055 Y20.023 Z-2.600
G1 X177.030 Y20.106 Z-2.600
G1 X177.013 Y20.189 Z-2.600
G1 X177.003 Y20.270 Z-2.600
G1 X177.000 Y20.350 Z-2.600
G1 X177.000 Y26.500 Z-2.600
G1 X177.003 Y26.580 Z-2.600
G1 X177.013 Y26.661 Z-2.600
G1 X177.030 Y26.744 Z-2.600
G1 X177.055 Y26.827 Z-2.600
G1 X177.087 Y26.909 Z-2.600
G1 X177.128 Y26.989 Z-2.600
G1 X177.176 Y27.066 Z-2.600
G1 X177.231 Y27.139 Z-2.600
G1 X177.293 Y27.207 Z-2.600
G1 X177.361 Y27.269 Z-2.600
G1 X177.434 Y27.324 Z-2.600
G1 X177.511 Y27.372 Z-2.600
G1 X177.591 Y27.413 Z-2.600
G1 X177.673 Y27.445 Z-2.600
G1 X177.756 Y27.470 Z-2.600
G1 X177.839 Y27.487 Z-2.600
G1 X177.920 Y27.497 Z-2.600
G1 X178.000 Y27.500 Z-2.600
G1 X182.200 Y27.500 Z-2.600
G1 X182.493 Y27.207 Z-2.600
G1 X182.200 Y27.500 Z-2.600
G1 X182.200 Y30.500 Z-2.600
G1 X182.493 Y30.793 Z-2.600
G1 X182.200 Y30.500 Z-2.600
G1 X178.000 Y30.500 Z-2.600
G1 X177.920 Y30.503 Z-2.600
G1 X177.839 Y30.513 Z-2.600
G1 X177.756 Y30.530 Z-2.600
G1 X177.673 Y30.555 Z-2.600
G1 X177.591 Y30.587 Z-2.600
G1 X177.511 Y30.628 Z-2.600
G1 X177.434 Y30.676 Z-2.600
G1 X177.361 Y30.731 Z-2.600
G1 X177.293 Y30.793 Z-2.600
G1 X177.231 Y30.861 Z-2.600
G1 X177.176 Y30.934 Z-2.600
G1 X177.128 Y31.011 Z-2.600
G1 X177.087 Y31.091 Z-2.600
G1 X177.055 Y31.173 Z-2.600
G1 X177.030 Y31.256 Z-2.600
G1 X177.013 Y31.339 Z-2.600
G1 X177.003 Y31.420 Z-2.600
G1 X177.000 Y31.500 Z-2.600
G1 X177.000 Y37.650 Z-2.600
G1 X177.003 Y37.730 Z-2.600
G1 X177.013 Y37.811 Z-2.600
G1 X177.030 Y37.894 Z-2.600
G1 X177.055 Y37.977 Z-2.600
G1 X177.087 Y38.059 Z-2.600
G1 X177.128 Y38.139 Z-2.600
G1 X177.176 Y38.216 Z-2.600
G1 X177.231 Y38.289 Z-2.600
G1 X177.293 Y38.357 Z-2.600
G1 X177.361 Y38.419 Z-2.600
G1 X177.434 Y38.474 Z-2.600
G1 X177.511 Y38.522 Z-2.600
G1 X177.591 Y38.563 Z-2.600
G1 X177.673 Y38.595 Z-2.600
G1 X177.756 Y38.620 Z-2.600
G1 X177.839 Y38.637 Z-2.600
G1 X177.920 Y38.647 Z-2.600
G1 X178.000 Y38.650 Z-2.600
G1 X182.200 Y38.650 Z-2.600
G1 X182.493 Y38.357 Z-2.600
G1 X182.200 Y38.650 Z-2.600
G1 X182.200 Y41.650 Z-2.600
G1 X182.493 Y41.943 Z-2.600
G1 X182.200 Y41.650 Z-2.600
G1 X178.000 Y41.650 Z-2.600
G1 X177.920 Y41.653 Z-2.600
G1 X177.839 Y41.663 Z-2.600
G1 X177.756 Y41.680 Z-2.600
G1 X177.673 Y41.705 Z-2.600
G1 X177.591 Y41.737 Z-2.600
G1 X177.511 Y41.778 Z-2.600
G1 X177.434 Y41.826 Z-2.600
G1 X177.361 Y41.881 Z-2.600
G1 X177.293 Y41.943 Z-2.600
G1 X177.231 Y42.011 Z-2.600
G1 X177.176 Y42.084 Z-2.600
G1 X177.128 Y42.161 Z-2.600
G1 X177.087 Y42.241 Z-2.600
G1 X177.055 Y42.323 Z-2.600
G1 X177.030 Y42.406 Z-2.600
G1 X177.013 Y42.489 Z-2.600
G1 X177.003 Y42.570 Z-2.600
G1 X177.000 Y42.650 Z-2.600
G1 X177.000 Y42.725 Z-2.600
G1 X177.000 Y48.725 Z-2.600
G1 X177.000 Y48.800 Z-2.600
G1 X177.000 Y51.400 Z-2.600
G1 X177.003 Y51.480 Z-2.600
G1 X177.013 Y51.561 Z-2.600
G1 X177.030 Y51.644 Z-2.600
G1 X177.055 Y51.727 Z-2.600
G1 X177.087 Y51.809 Z-2.600
G1 X177.128 Y51.889 Z-2.600
G1 X177.176 Y51.966 Z-2.600
G1 X177.231 Y52.039 Z-2.600
G1 X177.293 Y52.107 Z-2.600
G1 X177.361 Y52.169 Z-2.600
G1 X177.434 Y52.224 Z-2.600
G1 X177.511 Y52.272 Z-2.600
G1 X177.591 Y52.313 Z-2.600
G1 X177.673 Y52.345 Z-2.600
G1 X177.756 Y52.370 Z-2.600
G1 X177.839 Y52.387 Z-2.600
G1 X177.920 Y52.397 Z-2.600
G1 X178.000 Y52.400 Z-2.600
G1 X200.000 Y52.400 Z-2.600
G1 X200.634 Y52.400 Z-2.600
G1 X206.000 Y52.400 Z-2.600
G1 X209.165 Y52.400 Z-2.600
G1 X228.000 Y52.400 Z-2.600
G1 X228.080 Y52.397 Z-2.600
G1 X228.161 Y52.387 Z-2.600
G1 X228.244 Y52.370 Z-2.600
G1 X228.327 Y52.345 Z-2.600
G1 X228.409 Y52.313 Z-2.600
G1 X228.489 Y52.272 Z-2.600
G1 X228.566 Y52.224 Z-2.600
G1 X228.639 Y52.169 Z-2.600
G1 X228.707 Y52.107 Z-2.600
G1 X228.769 Y52.039 Z-2.600
G1 X228.824 Y51.966 Z-2.600
G1 X228.872 Y51.889 Z-2.600
G1 X228.913 Y51.809 Z-2.600
G1 X228.945 Y51.727 Z-2.600
G1 X228.970 Y51.644 Z-2.600
G1 X228.987 Y51.561 Z-2.600
G1 X228.997 Y51.480 Z-2.600
G1 X229.000 Y51.400 Z-2.600
G1 X229.000 Y48.800 Z-2.600
G1 X229.000 Y48.725 Z-2.600
G1 X229.000 Y42.725 Z-2.600
G1 X229.000 Y42.650 Z-2.600
G1 X228.997 Y42.570 Z-2.600
G1 X228.987 Y42.489 Z-2.600
G1 X228.970 Y42.406 Z-2.600
G1 X228.945 Y42.323 Z-2.600
G1 X228.913 Y42.241 Z-2.600
G1 X228.872 Y42.161 Z-2.600
G1 X228.824 Y42.084 Z-2.600
G1 X228.769 Y42.011 Z-2.600
G1 X228.707 Y41.943 Z-2.600
G1 X228.639 Y41.881 Z-2.600
G1 X228.566 Y41.826 Z-2.600
G1 X228.489 Y41.778 Z-2.600
G1 X228.409 Y41.737 Z-2.600
G1 X228.327 Y41.705 Z-2.600
G1 X228.244 Y41.680 Z-2.600
G1 X228.161 Y41.663 Z-2.600
G1 X228.080 Y41.653 Z-2.600
G1 X228.000 Y41.650 Z-2.600
G1 X223.800 Y41.650 Z-2.600
G1 X223.507 Y41.943 Z-2.600
G1 X223.800 Y41.650 Z-2.600
G1 X223.800 Y38.650 Z-2.600
G1 X223.507 Y38.357 Z-2.600
G1 X223.800 Y38.650 Z-2.600
G1 X228.000 Y38.650 Z-2.600
G1 X228.080 Y38.647 Z-2.600
G1 X228.161 Y38.637 Z-2.600
G1 X228.244 Y38.620 Z-2.600
G1 X228.327 Y38.595 Z-2.600
G1 X228.409 Y38.563 Z-2.600
G1 X228.489 Y38.522 Z-2.600
G1 X228.566 Y38.474 Z-2.600
G1 X228.639 Y38.419 Z-2.600
G1 X228.707 Y38.357 Z-2.600
G1 X228.769 Y38.289 Z-2.600
G1 X228.824 Y38.216 Z-2.600
G1 X228.872 Y38.139 Z-2.600
G1 X228.913 Y38.059 Z-2.600
G1 X228.945 Y37.977 Z-2.600
G1 X228.970 Y37.894 Z-2.600
G1 X228.987 Y37.811 Z-2.600
G1 X228.997 Y37.730 Z-2.600
G1 X229.000 Y37.650 Z-2.600
G1 X229.000 Y31.500 Z-2.600
G1 X228.997 Y31.420 Z-2.600
G1 X228.987 Y31.339 Z-2.600
G1 X228.970 Y31.256 Z-2.600
G1 X228.945 Y31.173 Z-2.600
G1 X228.913 Y31.091 Z-2.600
G1 X228.872 Y31.011 Z-2.600
G1 X228.824 Y30.934 Z-2.600
G1 X228.769 Y30.861 Z-2.600
G1 X228.707 Y30.793 Z-2.600
G1 X228.639 Y30.731 Z-2.600
G1 X228.566 Y30.676 Z-2.600
G1 X228.489 Y30.628 Z-2.600
G1 X228.409 Y30.587 Z-2.600
G1 X228.327 Y30.555 Z-2.600
G1 X228.244 Y30.530 Z-2.600
G1 X228.161 Y30.513 Z-2.600
G1 X228.080 Y30.503 Z-2.600
G1 X228.000 Y30.500 Z-2.600
G1 X223.800 Y30.500 Z-2.600
G1 X223.507 Y30.793 Z-2.600
G1 X223.800 Y30.500 Z-2.600
G1 X223.800 Y27.500 Z-2.600
G1 X223.507 Y27.207 Z-2.600
G1 X223.800 Y27.500 Z-2.600
G1 X228.000 Y27.500 Z-2.600
G1 X228.080 Y27.497 Z-2.600
G1 X228.161 Y27.487 Z-2.600
G1 X228.244 Y27.470 Z-2.600
G1 X228.327 Y27.445 Z-2.600
G1 X228.409 Y27.413 Z-2.600
G1 X228.489 Y27.372 Z-2.600
G1 X228.566 Y27.324 Z-2.600
G1 X228.639 Y27.269 Z-2.600
G1 X228.707 Y27.207 Z-2.600
G1 X228.769 Y27.139 Z-2.600
G1 X228.824 Y27.066 Z-2.600
G1 X228.872 Y26.989 Z-2.600
G1 X228.913 Y26.909 Z-2.600
G1 X228.945 Y26.827 Z-2.600
G1 X228.970 Y26.744 Z-2.600
G1 X228.987 Y26.661 Z-2.600
G1 X228.997 Y26.580 Z-2.600
G1 X229.000 Y26.500 Z-2.600
G1 X229.000 Y20.350 Z-2.600
G1 X228.997 Y20.270 Z-2.600
G1 X228.987 Y20.189 Z-2.600
G1 X228.970 Y20.106 Z-2.600
G1 X228.945 Y20.023 Z-2.600
G1 X228.913 Y19.941 Z-2.600
G1 X228.872 Y19.861 Z-2.600
G1 X228.824 Y19.784 Z-2.600
G1 X228.769 Y19.711 Z-2.600
G1 X228.707 Y19.643 Z-2.600
G1 X228.639 Y19.581 Z-2.600
G1 X228.566 Y19.526 Z-2.600
G1 X228.489 Y19.478 Z-2.600
G1 X228.409 Y19.437 Z-2.600
G1 X228.327 Y19.405 Z-2.600
G1 X228.244 Y19.380 Z-2.600
G1 X228.161 Y19.363 Z-2.600
G1 X228.080 Y19.353 Z-2.600
G1 X228.000 Y19.350 Z-2.600
G1 X223.800 Y19.350 Z-2.600
G1 X223.507 Y19.643 Z-2.600
G1 X223.800 Y19.350 Z-2.600
G1 X223.800 Y16.350 Z-2.600
G1 X223.507 Y16.057 Z-2.600
G1 X223.800 Y16.350 Z-2.600
G1 X228.000 Y16.350 Z-2.600
G1 X228.080 Y16.347 Z-2.600
G1 X228.161 Y16.337 Z-2.600
G1 X228.244 Y16.320 Z-2.600
G1 X228.327 Y16.295 Z-2.600
G1 X228.409 Y16.263 Z-2.600
G1 X228.489 Y16.222 Z-2.600
G1 X228.566 Y16.174 Z-2.600
G1 X228.639 Y16.119 Z-2.600
G1 X228.707 Y16.057 Z-2.600
G1 X228.769 Y15.989 Z-2.600
G1 X228.824 Y15.916 Z-2.600
G1 X228.872 Y15.839 Z-2.600
G1 X228.913 Y15.759 Z-2.600
G1 X228.945 Y15.677 Z-2.600
G1 X228.970 Y15.594 Z-2.600
G1 X228.987 Y15.511 Z-2.600
G1 X228.997 Y15.430 Z-2.600
G1 X229.000 Y15.350 Z-2.600
G1 X229.000 Y15.275 Z-2.600
G1 X229.000 Y13.932 Z-2.600
G1 X229.000 Y9.275 Z-2.600
G1 X229.000 Y9.200 Z-2.600
G1 X228.997 Y9.119 Z-2.600
G1 X228.987 Y9.037 Z-2.600
G1 X228.970 Y8.955 Z-2.600
G1 X228.945 Y8.873 Z-2.600
G1 X228.914 Y8.793 Z-2.600
G1 X228.875 Y8.715 Z-2.600
G1 X228.829 Y8.641 Z-2.600
G1 X228.777 Y8.571 Z-2.600
G1 X228.720 Y8.506 Z-2.600
G1 X228.657 Y8.446 Z-2.600
G1 X228.591 Y8.393 Z-2.600
G1 X228.521 Y8.346 Z-2.600
G1 X228.449 Y8.306 Z-2.600
G1 X228.375 Y8.273 Z-2.600
G1 X228.303 Y8.247 Z-2.600
G1 X228.229 Y8.227 Z-2.600
G1 X228.153 Y8.212 Z-2.600
G1 X228.077 Y8.203 Z-2.600
G1 X228.000 Y8.200 Z-2.600
G1 X225.772 Y8.200 Z-2.600
G1 X222.800 Y8.200 Z-2.600
G1 X222.400 Y8.200 Z-2.600
G1 X217.650 Y8.200 Z-2.600
G1 X217.357 Y8.493 Z-2.600
G1 X217.650 Y8.200 Z-2.600
G1 X217.650 Y4.000 Z-2.600
G1 X217.647 Y3.920 Z-2.600
G1 X217.637 Y3.839 Z-2.600
G1 X217.620 Y3.756 Z-2.600
G1 X217.595 Y3.673 Z-2.600
G1 X217.563 Y3.591 Z-2.600
G1 X217.522 Y3.511 Z-2.600
G1 X217.474 Y3.434 Z-2.600
G1 X217.419 Y3.361 Z-2.600
G1 X217.357 Y3.293 Z-2.600
G1 X217.289 Y3.231 Z-2.600
G1 X217.216 Y3.176 Z-2.600
G1 X217.139 Y3.128 Z-2.600
G1 X217.059 Y3.087 Z-2.600
G1 X216.977 Y3.055 Z-2.600
G1 X216.894 Y3.030 Z-2.600
G1 X216.811 Y3.013 Z-2.600
G1 X216.730 Y3.003 Z-2.600
G1 X216.650 Y3.000 Z-2.600
G1 X211.650 Y3.000 Z-2.600
G1 X211.570 Y3.003 Z-2.600
G1 X211.489 Y3.013 Z-2.600
G1 X211.406 Y3.030 Z-2.600
G1 X211.323 Y3.055 Z-2.600
G1 X211.241 Y3.087 Z-2.600
G1 X211.161 Y3.128 Z-2.600
G1 X211.084 Y3.176 Z-2.600
G1 X211.011 Y3.231 Z-2.600
G1 X210.943 Y3.293 Z-2.600
G1 X210.881 Y3.361 Z-2.600
G1 X210.826 Y3.434 Z-2.600
G1 X210.778 Y3.511 Z-2.600
G1 X210.737 Y3.591 Z-2.600
G1 X210.705 Y3.673 Z-2.600
G1 X210.680 Y3.756 Z-2.600
G1 X210.663 Y3.839 Z-2.600
G1 X210.653 Y3.920 Z-2.600
G1 X210.650 Y4.000 Z-2.600
G1 X210.650 Y8.200 Z-2.600
G1 X210.943 Y8.493 Z-2.600
G1 X210.650 Y8.200 Z-2.600
G1 X206.500 Y8.200 Z-2.600
G1 X206.207 Y8.493 Z-2.600
G1 X206.500 Y8.200 Z-2.600
G1 X206.500 Y4.000 Z-2.600
G1 X206.497 Y3.920 Z-2.600
G1 X206.487 Y3.839 Z-2.600
G1 X206.470 Y3.756 Z-2.600
G1 X206.445 Y3.673 Z-2.600
G1 X206.413 Y3.591 Z-2.600
G1 X206.372 Y3.511 Z-2.600
G1 X206.324 Y3.434 Z-2.600
G1 X206.269 Y3.361 Z-2.600
G1 X206.207 Y3.293 Z-2.600
G1 X206.139 Y3.231 Z-2.600
G1 X206.066 Y3.176 Z-2.600
G1 X205.989 Y3.128 Z-2.600
G1 X205.909 Y3.087 Z-2.600
G1 X205.827 Y3.055 Z-2.600
G1 X205.744 Y3.030 Z-2.600
G1 X205.661 Y3.013 Z-2.600
G1 X205.580 Y3.003 Z-2.600
G1 X205.500 Y3.000 Z-2.600
G1 X200.500 Y3.000 Z-2.600
G1 X200.420 Y3.003 Z-2.600
G1 X200.339 Y3.013 Z-2.600
G1 X200.256 Y3.030 Z-2.600
G1 X200.173 Y3.055 Z-2.600
G1 X200.091 Y3.087 Z-2.600
G1 X200.011 Y3.128 Z-2.600
G1 X199.934 Y3.176 Z-2.600
G1 X199.861 Y3.231 Z-2.600
G1 X199.793 Y3.293 Z-2.600
G1 X199.731 Y3.361 Z-2.600
G1 X199.676 Y3.434 Z-2.600
G1 X199.628 Y3.511 Z-2.600
G1 X199.587 Y3.591 Z-2.600
G1 X199.555 Y3.673 Z-2.600
G1 X199.530 Y3.756 Z-2.600
G1 X199.513 Y3.839 Z-2.600
G1 X199.503 Y3.920 Z-2.600
G1 X199.500 Y4.000 Z-2.600
G1 X199.500 Y8.200 Z-2.600
G1 X199.793 Y8.493 Z-2.600
G1 X199.500 Y8.200 Z-2.600
G1 X195.350 Y8.200 Z-2.600
G1 X195.057 Y8.493 Z-2.600
G1 X195.350 Y8.200 Z-2.600
G1 X195.350 Y4.000 Z-2.600
G1 X195.347 Y3.920 Z-2.600
G1 X195.337 Y3.839 Z-2.600
G1 X195.320 Y3.756 Z-2.600
G1 X195.295 Y3.673 Z-2.600
G1 X195.263 Y3.591 Z-2.600
G1 X195.222 Y3.511 Z-2.600
G1 X195.174 Y3.434 Z-2.600
G1 X195.119 Y3.361 Z-2.600
G1 X195.057 Y3.293 Z-2.600
G1 X194.989 Y3.231 Z-2.600
G1 X194.916 Y3.176 Z-2.600
G1 X194.839 Y3.128 Z-2.600
G1 X194.759 Y3.087 Z-2.600
G1 X194.677 Y3.055 Z-2.600
G1 X194.594 Y3.030 Z-2.600
G1 X194.511 Y3.013 Z-2.600
G1 X194.430 Y3.003 Z-2.600
G1 X194.350 Y3.000 Z-2.600
G1 X189.350 Y3.000 Z-2.600
G1 X189.270 Y3.003 Z-2.600
G1 X189.189 Y3.013 Z-2.600
G1 X189.106 Y3.030 Z-2.600
G1 X189.023 Y3.055 Z-2.600
G1 X188.941 Y3.087 Z-2.600
G1 X188.861 Y3.128 Z-2.600
G1 X188.784 Y3.176 Z-2.600
G1 X188.711 Y3.231 Z-2.600
G1 X188.643 Y3.293 Z-2.600
G1 X188.581 Y3.361 Z-2.600
G1 X188.526 Y3.434 Z-2.600
G1 X188.478 Y3.511 Z-2.600
G1 X188.437 Y3.591 Z-2.600
G1 X188.405 Y3.673 Z-2.600
G1 X188.380 Y3.756 Z-2.600
G1 X188.363 Y3.839 Z-2.600
G1 X188.353 Y3.920 Z-2.600
G1 X188.350 Y4.000 Z-2.600
G1 X188.350 Y8.200 Z-2.600
G1 X188.643 Y8.493 Z-2.600
G1 X188.350 Y8.200 Z-2.600
G1 X186.675 Y8.200 Z-2.600
G1 X180.675 Y8.200 Z-2.600
G1 X178.000 Y8.200 Z-2.600
G1 X177.920 Y8.203 Z-2.600
G1 X177.839 Y8.213 Z-2.600
G1 X177.756 Y8.230 Z-2.600
G1 X177.673 Y8.255 Z-2.600
G1 X177.591 Y8.287 Z-2.600
G1 X177.511 Y8.328 Z-2.600
G1 X177.434 Y8.376 Z-2.600
G1 X177.361 Y8.431 Z-2.600
G1 X177.293 Y8.493 Z-2.600
G1 X177.231 Y8.561 Z-2.600
G1 X177.176 Y8.634 Z-2.600
G1 X177.128 Y8.711 Z-2.600
G1 X177.087 Y8.791 Z-2.600
G1 X177.055 Y8.873 Z-2.600
G1 X177.030 Y8.956 Z-2.600
G1 X177.013 Y9.039 Z-2.600
G1 X177.003 Y9.120 Z-2.600
G1 X177.000 Y9.200 Z-2.600
G1 X177.000 Y9.275 Z-2.600
G1 X177.000 Y15.275 Z-2.600
G1 X177.000 Y15.350 Z-2.600
G1 X177.003 Y15.430 Z-2.600
G1 X177.013 Y15.511 Z-2.600
G1 X177.030 Y15.594 Z-2.600
G1 X177.055 Y15.677 Z-2.600
G1 X177.087 Y15.759 Z-2.600
G1 X177.128 Y15.839 Z-2.600
G1 X177.176 Y15.916 Z-2.600
G1 X177.231 Y15.989 Z-2.600
G1 X177.293 Y16.057 Z-2.600
G1 X177.361 Y16.119 Z-2.600
G1 X177.434 Y16.174 Z-2.600
G1 X177.511 Y16.222 Z-2.600
G1 X177.591 Y16.263 Z-2.600
G1 X177.673 Y16.295 Z-2.600
G1 X177.756 Y16.320 Z-2.600
G1 X177.839 Y16.337 Z-2.600
G1 X177.920 Y16.347 Z-2.600
G1 X178.000 Y16.350 Z-2.600
G1 X178.810 Y16.350 Z-2.600
G1 X182.200 Y16.350 Z-2.629 F250.0
G1 X182.493 Y16.057 Z-2.633
G1 X182.200 Y16.350 Z-2.637
G1 X182.200 Y19.350 Z-2.663
G1 X182.493 Y19.643 Z-2.666
G1 X182.200 Y19.350 Z-2.670
G1 X178.000 Y19.350 Z-2.706
G1 X177.920 Y19.353 Z-2.707
G1 X177.839 Y19.363 Z-2.708
G1 X177.756 Y19.380 Z-2.708
G1 X177.673 Y19.405 Z-2.709
G1 X177.591 Y19.437 Z-2.710
G1 X177.511 Y19.478 Z-2.711
G1 X177.434 Y19.526 Z-2.711
G1 X177.361 Y19.581 Z-2.712
G1 X177.293 Y19.643 Z-2.713
G1 X177.231 Y19.711 Z-2.714
G1 X177.176 Y19.784 Z-2.714
G1 X177.128 Y19.861 Z-2.715
G1 X177.087 Y19.941 Z-2.716
G1 X177.055 Y20.023 Z-2.717
G1 X177.030 Y20.106 Z-2.717
G1 X177.013 Y20.189 Z-2.718
G1 X177.003 Y20.270 Z-2.719
G1 X177.000 Y20.350 Z-2.720
G1 X177.000 Y26.500 Z-2.773
G1 X177.003 Y26.580 Z-2.774
G1 X177.013 Y26.661 Z-2.775
G1 X177.030 Y26.744 Z-2.775
G1 X177.055 Y26.827 Z-2.776
G1 X177.087 Y26.909 Z-2.777
G1 X177.128 Y26.989 Z-2.778
G1 X177.176 Y27.066 Z-2.778
G1 X177.231 Y27.139 Z-2.779
G1 X177.293 Y27.207 Z-2.780
G1 X177.361 Y27.269 Z-2.781
G1 X177.434 Y27.324 Z-2.781
G1 X177.511 Y27.372 Z-2.782
G1 X177.591 Y27.413 Z-2.783
G1 X177.673 Y27.445 Z-2.784
G1 X177.756 Y27.470 Z-2.784
G1 X177.839 Y27.487 Z-2.785
G1 X177.920 Y27.497 Z-2.786
G1 X178.000 Y27.500 Z-2.787
G1 X182.200 Y27.500 Z-2.823
G1 X182.493 Y27.207 Z-2.827
G1 X182.200 Y27.500 Z-2.830
G1 X182.200 Y30.500 Z-2.856
G1 X182.493 Y30.793 Z-2.860
G1 X182.200 Y30.500 Z-2.863
G1 X178.000 Y30.500 Z-2.900
G1 X177.920 Y30.503 Z-2.901
G1 X177.839 Y30.513 Z-2.901
G1 X177.756 Y30.530 Z-2.902
G1 X177.673 Y30.555 Z-2.903
G1 X177.591 Y30.587 Z-2.904
G1 X177.511 Y30.628 Z-2.904
G1 X177.434 Y30.676 Z-2.905
G1 X177.361 Y30.731 Z-2.906
G1 X177.293 Y30.793 Z-2.907
G1 X177.231 Y30.861 Z-2.907
G1 X177.176 Y30.934 Z-2.908
G1 X177.128 Y31.011 Z-2.909
G1 X177.087 Y31.091 Z-2.910
G1 X177.055 Y31.173 Z-2.910
G1 X177.030 Y31.256 Z-2.911
G1 X177.013 Y31.339 Z-2.912
G1 X177.003 Y31.420 Z-2.913
G1 X177.000 Y31.500 Z-2.913
G1 X177.000 Y37.650 Z-2.967
G1 X177.003 Y37.730 Z-2.967
G1 X177.013 Y37.811 Z-2.968
G1 X177.030 Y37.894 Z-2.969
G1 X177.055 Y37.977 Z-2.970
G1 X177.087 Y38.059 Z-2.971
G1 X177.128 Y38.139 Z-2.971
G1 X177.176 Y38.216 Z-2.972
G1 X177.231 Y38.289 Z-2.973
G1 X177.293 Y38.357 Z-2.974
G1 X177.361 Y38.419 Z-2.974
G1 X177.434 Y38.474 Z-2.975
G1 X177.511 Y38.522 Z-2.976
G1 X177.591 Y38.563 Z-2.977
G1 X177.673 Y38.595 Z-2.977
G1 X177.756 Y38.620 Z-2.978
G1 X177.839 Y38.637 Z-2.979
G1 X177.920 Y38.647 Z-2.980
G1 X178.000 Y38.650 Z-2.980
G1 X182.200 Y38.650 Z-3.017
G1 X182.493 Y38.357 Z-3.020
G1 X182.200 Y38.650 Z-3.024
G1 X182.200 Y41.650 Z-3.050
G1 X182.493 Y41.943 Z-3.054
G1 X182.200 Y41.650 Z-3.057
G1 X178.000 Y41.650 Z-3.094
G1 X177.920 Y41.653 Z-3.094
G1 X177.839 Y41.663 Z-3.095
G1 X177.756 Y41.680 Z-3.096
G1 X177.673 Y41.705 Z-3.097
G1 X177.591 Y41.737 Z-3.097
G1 X177.511 Y41.778 Z-3.098
G1 X177.434 Y41.826 Z-3.099
G1 X177.361 Y41.881 Z-3.100
G1 X177.293 Y41.943 Z-3.100
G1 X177.231 Y42.011 Z-3.101
G1 X177.176 Y42.084 Z-3.102
G1 X177.128 Y42.161 Z-3.103
G1 X177.087 Y42.241 Z-3.103
G1 X177.055 Y42.323 Z-3.104
G1 X177.030 Y42.406 Z-3.105
G1 X177.013 Y42.489 Z-3.106
G1 X177.003 Y42.570 Z-3.106
G1 X177.000 Y42.650 Z-3.107
G1 X177.000 Y42.725 Z-3.108
G1 X177.000 Y48.725 Z-3.160
G1 X177.000 Y48.800 Z-3.160
G1 X177.000 Y51.400 Z-3.183
G1 X177.003 Y51.480 Z-3.184
G1 X177.013 Y51.561 Z-3.184
G1 X177.030 Y51.644 Z-3.185
G1 X177.055 Y51.727 Z-3.186
G1 X177.087 Y51.809 Z-3.187
G1 X177.128 Y51.889 Z-3.187
G1 X177.176 Y51.966 Z-3.188
G1 X177.231 Y52.039 Z-3.189
G1 X177.293 Y52.107 Z-3.190
G1 X177.361 Y52.169 Z-3.191
G1 X177.434 Y52.224 Z-3.191
G1 X177.511 Y52.272 Z-3.192
G1 X177.591 Y52.313 Z-3.193
G1 X177.673 Y52.345 Z-3.194
G1 X177.756 Y52.370 Z-3.194
G1 X177.839 Y52.387 Z-3.195
G1 X177.920 Y52.397 Z-3.196
G1 X178.000 Y52.400 Z-3.197
G1 X200.000 Y52.400 Z-3.387
G1 X200.634 Y52.400 Z-3.393
G1 X206.000 Y52.400 Z-3.439
G1 X209.165 Y52.400 Z-3.467
G1 X228.000 Y52.400 Z-3.467 F180.0
G1 X228.080 Y52.397 Z-3.467
G1 X228.161 Y52.387 Z-3.467
G1 X228.244 Y52.370 Z-3.467
G1 X228.327 Y52.345 Z-3.467
G1 X228.409 Y52.313 Z-3.467
G1 X228.489 Y52.272 Z-3.467
G1 X228.566 Y52.224 Z-3.467
G1 X228.639 Y52.169 Z-3.467
G1 X228.707 Y52.107 Z-3.467
G1 X228.769 Y52.039 Z-3.467
G1 X228.824 Y51.966 Z-3.467
G1 X228.872 Y51.889 Z-3.467
G1 X228.913 Y51.809 Z-3.467
G1 X228.945 Y51.727 Z-3.467
G1 X228.970 Y51.644 Z-3.467
G1 X228.987 Y51.561 Z-3.467
G1 X228.997 Y51.480 Z-3.467
G1 X229.000 Y51.400 Z-3.467
G1 X229.000 Y48.800 Z-3.467
G1 X229.000 Y48.725 Z-3.467
G1 X229.000 Y42.725 Z-3.467
G1 X229.000 Y42.650 Z-3.467
G1 X228.997 Y42.570 Z-3.467
G1 X228.987 Y42.489 Z-3.467
G1 X228.970 Y42.406 Z-3.467
G1 X228.945 Y42.323 Z-3.467
G1 X228.913 Y42.241 Z-3.467
G1 X228.872 Y42.161 Z-3.467
G1 X228.824 Y42.084 Z-3.467
G1 X228.769 Y42.011 Z-3.467
G1 X228.707 Y41.943 Z-3.467
G1 X228.639 Y41.881 Z-3.467
G1 X228.566 Y41.826 Z-3.467
G1 X228.489 Y41.778 Z-3.467
G1 X228.409 Y41.737 Z-3.467
G1 X228.327 Y41.705 Z-3.467
G1 X228.244 Y41.680 Z-3.467
G1 X228.161 Y41.663 Z-3.467
G1 X228.080 Y41.653 Z-3.467
G1 X228.000 Y41.650 Z-3.467
G1 X223.800 Y41.650 Z-3.467
G1 X223.507 Y41.943 Z-3.467
G1 X223.800 Y41.650 Z-3.467
G1 X223.800 Y38.650 Z-3.467
G1 X223.507 Y38.357 Z-3.467
G1 X223.800 Y38.650 Z-3.467
G1 X228.000 Y38.650 Z-3.467
G1 X228.080 Y38.647 Z-3.467
G1 X228.161 Y38.637 Z-3.467
G1 X228.244 Y38.620 Z-3.467
G1 X228.327 Y38.595 Z-3.467
G1 X228.409 Y38.563 Z-3.467
G1 X228.489 Y38.522 Z-3.467
G1 X228.566 Y38.474 Z-3.467
G1 X228.639 Y38.419 Z-3.467
G1 X228.707 Y38.357 Z-3.467
G1 X228.769 Y38.289 Z-3.467
G1 X228.824 Y38.216 Z-3.467
G1 X228.872 Y38.139 Z-3.467
G1 X228.913 Y38.059 Z-3.467
G1 X228.945 Y37.977 Z-3.467
G1 X228.970 Y37.894 Z-3.467
G1 X228.987 Y37.811 Z-3.467
G1 X228.997 Y37.730 Z-3.467
G1 X229.000 Y37.650 Z-3.467
G1 X229.000 Y31.500 Z-3.467
G1 X228.997 Y31.420 Z-3.467
G1 X228.987 Y31.339 Z-3.467
G1 X228.970 Y31.256 Z-3.467
G1 X228.945 Y31.173 Z-3.467
G1 X228.913 Y31.091 Z-3.467
G1 X228.872 Y31.011 Z-3.467
G1 X228.824 Y30.934 Z-3.467
G1 X228.769 Y30.861 Z-3.467
G1 X228.707 Y30.793 Z-3.467
G1 X228.639 Y30.731 Z-3.467
G1 X228.566 Y30.676 Z-3.467
G1 X228.489 Y30.628 Z-3.467
G1 X228.409 Y30.587 Z-3.467
G1 X228.327 Y30.555 Z-3.467
G1 X228.244 Y30.530 Z-3.467
G1 X228.161 Y30.513 Z-3.467
G1 X228.080 Y30.503 Z-3.467
G1 X228.000 Y30.500 Z-3.467
G1 X223.800 Y30.500 Z-3.467
G1 X223.507 Y30.793 Z-3.467
G1 X223.800 Y30.500 Z-3.467
G1 X223.800 Y27.500 Z-3.467
G1 X223.507 Y27.207 Z-3.467
G1 X223.800 Y27.500 Z-3.467
G1 X228.000 Y27.500 Z-3.467
G1 X228.080 Y27.497 Z-3.467
G1 X228.161 Y27.487 Z-3.467
G1 X228.244 Y27.470 Z-3.467
G1 X228.327 Y27.445 Z-3.467
G1 X228.409 Y27.413 Z-3.467
G1 X228.489 Y27.372 Z-3.467
G1 X228.566 Y27.324 Z-3.467
G1 X228.639 Y27.269 Z-3.467
G1 X228.707 Y27.207 Z-3.467
G1 X228.769 Y27.139 Z-3.467
G1 X228.824 Y27.066 Z-3.467
G1 X228.872 Y26.989 Z-3.467
G1 X228.913 Y26.909 Z-3.467
G1 X228.945 Y26.827 Z-3.467
G1 X228.970 Y26.744 Z-3.467
G1 X228.987 Y26.661 Z-3.467
G1 X228.997 Y26.580 Z-3.467
G1 X229.000 Y26.500 Z-3.467
G1 X229.000 Y20.350 Z-3.467
G1 X228.997 Y20.270 Z-3.467
G1 X228.987 Y20.189 Z-3.467
G1 X228.970 Y20.106 Z-3.467
G1 X228.945 Y20.023 Z-3.467
G1 X228.913 Y19.941 Z-3.467
G1 X228.872 Y19.861 Z-3.467
G1 X228.824 Y19.784 Z-3.467
G1 X228.769 Y19.711 Z-3.467
G1 X228.707 Y19.643 Z-3.467
G1 X228.639 Y19.581 Z-3.467
G1 X228.566 Y19.526 Z-3.467
G1 X228.489 Y19.478 Z-3.467
G1 X228.409 Y19.437 Z-3.467
G1 X228.327 Y19.405 Z-3.467
G1 X228.244 Y19.380 Z-3.467
G1 X228.161 Y19.363 Z-3.467
G1 X228.080 Y19.353 Z-3.467
G1 X228.000 Y19.350 Z-3.467
G1 X223.800 Y19.350 Z-3.467
G1 X223.507 Y19.643 Z-3.467
G1 X223.800 Y19.350 Z-3.467
G1 X223.800 Y16.350 Z-3.467
G1 X223.507 Y16.057 Z-3.467
G1 X223.800 Y16.350 Z-3.467
G1 X228.000 Y16.350 Z-3.467
G1 X228.080 Y16.347 Z-3.467
G1 X228.161 Y16.337 Z-3.467
G1 X228.244 Y16.320 Z-3.467
G1 X228.327 Y16.295 Z-3.467
G1 X228.409 Y16.263 Z-3.467
G1 X228.489 Y16.222 Z-3.467
G1 X228.566 Y16.174 Z-3.467
G1 X228.639 Y16.119 Z-3.467
G1 X228.707 Y16.057 Z-3.467
G1 X228.769 Y15.989 Z-3.467
G1 X228.824 Y15.916 Z-3.467
G1 X228.872 Y15.839 Z-3.467
G1 X228.913 Y15.759 Z-3.467
G1 X228.945 Y15.677 Z-3.467
G1 X228.970 Y15.594 Z-3.467
G1 X228.987 Y15.511 Z-3.467
G1 X228.997 Y15.430 Z-3.467
G1 X229.000 Y15.350 Z-3.467
G1 X229.000 Y15.275 Z-3.467
G1 X229.000 Y13.932 Z-3.467
G1 X229.000 Y9.275 Z-3.467
G1 X229.000 Y9.200 Z-3.467
G1 X228.997 Y9.119 Z-3.467
G1 X228.987 Y9.037 Z-3.467
G1 X228.970 Y8.955 Z-3.467
G1 X228.945 Y8.873 Z-3.467
G1 X228.914 Y8.793 Z-3.467
G1 X228.875 Y8.715 Z-3.467
G1 X228.829 Y8.641 Z-3.467
G1 X228.777 Y8.571 Z-3.467
G1 X228.720 Y8.506 Z-3.467
G1 X228.657 Y8.446 Z-3.467
G1 X228.591 Y8.393 Z-3.467
G1 X228.521 Y8.346 Z-3.467
G1 X228.449 Y8.306 Z-3.467
G1 X228.375 Y8.273 Z-3.467
G1 X228.303 Y8.247 Z-3.467
G1 X228.229 Y8.227 Z-3.467
G1 X228.153 Y8.212 Z-3.467
G1 X228.077 Y8.203 Z-3.467
G1 X228.000 Y8.200 Z-3.467
G1 X225.772 Y8.200 Z-3.467
G1 X222.800 Y8.200 Z-3.467
G1 X222.400 Y8.200 Z-3.467
G1 X217.650 Y8.200 Z-3.467
G1 X217.357 Y8.493 Z-3.467
G1 X217.650 Y8.200 Z-3.467
G1 X217.650 Y4.000 Z-3.467
G1 X217.647 Y3.920 Z-3.467
G1 X217.637 Y3.839 Z-3.467
G1 X217.620 Y3.756 Z-3.467
G1 X217.595 Y3.673 Z-3.467
G1 X217.563 Y3.591 Z-3.467
G1 X217.522 Y3.511 Z-3.467
G1 X217.474 Y3.434 Z-3.467
G1 X217.419 Y3.361 Z-3.467
G1 X217.357 Y3.293 Z-3.467
G1 X217.289 Y3.231 Z-3.467
G1 X217.216 Y3.176 Z-3.467
G1 X217.139 Y3.128 Z-3.467
G1 X217.059 Y3.087 Z-3.467
G1 X216.977 Y3.055 Z-3.467
G1 X216.894 Y3.030 Z-3.467
G1 X216.811 Y3.013 Z-3.467
G1 X216.730 Y3.003 Z-3.467
G1 X216.650 Y3.000 Z-3.467
G1 X211.650 Y3.000 Z-3.467
G1 X211.570 Y3.003 Z-3.467
G1 X211.489 Y3.013 Z-3.467
G1 X211.406 Y3.030 Z-3.467
G1 X211.323 Y3.055 Z-3.467
G1 X211.241 Y3.087 Z-3.467
G1 X211.161 Y3.128 Z-3.467
G1 X211.084 Y3.176 Z-3.467
G1 X211.011 Y3.231 Z-3.467
G1 X210.943 Y3.293 Z-3.467
G1 X210.881 Y3.361 Z-3.467
G1 X210.826 Y3.434 Z-3.467
G1 X210.778 Y3.511 Z-3.467
G1 X210.737 Y3.591 Z-3.467
G1 X210.705 Y3.673 Z-3.467
G1 X210.680 Y3.756 Z-3.467
G1 X210.663 Y3.839 Z-3.467
G1 X210.653 Y3.920 Z-3.467
G1 X210.650 Y4.000 Z-3.467
G1 X210.650 Y8.200 Z-3.467
G1 X210.943 Y8.493 Z-3.467
G1 X210.650 Y8.200 Z-3.467
G1 X206.500 Y8.200 Z-3.467
G1 X206.207 Y8.493 Z-3.467
G1 X206.500 Y8.200 Z-3.467
G1 X206.500 Y4.000 Z-3.467
G1 X206.497 Y3.920 Z-3.467
G1 X206.487 Y3.839 Z-3.467
G1 X206.470 Y3.756 Z-3.467
G1 X206.445 Y3.673 Z-3.467
G1 X206.413 Y3.591 Z-3.467
G1 X206.372 Y3.511 Z-3.467
G1 X206.324 Y3.434 Z-3.467
G1 X206.269 Y3.361 Z-3.467
G1 X206.207 Y3.293 Z-3.467
G1 X206.139 Y3.231 Z-3.467
G1 X206.066 Y3.176 Z-3.467
G1 X205.989 Y3.128 Z-3.467
G1 X205.909 Y3.087 Z-3.467
G1 X205.827 Y3.055 Z-3.467
G1 X205.744 Y3.030 Z-3.467
G1 X205.661 Y3.013 Z-3.467
G1 X205.580 Y3.003 Z-3.467
G1 X205.500 Y3.000 Z-3.467
G1 X200.500 Y3.000 Z-3.467
G1 X200.420 Y3.003 Z-3.467
G1 X200.339 Y3.013 Z-3.467
G1 X200.256 Y3.030 Z-3.467
G1 X200.173 Y3.055 Z-3.467
G1 X200.091 Y3.087 Z-3.467
G1 X200.011 Y3.128 Z-3.467
G1 X199.934 Y3.176 Z-3.467
G1 X199.861 Y3.231 Z-3.467
G1 X199.793 Y3.293 Z-3.467
G1 X199.731 Y3.361 Z-3.467
G1 X199.676 Y3.434 Z-3.467
G1 X199.628 Y3.511 Z-3.467
G1 X199.587 Y3.591 Z-3.467
G1 X199.555 Y3.673 Z-3.467
G1 X199.530 Y3.756 Z-3.467
G1 X199.513 Y3.839 Z-3.467
G1 X199.503 Y3.920 Z-3.467
G1 X199.500 Y4.000 Z-3.467
G1 X199.500 Y8.200 Z-3.467
G1 X199.793 Y8.493 Z-3.467
G1 X199.500 Y8.200 Z-3.467
G1 X195.350 Y8.200 Z-3.467
G1 X195.057 Y8.493 Z-3.467
G1 X195.350 Y8.200 Z-3.467
G1 X195.350 Y4.000 Z-3.467
G1 X195.347 Y3.920 Z-3.467
G1 X195.337 Y3.839 Z-3.467
G1 X195.320 Y3.756 Z-3.467
G1 X195.295 Y3.673 Z-3.467
G1 X195.263 Y3.591 Z-3.467
G1 X195.222 Y3.511 Z-3.467
G1 X195.174 Y3.434 Z-3.467
G1 X195.119 Y3.361 Z-3.467
G1 X195.057 Y3.293 Z-3.467
G1 X194.989 Y3.231 Z-3.467
G1 X194.916 Y3.176 Z-3.467
G1 X194.839 Y3.128 Z-3.467
G1 X194.759 Y3.087 Z-3.467
G1 X194.677 Y3.055 Z-3.467
G1 X194.594 Y3.030 Z-3.467
G1 X194.511 Y3.013 Z-3.467
G1 X194.430 Y3.003 Z-3.467
G1 X194.350 Y3.000 Z-3.467
G1 X189.350 Y3.000 Z-3.467
G1 X189.270 Y3.003 Z-3.467
G1 X189.189 Y3.013 Z-3.467
G1 X189.106 Y3.030 Z-3.467
G1 X189.023 Y3.055 Z-3.467
G1 X188.941 Y3.087 Z-3.467
G1 X188.861 Y3.128 Z-3.467
G1 X188.784 Y3.176 Z-3.467
G1 X188.711 Y3.231 Z-3.467
G1 X188.643 Y3.293 Z-3.467
G1 X188.581 Y3.361 Z-3.467
G1 X188.526 Y3.434 Z-3.467
G1 X188.478 Y3.511 Z-3.467
G1 X188.437 Y3.591 Z-3.467
G1 X188.405 Y3.673 Z-3.467
G1 X188.380 Y3.756 Z-3.467
G1 X188.363 Y3.839 Z-3.467
G1 X188.353 Y3.920 Z-3.467
G1 X188.350 Y4.000 Z-3.467
G1 X188.350 Y8.200 Z-3.467
G1 X188.643 Y8.493 Z-3.467
G1 X188.350 Y8.200 Z-3.467
G1 X186.675 Y8.200 Z-3.467
G1 X180.675 Y8.200 Z-3.467
G1 X178.000 Y8.200 Z-3.467
G1 X177.920 Y8.203 Z-3.467
G1 X177.839 Y8.213 Z-3.467
G1 X177.756 Y8.230 Z-3.467
G1 X177.673 Y8.255 Z-3.467
G1 X177.591 Y8.287 Z-3.467
G1 X177.511 Y8.328 Z-3.467
G1 X177.434 Y8.376 Z-3.467
G1 X177.361 Y8.431 Z-3.467
G1 X177.293 Y8.493 Z-3.467
G1 X177.231 Y8.561 Z-3.467
G1 X177.176 Y8.634 Z-3.467
G1 X177.128 Y8.711 Z-3.467
G1 X177.087 Y8.791 Z-3.467
G1 X177.055 Y8.873 Z-3.467
G1 X177.030 Y8.956 Z-3.467
G1 X177.013 Y9.039 Z-3.467
G1 X177.003 Y9.120 Z-3.467
G1 X177.000 Y9.200 Z-3.467
G1 X177.000 Y9.275 Z-3.467
G1 X177.000 Y15.275 Z-3.467
G1 X177.000 Y15.350 Z-3.467
G1 X177.003 Y15.430 Z-3.467
G1 X177.013 Y15.511 Z-3.467
G1 X177.030 Y15.594 Z-3.467
G1 X177.055 Y15.677 Z-3.467
G1 X177.087 Y15.759 Z-3.467
G1 X177.128 Y15.839 Z-3.467
G1 X177.176 Y15.916 Z-3.467
G1 X177.231 Y15.989 Z-3.467
G1 X177.293 Y16.057 Z-3.467
G1 X177.361 Y16.119 Z-3.467
G1 X177.434 Y16.174 Z-3.467
G1 X177.511 Y16.222 Z-3.467
G1 X177.591 Y16.263 Z-3.467
G1 X177.673 Y16.295 Z-3.467
G1 X177.756 Y16.320 Z-3.467
G1 X177.839 Y16.337 Z-3.467
G1 X177.920 Y16.347 Z-3.467
G1 X178.000 Y16.350 Z-3.467
G1 X178.810 Y16.350 Z-3.467
G1 X182.200 Y16.350 Z-3.467
G1 X182.493 Y16.057 Z-3.467
G1 X182.200 Y16.350 Z-3.467
G1 X182.200 Y19.350 Z-3.467
G1 X182.493 Y19.643 Z-3.467
G1 X182.200 Y19.350 Z-3.467
G1 X178.000 Y19.350 Z-3.467
G1 X177.920 Y19.353 Z-3.467
G1 X177.839 Y19.363 Z-3.467
G1 X177.756 Y19.380 Z-3.467
G1 X177.673 Y19.405 Z-3.467
G1 X177.591 Y19.437 Z-3.467
G1 X177.511 Y19.478 Z-3.467
G1 X177.434 Y19.526 Z-3.467
G1 X177.361 Y19.581 Z-3.467
G1 X177.293 Y19.643 Z-3.467
G1 X177.231 Y19.711 Z-3.467
G1 X177.176 Y19.784 Z-3.467
G1 X177.128 Y19.861 Z-3.467
G1 X177.087 Y19.941 Z-3.467
G1 X177.055 Y20.023 Z-3.467
G1 X177.030 Y20.106 Z-3.467
G1 X177.013 Y20.189 Z-3.467
G1 X177.003 Y20.270 Z-3.467
G1 X177.000 Y20.350 Z-3.467
G1 X177.000 Y26.500 Z-3.467
G1 X177.003 Y26.580 Z-3.467
G1 X177.013 Y26.661 Z-3.467
G1 X177.030 Y26.744 Z-3.467
G1 X177.055 Y26.827 Z-3.467
G1 X177.087 Y26.909 Z-3.467
G1 X177.128 Y26.989 Z-3.467
G1 X177.176 Y27.066 Z-3.467
G1 X177.231 Y27.139 Z-3.467
G1 X177.293 Y27.207 Z-3.467
G1 X177.361 Y27.269 Z-3.467
G1 X177.434 Y27.324 Z-3.467
G1 X177.511 Y27.372 Z-3.467
G1 X177.591 Y27.413 Z-3.467
G1 X177.673 Y27.445 Z-3.467
G1 X177.756 Y27.470 Z-3.467
G1 X177.839 Y27.487 Z-3.467
G1 X177.920 Y27.497 Z-3.467
G1 X178.000 Y27.500 Z-3.467
G1 X182.200 Y27.500 Z-3.467
G1 X182.493 Y27.207 Z-3.467
G1 X182.200 Y27.500 Z-3.467
G1 X182.200 Y30.500 Z-3.467
G1 X182.493 Y30.793 Z-3.467
G1 X182.200 Y30.500 Z-3.467
G1 X178.000 Y30.500 Z-3.467
G1 X177.920 Y30.503 Z-3.467
G1 X177.839 Y30.513 Z-3.467
G1 X177.756 Y30.530 Z-3.467
G1 X177.673 Y30.555 Z-3.467
G1 X177.591 Y30.587 Z-3.467
G1 X177.511 Y30.628 Z-3.467
G1 X177.434 Y30.676 Z-3.467
G1 X177.361 Y30.731 Z-3.467
G1 X177.293 Y30.793 Z-3.467
G1 X177.231 Y30.861 Z-3.467
G1 X177.176 Y30.934 Z-3.467
G1 X177.128 Y31.011 Z-3.467
G1 X177.087 Y31.091 Z-3.467
G1 X177.055 Y31.173 Z-3.467
G1 X177.030 Y31.256 Z-3.467
G1 X177.013 Y31.339 Z-3.467
G1 X177.003 Y31.420 Z-3.467
G1 X177.000 Y31.500 Z-3.467
G1 X177.000 Y37.650 Z-3.467
G1 X177.003 Y37.730 Z-3.467
G1 X177.013 Y37.811 Z-3.467
G1 X177.030 Y37.894 Z-3.467
G1 X177.055 Y37.977 Z-3.467
G1 X177.087 Y38.059 Z-3.467
G1 X177.128 Y38.139 Z-3.467
G1 X177.176 Y38.216 Z-3.467
G1 X177.231 Y38.289 Z-3.467
G1 X177.293 Y38.357 Z-3.467
G1 X177.361 Y38.419 Z-3.467
G1 X177.434 Y38.474 Z-3.467
G1 X177.511 Y38.522 Z-3.467
G1 X177.591 Y38.563 Z-3.467
G1 X177.673 Y38.595 Z-3.467
G1 X177.756 Y38.620 Z-3.467
G1 X177.839 Y38.637 Z-3.467
G1 X177.920 Y38.647 Z-3.467
G1 X178.000 Y38.650 Z-3.467
G1 X182.200 Y38.650 Z-3.467
G1 X182.493 Y38.357 Z-3.467
G1 X182.200 Y38.650 Z-3.467
G1 X182.200 Y41.650 Z-3.467
G1 X182.493 Y41.943 Z-3.467
G1 X182.200 Y41.650 Z-3.467
G1 X178.000 Y41.650 Z-3.467
G1 X177.920 Y41.653 Z-3.467
G1 X177.839 Y41.663 Z-3.467
G1 X177.756 Y41.680 Z-3.467
G1 X177.673 Y41.705 Z-3.467
G1 X177.591 Y41.737 Z-3.467
G1 X177.511 Y41.778 Z-3.467
G1 X177.434 Y41.826 Z-3.467
G1 X177.361 Y41.881 Z-3.467
G1 X177.293 Y41.943 Z-3.467
G1 X177.231 Y42.011 Z-3.467
G1 X177.176 Y42.084 Z-3.467
G1 X177.128 Y42.161 Z-3.467
G1 X177.087 Y42.241 Z-3.467
G1 X177.055 Y42.323 Z-3.467
G1 X177.030 Y42.406 Z-3.467
G1 X177.013 Y42.489 Z-3.467
G1 X177.003 Y42.570 Z-3.467
G1 X177.000 Y42.650 Z-3.467
G1 X177.000 Y42.725 Z-3.467
G1 X177.000 Y48.725 Z-3.467
G1 X177.000 Y48.800 Z-3.467
G1 X177.000 Y51.400 Z-3.467
G1 X177.003 Y51.480 Z-3.467
G1 X177.013 Y51.561 Z-3.467
G1 X177.030 Y51.644 Z-3.467
G1 X177.055 Y51.727 Z-3.467
G1 X177.087 Y51.809 Z-3.467
G1 X177.128 Y51.889 Z-3.467
G1 X177.176 Y51.966 Z-3.467
G1 X177.231 Y52.039 Z-3.467
G1 X177.293 Y52.107 Z-3.467
G1 X177.361 Y52.169 Z-3.467
G1 X177.434 Y52.224 Z-3.467
G1 X177.511 Y52.272 Z-3.467
G1 X177.591 Y52.313 Z-3.467
G1 X177.673 Y52.345 Z-3.467
G1 X177.756 Y52.370 Z-3.467
G1 X177.839 Y52.387 Z-3.467
G1 X177.920 Y52.397 Z-3.467
G1 X178.000 Y52.400 Z-3.467
G1 X200.000 Y52.400 Z-3.467
G1 X200.634 Y52.400 Z-3.467
G1 X206.000 Y52.400 Z-3.467
G1 X209.165 Y52.400 Z-3.467
G1 X228.000 Y52.400 Z-3.630 F250.0
G1 X228.080 Y52.397 Z-3.631
G1 X228.161 Y52.387 Z-3.631
G1 X228.244 Y52.370 Z-3.632
G1 X228.327 Y52.345 Z-3.633
G1 X228.409 Y52.313 Z-3.634
G1 X228.489 Y52.272 Z-3.634
G1 X228.566 Y52.224 Z-3.635
G1 X228.639 Y52.169 Z-3.636
G1 X228.707 Y52.107 Z-3.637
G1 X228.769 Y52.039 Z-3.637
G1 X228.824 Y51.966 Z-3.638
G1 X228.872 Y51.889 Z-3.639
G1 X228.913 Y51.809 Z-3.640
G1 X228.945 Y51.727 Z-3.640
G1 X228.970 Y51.644 Z-3.641
G1 X228.987 Y51.561 Z-3.642
G1 X228.997 Y51.480 Z-3.643
G1 X229.000 Y51.400 Z-3.644
G1 X229.000 Y48.800 Z-3.666
G1 X229.000 Y48.725 Z-3.667
G1 X229.000 Y42.725 Z-3.719
G1 X229.000 Y42.650 Z-3.719
G1 X228.997 Y42.570 Z-3.720
G1 X228.987 Y42.489 Z-3.721
G1 X228.970 Y42.406 Z-3.722
G1 X228.945 Y42.323 Z-3.722
G1 X228.913 Y42.241 Z-3.723
G1 X228.872 Y42.161 Z-3.724
G1 X228.824 Y42.084 Z-3.725
G1 X228.769 Y42.011 Z-3.725
G1 X228.707 Y41.943 Z-3.726
G1 X228.639 Y41.881 Z-3.727
G1 X228.566 Y41.826 Z-3.728
G1 X228.489 Y41.778 Z-3.728
G1 X228.409 Y41.737 Z-3.729
G1 X228.327 Y41.705 Z-3.730
G1 X228.244 Y41.680 Z-3.731
G1 X228.161 Y41.663 Z-3.731
G1 X228.080 Y41.653 Z-3.732
G1 X228.000 Y41.650 Z-3.733
G1 X223.800 Y41.650 Z-3.769
G1 X223.507 Y41.943 Z-3.773
G1 X223.800 Y41.650 Z-3.777
G1 X223.800 Y38.650 Z-3.803
G1 X223.507 Y38.357 Z-3.806
G1 X223.800 Y38.650 Z-3.810
G1 X228.000 Y38.650 Z-3.846
G1 X228.080 Y38.647 Z-3.847
G1 X228.161 Y38.637 Z-3.848
G1 X228.244 Y38.620 Z-3.848
G1 X228.327 Y38.595 Z-3.849
G1 X228.409 Y38.563 Z-3.850
G1 X228.489 Y38.522 Z-3.851
G1 X228.566 Y38.474 Z-3.851
G1 X228.639 Y38.419 Z-3.852
G1 X228.707 Y38.357 Z-3.853
G1 X228.769 Y38.289 Z-3.854
G1 X228.824 Y38.216 Z-3.854
G1 X228.872 Y38.139 Z-3.855
G1 X228.913 Y38.059 Z-3.856
G1 X228.945 Y37.977 Z-3.857
G1 X228.970 Y37.894 Z-3.857
G1 X228.987 Y37.811 Z-3.858
G1 X228.997 Y37.730 Z-3.859
G1 X229.000 Y37.650 Z-3.860
G1 X229.000 Y31.500 Z-3.913
G1 X228.997 Y31.420 Z-3.914
G1 X228.987 Y31.339 Z-3.915
G1 X228.970 Y31.256 Z-3.915
G1 X228.945 Y31.173 Z-3.916
G1 X228.913 Y31.091 Z-3.917
G1 X228.872 Y31.011 Z-3.918
G1 X228.824 Y30.934 Z-3.918
G1 X228.769 Y30.861 Z-3.919
G1 X228.707 Y30.793 Z-3.920
G1 X228.639 Y30.731 Z-3.921
G1 X228.566 Y30.676 Z-3.921
G1 X228.489 Y30.628 Z-3.922
G1 X228.409 Y30.587 Z-3.923
G1 X228.327 Y30.555 Z-3.924
G1 X228.244 Y30.530 Z-3.924
G1 X228.161 Y30.513 Z-3.925
G1 X228.080 Y30.503 Z-3.926
G1 X228.000 Y30.500 Z-3.927
G1 X223.800 Y30.500 Z-3.963
G1 X223.507 Y30.793 Z-3.967
G1 X223.800 Y30.500 Z-3.970
G1 X223.800 Y27.500 Z-3.996
G1 X223.507 Y27.207 Z-4.000
G1 X223.800 Y27.500 Z-4.003
G1 X228.000 Y27.500 Z-4.040
G1 X228.080 Y27.497 Z-4.041
G1 X228.161 Y27.487 Z-4.041
G1 X228.244 Y27.470 Z-4.042
G1 X228.327 Y27.445 Z-4.043
G1 X228.409 Y27.413 Z-4.044
G1 X228.489 Y27.372 Z-4.044
G1 X228.566 Y27.324 Z-4.045
G1 X228.639 Y27.269 Z-4.046
G1 X228.707 Y27.207 Z-4.047
G1 X228.769 Y27.139 Z-4.047
G1 X228.824 Y27.066 Z-4.048
G1 X228.872 Y26.989 Z-4.049
G1 X228.913 Y26.909 Z-4.050
G1 X228.945 Y26.827 Z-4.050
G1 X228.970 Y26.744 Z-4.051
G1 X228.987 Y26.661 Z-4.052
G1 X228.997 Y26.580 Z-4.053
G1 X229.000 Y26.500 Z-4.053
G1 X229.000 Y20.350 Z-4.107
G1 X228.997 Y20.270 Z-4.107
G1 X228.987 Y20.189 Z-4.108
G1 X228.970 Y20.106 Z-4.109
G1 X228.945 Y20.023 Z-4.110
G1 X228.913 Y19.941 Z-4.111
G1 X228.872 Y19.861 Z-4.111
G1 X228.824 Y19.784 Z-4.112
G1 X228.769 Y19.711 Z-4.113
G1 X228.707 Y19.643 Z-4.114
G1 X228.639 Y19.581 Z-4.114
G1 X228.566 Y19.526 Z-4.115
G1 X228.489 Y19.478 Z-4.116
G1 X228.409 Y19.437 Z-4.117
G1 X228.327 Y19.405 Z-4.117
G1 X228.244 Y19.380 Z-4.118
G1 X228.161 Y19.363 Z-4.119
G1 X228.080 Y19.353 Z-4.120
G1 X228.000 Y19.350 Z-4.120
G1 X223.800 Y19.350 Z-4.157
G1 X223.507 Y19.643 Z-4.160
G1 X223.800 Y19.350 Z-4.164
G1 X223.800 Y16.350 Z-4.190
G1 X223.507 Y16.057 Z-4.194
G1 X223.800 Y16.350 Z-4.197
G1 X228.000 Y16.350 Z-4.233
G1 X228.080 Y16.347 Z-4.234
G1 X228.161 Y16.337 Z-4.235
G1 X228.244 Y16.320 Z-4.236
G1 X228.327 Y16.295 Z-4.237
G1 X228.409 Y16.263 Z-4.237
G1 X228.489 Y16.222 Z-4.238
G1 X228.566 Y16.174 Z-4.239
G1 X228.639 Y16.119 Z-4.240
G1 X228.707 Y16.057 Z-4.240
G1 X228.769 Y15.989 Z-4.241
G1 X228.824 Y15.916 Z-4.242
G1 X228.872 Y15.839 Z-4.243
G1 X228.913 Y15.759 Z-4.243
G1 X228.945 Y15.677 Z-4.244
G1 X228.970 Y15.594 Z-4.245
G1 X228.987 Y15.511 Z-4.246
G1 X228.997 Y15.430 Z-4.246
G1 X229.000 Y15.350 Z-4.247
G1 X229.000 Y15.275 Z-4.248
G1 X229.000 Y15.275 Z-4.200
G1 X229.000 Y13.932 Z-4.200
G1 X229.000 Y9.275 Z-4.200
G1 X229.000 Y9.275 Z-4.300
G1 X229.000 Y9.200 Z-4.300
G1 X228.997 Y9.119 Z-4.301
G1 X228.987 Y9.037 Z-4.302
G1 X228.970 Y8.955 Z-4.303
G1 X228.945 Y8.873 Z-4.303
G1 X228.914 Y8.793 Z-4.304
G1 X228.875 Y8.715 Z-4.305
G1 X228.829 Y8.641 Z-4.306
G1 X228.777 Y8.571 Z-4.306
G1 X228.720 Y8.506 Z-4.307
G1 X228.657 Y8.446 Z-4.308
G1 X228.591 Y8.393 Z-4.308
G1 X228.521 Y8.346 Z-4.309
G1 X228.449 Y8.306 Z-4.310
G1 X228.375 Y8.273 Z-4.311
G1 X228.375 Y8.273 Z-4.200
G1 X228.303 Y8.247 Z-4.200
G1 X228.229 Y8.227 Z-4.200
G1 X228.153 Y8.212 Z-4.200
G1 X228.077 Y8.203 Z-4.200
G1 X228.000 Y8.200 Z-4.200
G1 X225.772 Y8.200 Z-4.200
G1 X222.800 Y8.200 Z-4.200 F180.0
G1 X222.400 Y8.200 Z-4.200
G1 X222.400 Y8.200 Z-4.333 F250.0
G1 X217.650 Y8.200 Z-4.333 F180.0
G1 X217.357 Y8.493 Z-4.333
G1 X217.650 Y8.200 Z-4.333
G1 X217.650 Y4.000 Z-4.333
G1 X217.647 Y3.920 Z-4.333
G1 X217.637 Y3.839 Z-4.333
G1 X217.620 Y3.756 Z-4.333
G1 X217.595 Y3.673 Z-4.333
G1 X217.563 Y3.591 Z-4.333
G1 X217.522 Y3.511 Z-4.333
G1 X217.474 Y3.434 Z-4.333
G1 X217.419 Y3.361 Z-4.333
G1 X217.357 Y3.293 Z-4.333
G1 X217.289 Y3.231 Z-4.333
G1 X217.216 Y3.176 Z-4.333
G1 X217.139 Y3.128 Z-4.333
G1 X217.059 Y3.087 Z-4.333
G1 X216.977 Y3.055 Z-4.333
G1 X216.894 Y3.030 Z-4.333
G1 X216.811 Y3.013 Z-4.333
G1 X216.730 Y3.003 Z-4.333
G1 X216.650 Y3.000 Z-4.333
G1 X211.650 Y3.000 Z-4.333
G1 X211.570 Y3.003 Z-4.333
G1 X211.489 Y3.013 Z-4.333
G1 X211.406 Y3.030 Z-4.333
G1 X211.323 Y3.055 Z-4.333
G1 X211.241 Y3.087 Z-4.333
G1 X211.161 Y3.128 Z-4.333
G1 X211.084 Y3.176 Z-4.333
G1 X211.011 Y3.231 Z-4.333
G1 X210.943 Y3.293 Z-4.333
G1 X210.881 Y3.361 Z-4.333
G1 X210.826 Y3.434 Z-4.333
G1 X210.778 Y3.511 Z-4.333
G1 X210.737 Y3.591 Z-4.333
G1 X210.705 Y3.673 Z-4.333
G1 X210.680 Y3.756 Z-4.333
G1 X210.663 Y3.839 Z-4.333
G1 X210.653 Y3.920 Z-4.333
G1 X210.650 Y4.000 Z-4.333
G1 X210.650 Y8.200 Z-4.333
G1 X210.943 Y8.493 Z-4.333
G1 X210.650 Y8.200 Z-4.333
G1 X206.500 Y8.200 Z-4.333
G1 X206.207 Y8.493 Z-4.333
G1 X206.500 Y8.200 Z-4.333
G1 X206.500 Y4.000 Z-4.333
G1 X206.497 Y3.920 Z-4.333
G1 X206.487 Y3.839 Z-4.333
G1 X206.470 Y3.756 Z-4.333
G1 X206.445 Y3.673 Z-4.333
G1 X206.413 Y3.591 Z-4.333
G1 X206.372 Y3.511 Z-4.333
G1 X206.324 Y3.434 Z-4.333
G1 X206.269 Y3.361 Z-4.333
G1 X206.207 Y3.293 Z-4.333
G1 X206.139 Y3.231 Z-4.333
G1 X206.066 Y3.176 Z-4.333
G1 X205.989 Y3.128 Z-4.333
G1 X205.909 Y3.087 Z-4.333
G1 X205.827 Y3.055 Z-4.333
G1 X205.744 Y3.030 Z-4.333
G1 X205.661 Y3.013 Z-4.333
G1 X205.580 Y3.003 Z-4.333
G1 X205.500 Y3.000 Z-4.333
G1 X200.500 Y3.000 Z-4.333
G1 X200.420 Y3.003 Z-4.333
G1 X200.339 Y3.013 Z-4.333
G1 X200.256 Y3.030 Z-4.333
G1 X200.173 Y3.055 Z-4.333
G1 X200.091 Y3.087 Z-4.333
G1 X200.011 Y3.128 Z-4.333
G1 X199.934 Y3.176 Z-4.333
G1 X199.861 Y3.231 Z-4.333
G1 X199.793 Y3.293 Z-4.333
G1 X199.731 Y3.361 Z-4.333
G1 X199.676 Y3.434 Z-4.333
G1 X199.628 Y3.511 Z-4.333
G1 X199.587 Y3.591 Z-4.333
G1 X199.555 Y3.673 Z-4.333
G1 X199.530 Y3.756 Z-4.333
G1 X199.513 Y3.839 Z-4.333
G1 X199.503 Y3.920 Z-4.333
G1 X199.500 Y4.000 Z-4.333
G1 X199.500 Y8.200 Z-4.333
G1 X199.793 Y8.493 Z-4.333
G1 X199.500 Y8.200 Z-4.333
G1 X195.350 Y8.200 Z-4.333
G1 X195.057 Y8.493 Z-4.333
G1 X195.350 Y8.200 Z-4.333
G1 X195.350 Y4.000 Z-4.333
G1 X195.347 Y3.920 Z-4.333
G1 X195.337 Y3.839 Z-4.333
G1 X195.320 Y3.756 Z-4.333
G1 X195.295 Y3.673 Z-4.333
G1 X195.263 Y3.591 Z-4.333
G1 X195.222 Y3.511 Z-4.333
G1 X195.174 Y3.434 Z-4.333
G1 X195.119 Y3.361 Z-4.333
G1 X195.057 Y3.293 Z-4.333
G1 X194.989 Y3.231 Z-4.333
G1 X194.916 Y3.176 Z-4.333
G1 X194.839 Y3.128 Z-4.333
G1 X194.759 Y3.087 Z-4.333
G1 X194.677 Y3.055 Z-4.333
G1 X194.594 Y3.030 Z-4.333
G1 X194.511 Y3.013 Z-4.333
G1 X194.430 Y3.003 Z-4.333
G1 X194.350 Y3.000 Z-4.333
G1 X189.350 Y3.000 Z-4.333
G1 X189.270 Y3.003 Z-4.333
G1 X189.189 Y3.013 Z-4.333
G1 X189.106 Y3.030 Z-4.333
G1 X189.023 Y3.055 Z-4.333
G1 X188.941 Y3.087 Z-4.333
G1 X188.861 Y3.128 Z-4.333
G1 X188.784 Y3.176 Z-4.333
G1 X188.711 Y3.231 Z-4.333
G1 X188.643 Y3.293 Z-4.333
G1 X188.581 Y3.361 Z-4.333
G1 X188.526 Y3.434 Z-4.333
G1 X188.478 Y3.511 Z-4.333
G1 X188.437 Y3.591 Z-4.333
G1 X188.405 Y3.673 Z-4.333
G1 X188.380 Y3.756 Z-4.333
G1 X188.363 Y3.839 Z-4.333
G1 X188.353 Y3.920 Z-4.333
G1 X188.350 Y4.000 Z-4.333
G1 X188.350 Y8.200 Z-4.333
G1 X188.643 Y8.493 Z-4.333
G1 X188.350 Y8.200 Z-4.333
G1 X186.675 Y8.200 Z-4.333
G1 X186.675 Y8.200 Z-4.200
G1 X180.675 Y8.200 Z-4.200
G1 X180.675 Y8.200 Z-4.333 F250.0
G1 X178.000 Y8.200 Z-4.333 F180.0
G1 X177.920 Y8.203 Z-4.333
G1 X177.839 Y8.213 Z-4.333
G1 X177.756 Y8.230 Z-4.333
G1 X177.673 Y8.255 Z-4.333
G1 X177.591 Y8.287 Z-4.333
G1 X177.511 Y8.328 Z-4.333
G1 X177.434 Y8.376 Z-4.333
G1 X177.361 Y8.431 Z-4.333
G1 X177.293 Y8.493 Z-4.333
G1 X177.231 Y8.561 Z-4.333
G1 X177.176 Y8.634 Z-4.333
G1 X177.128 Y8.711 Z-4.333
G1 X177.087 Y8.791 Z-4.333
G1 X177.055 Y8.873 Z-4.333
G1 X177.030 Y8.956 Z-4.333
G1 X177.013 Y9.039 Z-4.333
G1 X177.003 Y9.120 Z-4.333
G1 X177.000 Y9.200 Z-4.333
G1 X177.000 Y9.275 Z-4.333
G1 X177.000 Y9.275 Z-4.200
G1 X177.000 Y15.275 Z-4.200
G1 X177.000 Y15.275 Z-4.333 F250.0
G1 X177.000 Y15.350 Z-4.333 F180.0
G1 X177.003 Y15.430 Z-4.333
G1 X177.013 Y15.511 Z-4.333
G1 X177.030 Y15.594 Z-4.333
G1 X177.055 Y15.677 Z-4.333
G1 X177.087 Y15.759 Z-4.333
G1 X177.128 Y15.839 Z-4.333
G1 X177.176 Y15.916 Z-4.333
G1 X177.231 Y15.989 Z-4.333
G1 X177.293 Y16.057 Z-4.333
G1 X177.361 Y16.119 Z-4.333
G1 X177.434 Y16.174 Z-4.333
G1 X177.511 Y16.222 Z-4.333
G1 X177.591 Y16.263 Z-4.333
G1 X177.673 Y16.295 Z-4.333
G1 X177.756 Y16.320 Z-4.333
G1 X177.839 Y16.337 Z-4.333
G1 X177.920 Y16.347 Z-4.333
G1 X178.000 Y16.350 Z-4.333
G1 X178.810 Y16.350 Z-4.333
G1 X182.200 Y16.350 Z-4.333
G1 X182.493 Y16.057 Z-4.333
G1 X182.200 Y16.350 Z-4.333
G1 X182.200 Y19.350 Z-4.333
G1 X182.493 Y19.643 Z-4.333
G1 X182.200 Y19.350 Z-4.333
G1 X178.000 Y19.350 Z-4.333
G1 X177.920 Y19.353 Z-4.333
G1 X177.839 Y19.363 Z-4.333
G1 X177.756 Y19.380 Z-4.333
G1 X177.673 Y19.405 Z-4.333
G1 X177.591 Y19.437 Z-4.333
G1 X177.511 Y19.478 Z-4.333
G1 X177.434 Y19.526 Z-4.333
G1 X177.361 Y19.581 Z-4.333
G1 X177.293 Y19.643 Z-4.333
G1 X177.231 Y19.711 Z-4.333
G1 X177.176 Y19.784 Z-4.333
G1 X177.128 Y19.861 Z-4.333
G1 X177.087 Y19.941 Z-4.333
G1 X177.055 Y20.023 Z-4.333
G1 X177.030 Y20.106 Z-4.333
G1 X177.013 Y20.189 Z-4.333
G1 X177.003 Y20.270 Z-4.333
G1 X177.000 Y20.350 Z-4.333
G1 X177.000 Y26.500 Z-4.333
G1 X177.003 Y26.580 Z-4.333
G1 X177.013 Y26.661 Z-4.333
G1 X177.030 Y26.744 Z-4.333
G1 X177.055 Y26.827 Z-4.333
G1 X177.087 Y26.909 Z-4.333
G1 X177.128 Y26.989 Z-4.333
G1 X177.176 Y27.066 Z-4.333
G1 X177.231 Y27.139 Z-4.333
G1 X177.293 Y27.207 Z-4.333
G1 X177.361 Y27.269 Z-4.333
G1 X177.434 Y27.324 Z-4.333
G1 X177.511 Y27.372 Z-4.333
G1 X177.591 Y27.413 Z-4.333
G1 X177.673 Y27.445 Z-4.333
G1 X177.756 Y27.470 Z-4.333
G1 X177.839 Y27.487 Z-4.333
G1 X177.920 Y27.497 Z-4.333
G1 X178.000 Y27.500 Z-4.333
G1 X182.200 Y27.500 Z-4.333
G1 X182.493 Y27.207 Z-4.333
G1 X182.200 Y27.500 Z-4.333
G1 X182.200 Y30.500 Z-4.333
G1 X182.493 Y30.793 Z-4.333
G1 X182.200 Y30.500 Z-4.333
G1 X178.000 Y30.500 Z-4.333
G1 X177.920 Y30.503 Z-4.333
G1 X177.839 Y30.513 Z-4.333
G1 X177.756 Y30.530 Z-4.333
G1 X177.673 Y30.555 Z-4.333
G1 X177.591 Y30.587 Z-4.333
G1 X177.511 Y30.628 Z-4.333
G1 X177.434 Y30.676 Z-4.333
G1 X177.361 Y30.731 Z-4.333
G1 X177.293 Y30.793 Z-4.333
G1 X177.231 Y30.861 Z-4.333
G1 X177.176 Y30.934 Z-4.333
G1 X177.128 Y31.011 Z-4.333
G1 X177.087 Y31.091 Z-4.333
G1 X177.055 Y31.173 Z-4.333
G1 X177.030 Y31.256 Z-4.333
G1 X177.013 Y31.339 Z-4.333
G1 X177.003 Y31.420 Z-4.333
G1 X177.000 Y31.500 Z-4.333
G1 X177.000 Y37.650 Z-4.333
G1 X177.003 Y37.730 Z-4.333
G1 X177.013 Y37.811 Z-4.333
G1 X177.030 Y37.894 Z-4.333
G1 X177.055 Y37.977 Z-4.333
G1 X177.087 Y38.059 Z-4.333
G1 X177.128 Y38.139 Z-4.333
G1 X177.176 Y38.216 Z-4.333
G1 X177.231 Y38.289 Z-4.333
G1 X177.293 Y38.357 Z-4.333
G1 X177.361 Y38.419 Z-4.333
G1 X177.434 Y38.474 Z-4.333
G1 X177.511 Y38.522 Z-4.333
G1 X177.591 Y38.563 Z-4.333
G1 X177.673 Y38.595 Z-4.333
G1 X177.756 Y38.620 Z-4.333
G1 X177.839 Y38.637 Z-4.333
G1 X177.920 Y38.647 Z-4.333
G1 X178.000 Y38.650 Z-4.333
G1 X182.200 Y38.650 Z-4.333
G1 X182.493 Y38.357 Z-4.333
G1 X182.200 Y38.650 Z-4.333
G1 X182.200 Y41.650 Z-4.333
G1 X182.493 Y41.943 Z-4.333
G1 X182.200 Y41.650 Z-4.333
G1 X178.000 Y41.650 Z-4.333
G1 X177.920 Y41.653 Z-4.333
G1 X177.839 Y41.663 Z-4.333
G1 X177.756 Y41.680 Z-4.333
G1 X177.673 Y41.705 Z-4.333
G1 X177.591 Y41.737 Z-4.333
G1 X177.511 Y41.778 Z-4.333
G1 X177.434 Y41.826 Z-4.333
G1 X177.361 Y41.881 Z-4.333
G1 X177.293 Y41.943 Z-4.333
G1 X177.231 Y42.011 Z-4.333
G1 X177.176 Y42.084 Z-4.333
G1 X177.128 Y42.161 Z-4.333
G1 X177.087 Y42.241 Z-4.333
G1 X177.055 Y42.323 Z-4.333
G1 X177.030 Y42.406 Z-4.333
G1 X177.013 Y42.489 Z-4.333
G1 X177.003 Y42.570 Z-4.333
G1 X177.000 Y42.650 Z-4.333
G1 X177.000 Y42.725 Z-4.333
G1 X177.000 Y42.725 Z-4.200
G1 X177.000 Y48.725 Z-4.200
G1 X177.000 Y48.725 Z-4.333 F250.0
G1 X177.000 Y48.800 Z-4.333 F180.0
G1 X177.000 Y51.400 Z-4.333
G1 X177.003 Y51.480 Z-4.333
G1 X177.013 Y51.561 Z-4.333
G1 X177.030 Y51.644 Z-4.333
G1 X177.055 Y51.727 Z-4.333
G1 X177.087 Y51.809 Z-4.333
G1 X177.128 Y51.889 Z-4.333
G1 X177.176 Y51.966 Z-4.333
G1 X177.231 Y52.039 Z-4.333
G1 X177.293 Y52.107 Z-4.333
G1 X177.361 Y52.169 Z-4.333
G1 X177.434 Y52.224 Z-4.333
G1 X177.511 Y52.272 Z-4.333
G1 X177.591 Y52.313 Z-4.333
G1 X177.673 Y52.345 Z-4.333
G1 X177.756 Y52.370 Z-4.333
G1 X177.839 Y52.387 Z-4.333
G1 X177.920 Y52.397 Z-4.333
G1 X178.000 Y52.400 Z-4.333
G1 X200.000 Y52.400 Z-4.333
G1 X200.000 Y52.400 Z-4.200
G1 X200.634 Y52.400 Z-4.200
G1 X206.000 Y52.400 Z-4.200
G1 X206.000 Y52.400 Z-4.333 F250.0
G1 X209.165 Y52.400 Z-4.333 F180.0
G1 X228.000 Y52.400 Z-4.333
G1 X228.080 Y52.397 Z-4.333
G1 X228.161 Y52.387 Z-4.333
G1 X228.244 Y52.370 Z-4.333
G1 X228.327 Y52.345 Z-4.333
G1 X228.409 Y52.313 Z-4.333
G1 X228.489 Y52.272 Z-4.333
G1 X228.566 Y52.224 Z-4.333
G1 X228.639 Y52.169 Z-4.333
G1 X228.707 Y52.107 Z-4.333
G1 X228.769 Y52.039 Z-4.333
G1 X228.824 Y51.966 Z-4.333
G1 X228.872 Y51.889 Z-4.333
G1 X228.913 Y51.809 Z-4.333
G1 X228.945 Y51.727 Z-4.333
G1 X228.970 Y51.644 Z-4.333
G1 X228.987 Y51.561 Z-4.333
G1 X228.997 Y51.480 Z-4.333
G1 X229.000 Y51.400 Z-4.333
G1 X229.000 Y48.800 Z-4.333
G1 X229.000 Y48.725 Z-4.333
G1 X229.000 Y48.725 Z-4.200
G1 X229.000 Y42.725 Z-4.200
G1 X229.000 Y42.725 Z-4.333 F250.0
G1 X229.000 Y42.650 Z-4.333 F180.0
G1 X228.997 Y42.570 Z-4.333
G1 X228.987 Y42.489 Z-4.333
G1 X228.970 Y42.406 Z-4.333
G1 X228.945 Y42.323 Z-4.333
G1 X228.913 Y42.241 Z-4.333
G1 X228.872 Y42.161 Z-4.333
G1 X228.824 Y42.084 Z-4.333
G1 X228.769 Y42.011 Z-4.333
G1 X228.707 Y41.943 Z-4.333
G1 X228.639 Y41.881 Z-4.333
G1 X228.566 Y41.826 Z-4.333
G1 X228.489 Y41.778 Z-4.333
G1 X228.409 Y41.737 Z-4.333
G1 X228.327 Y41.705 Z-4.333
G1 X228.244 Y41.680 Z-4.333
G1 X228.161 Y41.663 Z-4.333
G1 X228.080 Y41.653 Z-4.333
G1 X228.000 Y41.650 Z-4.333
G1 X223.800 Y41.650 Z-4.333
G1 X223.507 Y41.943 Z-4.333
G1 X223.800 Y41.650 Z-4.333
G1 X223.800 Y38.650 Z-4.333
G1 X223.507 Y38.357 Z-4.333
G1 X223.800 Y38.650 Z-4.333
G1 X228.000 Y38.650 Z-4.333
G1 X228.080 Y38.647 Z-4.333
G1 X228.161 Y38.637 Z-4.333
G1 X228.244 Y38.620 Z-4.333
G1 X228.327 Y38.595 Z-4.333
G1 X228.409 Y38.563 Z-4.333
G1 X228.489 Y38.522 Z-4.333
G1 X228.566 Y38.474 Z-4.333
G1 X228.639 Y38.419 Z-4.333
G1 X228.707 Y38.357 Z-4.333
G1 X228.769 Y38.289 Z-4.333
G1 X228.824 Y38.216 Z-4.333
G1 X228.872 Y38.139 Z-4.333
G1 X228.913 Y38.059 Z-4.333
G1 X228.945 Y37.977 Z-4.333
G1 X228.970 Y37.894 Z-4.333
G1 X228.987 Y37.811 Z-4.333
G1 X228.997 Y37.730 Z-4.333
G1 X229.000 Y37.650 Z-4.333
G1 X229.000 Y31.500 Z-4.333
G1 X228.997 Y31.420 Z-4.333
G1 X228.987 Y31.339 Z-4.333
G1 X228.970 Y31.256 Z-4.333
G1 X228.945 Y31.173 Z-4.333
G1 X228.913 Y31.091 Z-4.333
G1 X228.872 Y31.011 Z-4.333
G1 X228.824 Y30.934 Z-4.333
G1 X228.769 Y30.861 Z-4.333
G1 X228.707 Y30.793 Z-4.333
G1 X228.639 Y30.731 Z-4.333
G1 X228.566 Y30.676 Z-4.333
G1 X228.489 Y30.628 Z-4.333
G1 X228.409 Y30.587 Z-4.333
G1 X228.327 Y30.555 Z-4.333
G1 X228.244 Y30.530 Z-4.333
G1 X228.161 Y30.513 Z-4.333
G1 X228.080 Y30.503 Z-4.333
G1 X228.000 Y30.500 Z-4.333
G1 X223.800 Y30.500 Z-4.333
G1 X223.507 Y30.793 Z-4.333
G1 X223.800 Y30.500 Z-4.333
G1 X223.800 Y27.500 Z-4.333
G1 X223.507 Y27.207 Z-4.333
G1 X223.800 Y27.500 Z-4.333
G1 X228.000 Y27.500 Z-4.333
G1 X228.080 Y27.497 Z-4.333
G1 X228.161 Y27.487 Z-4.333
G1 X228.244 Y27.470 Z-4.333
G1 X228.327 Y27.445 Z-4.333
G1 X228.409 Y27.413 Z-4.333
G1 X228.489 Y27.372 Z-4.333
G1 X228.566 Y27.324 Z-4.333
G1 X228.639 Y27.269 Z-4.333
G1 X228.707 Y27.207 Z-4.333
G1 X228.769 Y27.139 Z-4.333
G1 X228.824 Y27.066 Z-4.333
G1 X228.872 Y26.989 Z-4.333
G1 X228.913 Y26.909 Z-4.333
G1 X228.945 Y26.827 Z-4.333
G1 X228.970 Y26.744 Z-4.333
G1 X228.987 Y26.661 Z-4.333
G1 X228.997 Y26.580 Z-4.333
G1 X229.000 Y26.500 Z-4.333
G1 X229.000 Y20.350 Z-4.333
G1 X228.997 Y20.270 Z-4.333
G1 X228.987 Y20.189 Z-4.333
G1 X228.970 Y20.106 Z-4.333
G1 X228.945 Y20.023 Z-4.333
G1 X228.913 Y19.941 Z-4.333
G1 X228.872 Y19.861 Z-4.333
G1 X228.824 Y19.784 Z-4.333
G1 X228.769 Y19.711 Z-4.333
G1 X228.707 Y19.643 Z-4.333
G1 X228.639 Y19.581 Z-4.333
G1 X228.566 Y19.526 Z-4.333
G1 X228.489 Y19.478 Z-4.333
G1 X228.409 Y19.437 Z-4.333
G1 X228.327 Y19.405 Z-4.333
G1 X228.244 Y19.380 Z-4.333
G1 X228.161 Y19.363 Z-4.333
G1 X228.080 Y19.353 Z-4.333
G1 X228.000 Y19.350 Z-4.333
G1 X223.800 Y19.350 Z-4.333
G1 X223.507 Y19.643 Z-4.333
G1 X223.800 Y19.350 Z-4.333
G1 X223.800 Y16.350 Z-4.333
G1 X223.507 Y16.057 Z-4.333
G1 X223.800 Y16.350 Z-4.333
G1 X228.000 Y16.350 Z-4.333
G1 X228.080 Y16.347 Z-4.333
G1 X228.161 Y16.337 Z-4.333
G1 X228.244 Y16.320 Z-4.333
G1 X228.327 Y16.295 Z-4.333
G1 X228.409 Y16.263 Z-4.333
G1 X228.489 Y16.222 Z-4.333
G1 X228.566 Y16.174 Z-4.333
G1 X228.639 Y16.119 Z-4.333
G1 X228.707 Y16.057 Z-4.333
G1 X228.769 Y15.989 Z-4.333
G1 X228.824 Y15.916 Z-4.333
G1 X228.872 Y15.839 Z-4.333
G1 X228.913 Y15.759 Z-4.333
G1 X228.945 Y15.677 Z-4.333
G1 X228.970 Y15.594 Z-4.333
G1 X228.987 Y15.511 Z-4.333
G1 X228.997 Y15.430 Z-4.333
G1 X229.000 Y15.350 Z-4.333
G1 X229.000 Y15.275 Z-4.333
G1 X229.000 Y15.275 Z-4.200
G1 X229.000 Y13.932 Z-4.200
G1 X229.000 Y9.275 Z-4.200
G1 X229.000 Y9.275 Z-4.333 F250.0
G1 X229.000 Y9.200 Z-4.333 F180.0
G1 X228.997 Y9.119 Z-4.333
G1 X228.987 Y9.037 Z-4.333
G1 X228.970 Y8.955 Z-4.333
G1 X228.945 Y8.873 Z-4.333
G1 X228.914 Y8.793 Z-4.333
G1 X228.875 Y8.715 Z-4.333
G1 X228.829 Y8.641 Z-4.333
G1 X228.777 Y8.571 Z-4.333
G1 X228.720 Y8.506 Z-4.333
G1 X228.657 Y8.446 Z-4.333
G1 X228.591 Y8.393 Z-4.333
G1 X228.521 Y8.346 Z-4.333
G1 X228.449 Y8.306 Z-4.333
G1 X228.375 Y8.273 Z-4.333
G1 X228.375 Y8.273 Z-4.200
G1 X228.303 Y8.247 Z-4.200
G1 X228.229 Y8.227 Z-4.200
G1 X228.153 Y8.212 Z-4.200
G1 X228.077 Y8.203 Z-4.200
G1 X228.000 Y8.200 Z-4.200
G1 X225.772 Y8.200 Z-4.200
G1 X222.800 Y8.200 Z-4.200
G1 X222.400 Y8.200 Z-4.200
G1 X222.400 Y8.200 Z-5.200 F250.0
G1 X217.650 Y8.200 Z-5.200 F180.0
G1 X217.357 Y8.493 Z-5.200
G1 X217.650 Y8.200 Z-5.200
G1 X217.650 Y4.000 Z-5.200
G1 X217.647 Y3.920 Z-5.200
G1 X217.637 Y3.839 Z-5.200
G1 X217.620 Y3.756 Z-5.200
G1 X217.595 Y3.673 Z-5.200
G1 X217.563 Y3.591 Z-5.200
G1 X217.522 Y3.511 Z-5.200
G1 X217.474 Y3.434 Z-5.200
G1 X217.419 Y3.361 Z-5.200
G1 X217.357 Y3.293 Z-5.200
G1 X217.289 Y3.231 Z-5.200
G1 X217.216 Y3.176 Z-5.200
G1 X217.139 Y3.128 Z-5.200
G1 X217.059 Y3.087 Z-5.200
G1 X216.977 Y3.055 Z-5.200
G1 X216.894 Y3.030 Z-5.200
G1 X216.811 Y3.013 Z-5.200
G1 X216.730 Y3.003 Z-5.200
G1 X216.650 Y3.000 Z-5.200
G1 X211.650 Y3.000 Z-5.200
G1 X211.570 Y3.003 Z-5.200
G1 X211.489 Y3.013 Z-5.200
G1 X211.406 Y3.030 Z-5.200
G1 X211.323 Y3.055 Z-5.200
G1 X211.241 Y3.087 Z-5.200
G1 X211.161 Y3.128 Z-5.200
G1 X211.084 Y3.176 Z-5.200
G1 X211.011 Y3.231 Z-5.200
G1 X210.943 Y3.293 Z-5.200
G1 X210.881 Y3.361 Z-5.200
G1 X210.826 Y3.434 Z-5.200
G1 X210.778 Y3.511 Z-5.200
G1 X210.737 Y3.591 Z-5.200
G1 X210.705 Y3.673 Z-5.200
G1 X210.680 Y3.756 Z-5.200
G1 X210.663 Y3.839 Z-5.200
G1 X210.653 Y3.920 Z-5.200
G1 X210.650 Y4.000 Z-5.200
G1 X210.650 Y8.200 Z-5.200
G1 X210.943 Y8.493 Z-5.200
G1 X210.650 Y8.200 Z-5.200
G1 X206.500 Y8.200 Z-5.200
G1 X206.207 Y8.493 Z-5.200
G1 X206.500 Y8.200 Z-5.200
G1 X206.500 Y4.000 Z-5.200
G1 X206.497 Y3.920 Z-5.200
G1 X206.487 Y3.839 Z-5.200
G1 X206.470 Y3.756 Z-5.200
G1 X206.445 Y3.673 Z-5.200
G1 X206.413 Y3.591 Z-5.200
G1 X206.372 Y3.511 Z-5.200
G1 X206.324 Y3.434 Z-5.200
G1 X206.269 Y3.361 Z-5.200
G1 X206.207 Y3.293 Z-5.200
G1 X206.139 Y3.231 Z-5.200
G1 X206.066 Y3.176 Z-5.200
G1 X205.989 Y3.128 Z-5.200
G1 X205.909 Y3.087 Z-5.200
G1 X205.827 Y3.055 Z-5.200
G1 X205.744 Y3.030 Z-5.200
G1 X205.661 Y3.013 Z-5.200
G1 X205.580 Y3.003 Z-5.200
G1 X205.500 Y3.000 Z-5.200
G1 X200.500 Y3.000 Z-5.200
G1 X200.420 Y3.003 Z-5.200
G1 X200.339 Y3.013 Z-5.200
G1 X200.256 Y3.030 Z-5.200
G1 X200.173 Y3.055 Z-5.200
G1 X200.091 Y3.087 Z-5.200
G1 X200.011 Y3.128 Z-5.200
G1 X199.934 Y3.176 Z-5.200
G1 X199.861 Y3.231 Z-5.200
G1 X199.793 Y3.293 Z-5.200
G1 X199.731 Y3.361 Z-5.200
G1 X199.676 Y3.434 Z-5.200
G1 X199.628 Y3.511 Z-5.200
G1 X199.587 Y3.591 Z-5.200
G1 X199.555 Y3.673 Z-5.200
G1 X199.530 Y3.756 Z-5.200
G1 X199.513 Y3.839 Z-5.200
G1 X199.503 Y3.920 Z-5.200
G1 X199.500 Y4.000 Z-5.200
G1 X199.500 Y8.200 Z-5.200
G1 X199.793 Y8.493 Z-5.200
G1 X199.500 Y8.200 Z-5.200
G1 X195.350 Y8.200 Z-5.200
G1 X195.057 Y8.493 Z-5.200
G1 X195.350 Y8.200 Z-5.200
G1 X195.350 Y4.000 Z-5.200
G1 X195.347 Y3.920 Z-5.200
G1 X195.337 Y3.839 Z-5.200
G1 X195.320 Y3.756 Z-5.200
G1 X195.295 Y3.673 Z-5.200
G1 X195.263 Y3.591 Z-5.200
G1 X195.222 Y3.511 Z-5.200
G1 X195.174 Y3.434 Z-5.200
G1 X195.119 Y3.361 Z-5.200
G1 X195.057 Y3.293 Z-5.200
G1 X194.989 Y3.231 Z-5.200
G1 X194.916 Y3.176 Z-5.200
G1 X194.839 Y3.128 Z-5.200
G1 X194.759 Y3.087 Z-5.200
G1 X194.677 Y3.055 Z-5.200
G1 X194.594 Y3.030 Z-5.200
G1 X194.511 Y3.013 Z-5.200
G1 X194.430 Y3.003 Z-5.200
G1 X194.350 Y3.000 Z-5.200
G1 X189.350 Y3.000 Z-5.200
G1 X189.270 Y3.003 Z-5.200
G1 X189.189 Y3.013 Z-5.200
G1 X189.106 Y3.030 Z-5.200
G1 X189.023 Y3.055 Z-5.200
G1 X188.941 Y3.087 Z-5.200
G1 X188.861 Y3.128 Z-5.200
G1 X188.784 Y3.176 Z-5.200
G1 X188.711 Y3.231 Z-5.200
G1 X188.643 Y3.293 Z-5.200
G1 X188.581 Y3.361 Z-5.200
G1 X188.526 Y3.434 Z-5.200
G1 X188.478 Y3.511 Z-5.200
G1 X188.437 Y3.591 Z-5.200
G1 X188.405 Y3.673 Z-5.200
G1 X188.380 Y3.756 Z-5.200
G1 X188.363 Y3.839 Z-5.200
G1 X188.353 Y3.920 Z-5.200
G1 X188.350 Y4.000 Z-5.200
G1 X188.350 Y8.200 Z-5.200
G1 X188.643 Y8.493 Z-5.200
G1 X188.350 Y8.200 Z-5.200
G1 X186.675 Y8.200 Z-5.200
G1 X186.675 Y8.200 Z-4.200
G1 X180.675 Y8.200 Z-4.200
G1 X180.675 Y8.200 Z-5.200 F250.0
G1 X178.000 Y8.200 Z-5.200 F180.0
G1 X177.920 Y8.203 Z-5.200
G1 X177.839 Y8.213 Z-5.200
G1 X177.756 Y8.230 Z-5.200
G1 X177.673 Y8.255 Z-5.200
G1 X177.591 Y8.287 Z-5.200
G1 X177.511 Y8.328 Z-5.200
G1 X177.434 Y8.376 Z-5.200
G1 X177.361 Y8.431 Z-5.200
G1 X177.293 Y8.493 Z-5.200
G1 X177.231 Y8.561 Z-5.200
G1 X177.176 Y8.634 Z-5.200
G1 X177.128 Y8.711 Z-5.200
G1 X177.087 Y8.791 Z-5.200
G1 X177.055 Y8.873 Z-5.200
G1 X177.030 Y8.956 Z-5.200
G1 X177.013 Y9.039 Z-5.200
G1 X177.003 Y9.120 Z-5.200
G1 X177.000 Y9.200 Z-5.200
G1 X177.000 Y9.275 Z-5.200
G1 X177.000 Y9.275 Z-4.200
G1 X177.000 Y15.275 Z-4.200
G1 X177.000 Y15.275 Z-5.200 F250.0
G1 X177.000 Y15.350 Z-5.200 F180.0
G1 X177.003 Y15.430 Z-5.200
G1 X177.013 Y15.511 Z-5.200
G1 X177.030 Y15.594 Z-5.200
G1 X177.055 Y15.677 Z-5.200
G1 X177.087 Y15.759 Z-5.200
G1 X177.128 Y15.839 Z-5.200
G1 X177.176 Y15.916 Z-5.200
G1 X177.231 Y15.989 Z-5.200
G1 X177.293 Y16.057 Z-5.200
G1 X177.361 Y16.119 Z-5.200
G1 X177.434 Y16.174 Z-5.200
G1 X177.511 Y16.222 Z-5.200
G1 X177.591 Y16.263 Z-5.200
G1 X177.673 Y16.295 Z-5.200
G1 X177.756 Y16.320 Z-5.200
G1 X177.839 Y16.337 Z-5.200
G1 X177.920 Y16.347 Z-5.200
G1 X178.000 Y16.350 Z-5.200
G1 X178.810 Y16.350 Z-5.200
G1 X182.200 Y16.350 Z-5.200
G1 X182.493 Y16.057 Z-5.200
G1 X182.200 Y16.350 Z-5.200
G1 X182.200 Y19.350 Z-5.200
G1 X182.493 Y19.643 Z-5.200
G1 X182.200 Y19.350 Z-5.200
G1 X178.000 Y19.350 Z-5.200
G1 X177.920 Y19.353 Z-5.200
G1 X177.839 Y19.363 Z-5.200
G1 X177.756 Y19.380 Z-5.200
G1 X177.673 Y19.405 Z-5.200
G1 X177.591 Y19.437 Z-5.200
G1 X177.511 Y19.478 Z-5.200
G1 X177.434 Y19.526 Z-5.200
G1 X177.361 Y19.581 Z-5.200
G1 X177.293 Y19.643 Z-5.200
G1 X177.231 Y19.711 Z-5.200
G1 X177.176 Y19.784 Z-5.200
G1 X177.128 Y19.861 Z-5.200
G1 X177.087 Y19.941 Z-5.200
G1 X177.055 Y20.023 Z-5.200
G1 X177.030 Y20.106 Z-5.200
G1 X177.013 Y20.189 Z-5.200
G1 X177.003 Y20.270 Z-5.200
G1 X177.000 Y20.350 Z-5.200
G1 X177.000 Y26.500 Z-5.200
G1 X177.003 Y26.580 Z-5.200
G1 X177.013 Y26.661 Z-5.200
G1 X177.030 Y26.744 Z-5.200
G1 X177.055 Y26.827 Z-5.200
G1 X177.087 Y26.909 Z-5.200
G1 X177.128 Y26.989 Z-5.200
G1 X177.176 Y27.066 Z-5.200
G1 X177.231 Y27.139 Z-5.200
G1 X177.293 Y27.207 Z-5.200
G1 X177.361 Y27.269 Z-5.200
G1 X177.434 Y27.324 Z-5.200
G1 X177.511 Y27.372 Z-5.200
G1 X177.591 Y27.413 Z-5.200
G1 X177.673 Y27.445 Z-5.200
G1 X177.756 Y27.470 Z-5.200
G1 X177.839 Y27.487 Z-5.200
G1 X177.920 Y27.497 Z-5.200
G1 X178.000 Y27.500 Z-5.200
G1 X182.200 Y27.500 Z-5.200
G1 X182.493 Y27.207 Z-5.200
G1 X182.200 Y27.500 Z-5.200
G1 X182.200 Y30.500 Z-5.200
G1 X182.493 Y30.793 Z-5.200
G1 X182.200 Y30.500 Z-5.200
G1 X178.000 Y30.500 Z-5.200
G1 X177.920 Y30.503 Z-5.200
G1 X177.839 Y30.513 Z-5.200
G1 X177.756 Y30.530 Z-5.200
G1 X177.673 Y30.555 Z-5.200
G1 X177.591 Y30.587 Z-5.200
G1 X177.511 Y30.628 Z-5.200
G1 X177.434 Y30.676 Z-5.200
G1 X177.361 Y30.731 Z-5.200
G1 X177.293 Y30.793 Z-5.200
G1 X177.231 Y30.861 Z-5.200
G1 X177.176 Y30.934 Z-5.200
G1 X177.128 Y31.011 Z-5.200
G1 X177.087 Y31.091 Z-5.200
G1 X177.055 Y31.173 Z-5.200
G1 X177.030 Y31.256 Z-5.200
G1 X177.013 Y31.339 Z-5.200
G1 X177.003 Y31.420 Z-5.200
G1 X177.000 Y31.500 Z-5.200
G1 X177.000 Y37.650 Z-5.200
G1 X177.003 Y37.730 Z-5.200
G1 X177.013 Y37.811 Z-5.200
G1 X177.030 Y37.894 Z-5.200
G1 X177.055 Y37.977 Z-5.200
G1 X177.087 Y38.059 Z-5.200
G1 X177.128 Y38.139 Z-5.200
G1 X177.176 Y38.216 Z-5.200
G1 X177.231 Y38.289 Z-5.200
G1 X177.293 Y38.357 Z-5.200
G1 X177.361 Y38.419 Z-5.200
G1 X177.434 Y38.474 Z-5.200
G1 X177.511 Y38.522 Z-5.200
G1 X177.591 Y38.563 Z-5.200
G1 X177.673 Y38.595 Z-5.200
G1 X177.756 Y38.620 Z-5.200
G1 X177.839 Y38.637 Z-5.200
G1 X177.920 Y38.647 Z-5.200
G1 X178.000 Y38.650 Z-5.200
G1 X182.200 Y38.650 Z-5.200
G1 X182.493 Y38.357 Z-5.200
G1 X182.200 Y38.650 Z-5.200
G1 X182.200 Y41.650 Z-5.200
G1 X182.493 Y41.943 Z-5.200
G1 X182.200 Y41.650 Z-5.200
G1 X178.000 Y41.650 Z-5.200
G1 X177.920 Y41.653 Z-5.200
G1 X177.839 Y41.663 Z-5.200
G1 X177.756 Y41.680 Z-5.200
G1 X177.673 Y41.705 Z-5.200
G1 X177.591 Y41.737 Z-5.200
G1 X177.511 Y41.778 Z-5.200
